kit/luts/signature_teal_orange.cube
# anime-edit-studio signature teal-orange
TITLE "signature_teal_orange"
LUT_3D_SIZE 33
0.00000 0.01520 0.06560
0.00000 0.01480 0.06426
0.00000 0.01418 0.06270
0.00000 0.01336 0.06093
0.00866 0.01235 0.05898
0.03387 0.01116 0.05685
0.06344 0.00980 0.05455
0.09697 0.00831 0.05211
0.13405 0.00668 0.04954
0.17430 0.00493 0.04685
0.21731 0.00308 0.04406
0.26270 0.00115 0.04118
0.31007 0.00000 0.03823
0.35902 0.00000 0.03522
0.40915 0.00000 0.03217
0.46008 0.00000 0.02908
0.51140 0.00000 0.02599
0.56272 0.00000 0.02289
0.61365 0.00000 0.01980
0.66378 0.00000 0.01675
0.71273 0.00000 0.01374
0.76010 0.00000 0.01079
0.80549 0.00000 0.00791
0.84850 0.00000 0.00512
0.88875 0.00000 0.00243
0.92583 0.00000 0.00000
0.95936 0.00000 0.00000
0.98892 0.00000 0.00000
1.00000 0.00000 0.00000
1.00000 0.00000 0.00000
1.00000 0.00000 0.00000
1.00000 0.00000 0.00000
1.00000 0.00000 0.00000
0.00000 0.01774 0.06308
0.00000 0.01734 0.06174
0.00000 0.01672 0.06018
0.00000 0.01590 0.05841
0.01004 0.01489 0.05646
0.03526 0.01370 0.05432
0.06482 0.01234 0.05203
0.09835 0.01085 0.04959
0.13543 0.00922 0.04702
0.17568 0.00747 0.04433
0.21869 0.00562 0.04154
0.26408 0.00369 0.03866
0.31145 0.00168 0.03571
0.36040 0.00000 0.03270
0.41053 0.00000 0.02965
0.46146 0.00000 0.02656
0.51278 0.00000 0.02346
0.56410 0.00000 0.02037
0.61503 0.00000 0.01728
0.66516 0.00000 0.01423
0.71411 0.00000 0.01122
0.76148 0.00000 0.00826
0.80687 0.00000 0.00539
0.84988 0.00000 0.00260
0.89013 0.00000 0.00000
0.92721 0.00000 0.00000
0.96074 0.00000 0.00000
0.99031 0.00000 0.00000
1.00000 0.00000 0.00000
1.00000 0.00000 0.00000
1.00000 0.00000 0.00000
1.00000 0.00000 0.00000
1.00000 0.00000 0.00000
0.00000 0.02621 0.06034
0.00000 0.02581 0.05900
0.00000 0.02520 0.05744
0.00000 0.02437 0.05567
0.01120 0.02336 0.05372
0.03642 0.02217 0.05158
0.06599 0.02082 0.04929
0.09951 0.01932 0.04685
0.13659 0.01769 0.04428
0.17684 0.01594 0.04159
0.21986 0.01410 0.03880
0.26525 0.01216 0.03592
0.31261 0.01015 0.03297
0.36156 0.00808 0.02996
0.41170 0.00597 0.02691
0.46262 0.00383 0.02382
0.51394 0.00167 0.02072
0.56527 0.00000 0.01762
0.61619 0.00000 0.01454
0.66633 0.00000 0.01149
0.71527 0.00000 0.00848
0.76264 0.00000 0.00552
0.80803 0.00000 0.00264
0.85105 0.00000 0.00000
0.89129 0.00000 0.00000
0.92838 0.00000 0.00000
0.96190 0.00000 0.00000
0.99147 0.00000 0.00000
1.00000 0.00000 0.00000
1.00000 0.00000 0.00000
1.00000 0.00000 0.00000
1.00000 0.00000 0.00000
1.00000 0.00000 0.00000
0.00000 0.04022 0.05739
0.00000 0.03983 0.05605
0.00000 0.03921 0.05449
0.00000 0.03838 0.05272
0.01216 0.03737 0.05077
0.03738 0.03618 0.04864
0.06694 0.03483 0.04634
0.10047 0.03333 0.04391
0.13755 0.03170 0.04133
0.17780 0.02995 0.03865
0.22081 0.02811 0.03585
0.26620 0.02617 0.03298
0.31357 0.02416 0.03002
0.36252 0.02209 0.02701
0.41265 0.01998 0.02396
0.46358 0.01784 0.02088
0.51490 0.01568 0.01778
0.56622 0.01352 0.01468
0.61715 0.01138 0.01159
0.66728 0.00927 0.00854
0.71623 0.00720 0.00553
0.76360 0.00519 0.00258
0.80899 0.00325 0.00000
0.85200 0.00140 0.00000
0.89225 0.00000 0.00000
0.92933 0.00000 0.00000
0.96286 0.00000 0.00000
0.99243 0.00000 0.00000
1.00000 0.00000 0.00000
1.00000 0.00000 0.00000
1.00000 0.00000 0.00000
1.00000 0.00000 0.00000
1.00000 0.00000 0.00000
0.00000 0.05938 0.05425
0.00000 0.05898 0.05291
0.00000 0.05836 0.05135
0.00000 0.05753 0.04959
0.01292 0.05652 0.04763
0.03814 0.05533 0.04550
0.06771 0.05398 0.04321
0.10123 0.05248 0.04077
0.13832 0.05085 0.03820
0.17857 0.04911 0.03551
0.22158 0.04726 0.03272
0.26697 0.04532 0.02984
0.31434 0.04331 0.02689
0.36329 0.04124 0.02388
0.41342 0.03913 0.02082
0.46435 0.03699 0.01774
0.51567 0.03483 0.01464
0.56699 0.03267 0.01154
0.61792 0.03053 0.00846
0.66805 0.02842 0.00540
0.71700 0.02635 0.00239
0.76437 0.02434 0.00000
0.80975 0.02240 0.00000
0.85277 0.02055 0.00000
0.89302 0.01881 0.00000
0.93010 0.01718 0.00000
0.96362 0.01568 0.00000
0.99319 0.01433 0.00000
1.00000 0.01314 0.00000
1.00000 0.01213 0.00000
1.00000 0.01130 0.00000
1.00000 0.01068 0.00000
1.00000 0.01029 0.00000
0.00000 0.08327 0.05094
0.00000 0.08287 0.04960
0.00000 0.08226 0.04804
0.00000 0.08143 0.04628
0.01352 0.08042 0.04432
0.03873 0.07923 0.04219
0.06830 0.07788 0.03990
0.10183 0.07638 0.03746
0.13891 0.07475 0.03488
0.17916 0.07300 0.03220
0.22217 0.07116 0.02941
0.26756 0.06922 0.02653
0.31493 0.06721 0.02357
0.36388 0.06514 0.02056
0.41401 0.06303 0.01751
0.46494 0.06089 0.01443
0.51626 0.05873 0.01133
0.56758 0.05657 0.00823
0.61851 0.05443 0.00515
0.66864 0.05232 0.00209
0.71759 0.05025 0.00000
0.76496 0.04824 0.00000
0.81035 0.04630 0.00000
0.85336 0.04445 0.00000
0.89361 0.04271 0.00000
0.93069 0.04108 0.00000
0.96422 0.03958 0.00000
0.99378 0.03823 0.00000
1.00000 0.03704 0.00000
1.00000 0.03602 0.00000
1.00000 0.03520 0.00000
1.00000 0.03458 0.00000
1.00000 0.03418 0.00000
0.00000 0.11152 0.04747
0.00000 0.11112 0.04613
0.00000 0.11050 0.04457
0.00000 0.10968 0.04280
0.01395 0.10867 0.04085
0.03916 0.10748 0.03871
0.06873 0.10613 0.03642
0.10226 0.10463 0.03398
0.13934 0.10300 0.03141
0.17959 0.10125 0.02872
0.22260 0.09940 0.02593
0.26799 0.09747 0.02305
0.31536 0.09546 0.02010
0.36431 0.09339 0.01709
0.41444 0.09128 0.01404
0.46537 0.08913 0.01095
0.51669 0.08698 0.00785
0.56801 0.08482 0.00476
0.61894 0.08268 0.00167
0.66907 0.08057 0.00000
0.71802 0.07850 0.00000
0.76539 0.07649 0.00000
0.81078 0.07455 0.00000
0.85379 0.07270 0.00000
0.89404 0.07095 0.00000
0.93112 0.06933 0.00000
0.96465 0.06783 0.00000
0.99421 0.06648 0.00000
1.00000 0.06529 0.00000
1.00000 0.06427 0.00000
1.00000 0.06345 0.00000
1.00000 0.06283 0.00000
1.00000 0.06243 0.00000
0.00000 0.14373 0.04385
0.00000 0.14333 0.04251
0.00000 0.14271 0.04095
0.00000 0.14188 0.03918
0.01423 0.14087 0.03723
0.03945 0.13968 0.03509
0.06902 0.13833 0.03280
0.10254 0.13683 0.03036
0.13962 0.13520 0.02779
0.17987 0.13346 0.02510
0.22289 0.13161 0.02231
0.26827 0.12967 0.01943
0.31564 0.12766 0.01648
0.36459 0.12559 0.01347
0.41472 0.12348 0.01042
0.46565 0.12134 0.00733
0.51697 0.11918 0.00423
0.56829 0.11702 0.00114
0.61922 0.11488 0.00000
0.66935 0.11277 0.00000
0.71830 0.11070 0.00000
0.76567 0.10869 0.00000
0.81106 0.10675 0.00000
0.85407 0.10490 0.00000
0.89432 0.10316 0.00000
0.93141 0.10153 0.00000
0.96493 0.10003 0.00000
0.99450 0.09868 0.00000
1.00000 0.09749 0.00000
1.00000 0.09648 0.00000
1.00000 0.09565 0.00000
1.00000 0.09503 0.00000
1.00000 0.09464 0.00000
0.00000 0.17949 0.04010
0.00000 0.17909 0.03876
0.00000 0.17847 0.03720
0.00000 0.17765 0.03543
0.01438 0.17663 0.03347
0.03960 0.17544 0.03134
0.06917 0.17409 0.02905
0.10269 0.17260 0.02661
0.13977 0.17097 0.02404
0.18002 0.16922 0.02135
0.22304 0.16737 0.01856
0.26843 0.16543 0.01568
0.31579 0.16342 0.01273
0.36474 0.16136 0.00972
0.41488 0.15924 0.00666
0.46580 0.15710 0.00358
0.51712 0.15494 0.00048
0.56845 0.15279 0.00000
0.61937 0.15065 0.00000
0.66951 0.14853 0.00000
0.71846 0.14646 0.00000
0.76582 0.14445 0.00000
0.81121 0.14252 0.00000
0.85423 0.14067 0.00000
0.89447 0.13892 0.00000
0.93156 0.13729 0.00000
0.96508 0.13579 0.00000
0.99465 0.13444 0.00000
1.00000 0.13325 0.00000
1.00000 0.13224 0.00000
1.00000 0.13142 0.00000
1.00000 0.13080 0.00000
1.00000 0.13040 0.00000
0.00000 0.21842 0.03623
0.00000 0.21802 0.03489
0.00000 0.21740 0.03333
0.00000 0.21658 0.03156
0.01442 0.21556 0.02960
0.03963 0.21437 0.02747
0.06920 0.21302 0.02518
0.10273 0.21152 0.02274
0.13981 0.20989 0.02017
0.18006 0.20815 0.01748
0.22307 0.20630 0.01469
0.26846 0.20436 0.01181
0.31583 0.20235 0.00886
0.36478 0.20028 0.00585
0.41491 0.19817 0.00280
0.46584 0.19603 0.00000
0.51716 0.19387 0.00000
0.56848 0.19171 0.00000
0.61941 0.18957 0.00000
0.66954 0.18746 0.00000
0.71849 0.18539 0.00000
0.76586 0.18338 0.00000
0.81124 0.18144 0.00000
0.85426 0.17960 0.00000
0.89451 0.17785 0.00000
0.93159 0.17622 0.00000
0.96511 0.17472 0.00000
0.99468 0.17337 0.00000
1.00000 0.17218 0.00000
1.00000 0.17117 0.00000
1.00000 0.17034 0.00000
1.00000 0.16973 0.00000
1.00000 0.16933 0.00000
0.00000 0.26011 0.03226
0.00000 0.25971 0.03092
0.00000 0.25909 0.02935
0.00000 0.25827 0.02759
0.01435 0.25726 0.02563
0.03957 0.25607 0.02350
0.06913 0.25472 0.02121
0.10266 0.25322 0.01877
0.13974 0.25159 0.01620
0.17999 0.24984 0.01351
0.22300 0.24799 0.01072
0.26839 0.24606 0.00784
0.31576 0.24405 0.00489
0.36471 0.24198 0.00188
0.41484 0.23987 0.00000
0.46577 0.23772 0.00000
0.51709 0.23557 0.00000
0.56841 0.23341 0.00000
0.61934 0.23127 0.00000
0.66947 0.22916 0.00000
0.71842 0.22709 0.00000
0.76579 0.22508 0.00000
0.81118 0.22314 0.00000
0.85419 0.22129 0.00000
0.89444 0.21954 0.00000
0.93152 0.21792 0.00000
0.96505 0.21642 0.00000
0.99462 0.21507 0.00000
1.00000 0.21388 0.00000
1.00000 0.21286 0.00000
1.00000 0.21204 0.00000
1.00000 0.21142 0.00000
1.00000 0.21102 0.00000
0.00000 0.30418 0.02820
0.00000 0.30378 0.02686
0.00000 0.30316 0.02530
0.00000 0.30234 0.02353
0.01419 0.30133 0.02157
0.03941 0.30014 0.01944
0.06898 0.29878 0.01715
0.10250 0.29729 0.01471
0.13958 0.29566 0.01214
0.17983 0.29391 0.00945
0.22285 0.29206 0.00666
0.26824 0.29013 0.00378
0.31560 0.28812 0.00083
0.36455 0.28605 0.00000
0.41469 0.28393 0.00000
0.46561 0.28179 0.00000
0.51693 0.27964 0.00000
0.56826 0.27748 0.00000
0.61918 0.27534 0.00000
0.66932 0.27322 0.00000
0.71827 0.27116 0.00000
0.76563 0.26915 0.00000
0.81102 0.26721 0.00000
0.85404 0.26536 0.00000
0.89428 0.26361 0.00000
0.93137 0.26198 0.00000
0.96489 0.26049 0.00000
0.99446 0.25914 0.00000
1.00000 0.25795 0.00000
1.00000 0.25693 0.00000
1.00000 0.25611 0.00000
1.00000 0.25549 0.00000
1.00000 0.25515 0.00000
0.00000 0.35023 0.02406
0.00000 0.34983 0.02272
0.00000 0.34921 0.02116
0.00000 0.34839 0.01940
0.01396 0.34737 0.01744
0.03918 0.34618 0.01531
0.06875 0.34483 0.01302
0.10227 0.34333 0.01058
0.13936 0.34170 0.00801
0.17960 0.33996 0.00532
0.22262 0.33811 0.00253
0.26801 0.33617 0.00000
0.31537 0.33416 0.00000
0.36432 0.33209 0.00000
0.41446 0.32998 0.00000
0.46538 0.32784 0.00000
0.51671 0.32568 0.00000
0.56803 0.32353 0.00000
0.61895 0.32138 0.00000
0.66909 0.31927 0.00000
0.71804 0.31720 0.00000
0.76540 0.31519 0.00000
0.81079 0.31326 0.00000
0.85381 0.31141 0.00000
0.89405 0.30966 0.00000
0.93114 0.30803 0.00000
0.96466 0.30653 0.00000
0.99423 0.30518 0.00000
1.00000 0.30399 0.00000
1.00000 0.30298 0.00000
1.00000 0.30219 0.00000
1.00000 0.30224 0.00000
1.00000 0.30252 0.00000
0.00000 0.39786 0.01987
0.00000 0.39746 0.01853
0.00000 0.39684 0.01697
0.00000 0.39601 0.01521
0.01367 0.39500 0.01325
0.03889 0.39381 0.01112
0.06846 0.39246 0.00883
0.10198 0.39096 0.00639
0.13907 0.38933 0.00381
0.17932 0.38759 0.00113
0.22233 0.38574 0.00000
0.26772 0.38380 0.00000
0.31509 0.38179 0.00000
0.36403 0.37972 0.00000
0.41417 0.37761 0.00000
0.46510 0.37547 0.00000
0.51642 0.37331 0.00000
0.56774 0.37115 0.00000
0.61866 0.36901 0.00000
0.66880 0.36690 0.00000
0.71775 0.36483 0.00000
0.76511 0.36282 0.00000
0.81050 0.36088 0.00000
0.85352 0.35903 0.00000
0.89377 0.35729 0.00000
0.93085 0.35566 0.00000
0.96437 0.35416 0.00000
0.99394 0.35281 0.00000
1.00000 0.35163 0.00000
1.00000 0.35129 0.00000
1.00000 0.35114 0.00000
1.00000 0.35120 0.00000
1.00000 0.35148 0.00000
0.00000 0.44667 0.01564
0.00000 0.44627 0.01430
0.00000 0.44565 0.01274
0.00000 0.44483 0.01097
0.01334 0.44382 0.00901
0.03856 0.44263 0.00688
0.06813 0.44127 0.00459
0.10165 0.43978 0.00215
0.13874 0.43815 0.00000
0.17898 0.43640 0.00000
0.22200 0.43455 0.00000
0.26739 0.43262 0.00000
0.31475 0.43061 0.00000
0.36370 0.42854 0.00000
0.41384 0.42642 0.00000
0.46476 0.42428 0.00000
0.51609 0.42213 0.00000
0.56741 0.41997 0.00000
0.61833 0.41783 0.00000
0.66847 0.41571 0.00000
0.71742 0.41365 0.00000
0.76478 0.41164 0.00000
0.81017 0.40970 0.00000
0.85319 0.40785 0.00000
0.89344 0.40610 0.00000
0.93052 0.40447 0.00000
0.96404 0.40298 0.00000
0.99427 0.40228 0.00000
1.00000 0.40177 0.00000
1.00000 0.40143 0.00000
1.00000 0.40129 0.00000
1.00000 0.40134 0.00000
1.00000 0.40162 0.00000
0.00000 0.49628 0.01137
0.00000 0.49588 0.01003
0.00000 0.49526 0.00847
0.00000 0.49444 0.00671
0.01298 0.49342 0.00475
0.03820 0.49223 0.00262
0.06777 0.49088 0.00033
0.10129 0.48938 0.00000
0.13837 0.48775 0.00000
0.17862 0.48601 0.00000
0.22164 0.48416 0.00000
0.26703 0.48222 0.00000
0.31439 0.48021 0.00000
0.36334 0.47814 0.00000
0.41348 0.47603 0.00000
0.46440 0.47389 0.00000
0.51572 0.47173 0.00000
0.56705 0.46957 0.00000
0.61797 0.46743 0.00000
0.66811 0.46532 0.00000
0.71706 0.46325 0.00000
0.76442 0.46124 0.00000
0.80981 0.45930 0.00000
0.85283 0.45746 0.00000
0.89307 0.45571 0.00000
0.93079 0.45471 0.00000
0.96499 0.45389 0.00000
0.99524 0.45322 0.00000
1.00000 0.45270 0.00000
1.00000 0.45237 0.00000
1.00000 0.45222 0.00000
1.00000 0.45228 0.00000
1.00000 0.45256 0.00000
0.00000 0.54628 0.00709
0.00000 0.54588 0.00575
0.00000 0.54526 0.00419
0.00000 0.54444 0.00243
0.01261 0.54342 0.00047
0.03782 0.54223 0.00000
0.06739 0.54088 0.00000
0.10092 0.53938 0.00000
0.13800 0.53776 0.00000
0.17825 0.53601 0.00000
0.22126 0.53416 0.00000
0.26665 0.53222 0.00000
0.31402 0.53021 0.00000
0.36297 0.52814 0.00000
0.41310 0.52603 0.00000
0.46403 0.52389 0.00000
0.51535 0.52173 0.00000
0.56667 0.51958 0.00000
0.61760 0.51743 0.00000
0.66773 0.51532 0.00000
0.71668 0.51325 0.00000
0.76405 0.51124 0.00000
0.80944 0.50931 0.00000
0.85306 0.50807 0.00000
0.89398 0.50700 0.00000
0.93174 0.50604 0.00000
0.96594 0.50522 0.00000
0.99619 0.50455 0.00000
1.00000 0.50403 0.00000
1.00000 0.50370 0.00000
1.00000 0.50355 0.00000
1.00000 0.50361 0.00000
1.00000 0.50389 0.00000
0.00000 0.59628 0.00281
0.00000 0.59588 0.00147
0.00000 0.59526 0.00000
0.00000 0.59444 0.00000
0.01223 0.59342 0.00000
0.03745 0.59223 0.00000
0.06702 0.59088 0.00000
0.10054 0.58939 0.00000
0.13762 0.58776 0.00000
0.17787 0.58601 0.00000
0.22089 0.58416 0.00000
0.26628 0.58222 0.00000
0.31364 0.58021 0.00000
0.36259 0.57815 0.00000
0.41273 0.57603 0.00000
0.46365 0.57389 0.00000
0.51497 0.57173 0.00000
0.56629 0.56958 0.00000
0.61722 0.56744 0.00000
0.66736 0.56532 0.00000
0.71630 0.56325 0.00000
0.76425 0.56183 0.00000
0.81032 0.56057 0.00000
0.85401 0.55939 0.00000
0.89494 0.55833 0.00000
0.93270 0.55737 0.00000
0.96690 0.55655 0.00000
0.99714 0.55588 0.00000
1.00000 0.55536 0.00000
1.00000 0.55503 0.00000
1.00000 0.55488 0.00000
1.00000 0.55494 0.00000
1.00000 0.55521 0.00000
0.00000 0.64588 0.00000
0.00000 0.64549 0.00000
0.00000 0.64487 0.00000
0.00000 0.64404 0.00000
0.01187 0.64303 0.00000
0.03709 0.64184 0.00000
0.06666 0.64049 0.00000
0.10018 0.63899 0.00000
0.13726 0.63736 0.00000
0.17751 0.63562 0.00000
0.22053 0.63377 0.00000
0.26591 0.63183 0.00000
0.31328 0.62982 0.00000
0.36223 0.62775 0.00000
0.41236 0.62564 0.00000
0.46329 0.62350 0.00000
0.51461 0.62134 0.00000
0.56593 0.61918 0.00000
0.61686 0.61704 0.00000
0.66755 0.61549 0.00000
0.71718 0.61410 0.00000
0.76522 0.61276 0.00000
0.81129 0.61150 0.00000
0.85498 0.61033 0.00000
0.89590 0.60926 0.00000
0.93366 0.60831 0.00000
0.96786 0.60749 0.00000
0.99811 0.60681 0.00000
1.00000 0.60630 0.00000
1.00000 0.60596 0.00000
1.00000 0.60581 0.00000
1.00000 0.60587 0.00000
1.00000 0.60615 0.00000
0.00000 0.69470 0.00000
0.00000 0.69430 0.00000
0.00000 0.69368 0.00000
0.00000 0.69286 0.00000
0.01154 0.69184 0.00000
0.03676 0.69066 0.00000
0.06632 0.68930 0.00000
0.09985 0.68781 0.00000
0.13693 0.68618 0.00000
0.17718 0.68443 0.00000
0.22019 0.68258 0.00000
0.26558 0.68065 0.00000
0.31295 0.67864 0.00000
0.36190 0.67657 0.00000
0.41203 0.67445 0.00000
0.46296 0.67231 0.00000
0.51428 0.67016 0.00000
0.56614 0.66853 0.00000
0.61774 0.66707 0.00000
0.66855 0.66563 0.00000
0.71817 0.66424 0.00000
0.76622 0.66290 0.00000
0.81228 0.66164 0.00000
0.85598 0.66047 0.00000
0.89690 0.65940 0.00000
0.93466 0.65845 0.00000
0.96886 0.65763 0.00000
0.99910 0.65695 0.00000
1.00000 0.65644 0.00000
1.00000 0.65610 0.00000
1.00000 0.65596 0.00000
1.00000 0.65601 0.00000
1.00000 0.65629 0.00000
0.00000 0.74233 0.00000
0.00000 0.74193 0.00000
0.00000 0.74131 0.00000
0.00000 0.74049 0.00000
0.01125 0.73947 0.00000
0.03647 0.73828 0.00000
0.06604 0.73693 0.00000
0.09956 0.73544 0.00000
0.13664 0.73381 0.00000
0.17689 0.73206 0.00000
0.21991 0.73021 0.00000
0.26529 0.72827 0.00000
0.31266 0.72626 0.00000
0.36161 0.72419 0.00000
0.41174 0.72208 0.00000
0.46318 0.72045 0.00000
0.51518 0.71897 0.00000
0.56718 0.71749 0.00000
0.61878 0.71602 0.00000
0.66959 0.71459 0.00000
0.71922 0.71320 0.00000
0.76726 0.71186 0.00000
0.81332 0.71060 0.00000
0.85702 0.70943 0.00000
0.89794 0.70836 0.00000
0.93570 0.70741 0.00000
0.96990 0.70658 0.00000
1.00000 0.70591 0.00000
1.00000 0.70540 0.00000
1.00000 0.70506 0.00000
1.00000 0.70491 0.00000
1.00000 0.70497 0.00000
1.00000 0.70525 0.00000
0.00000 0.78837 0.00000
0.00000 0.78798 0.00000
0.00000 0.78736 0.00000
0.00000 0.78653 0.00000
0.01102 0.78552 0.00000
0.03624 0.78433 0.00000
0.06581 0.78298 0.00000
0.09933 0.78148 0.00000
0.13641 0.77985 0.00000
0.17666 0.77811 0.00000
0.21968 0.77626 0.00000
0.26507 0.77432 0.00000
0.31243 0.77231 0.00000
0.36186 0.77073 0.00000
0.41268 0.76929 0.00000
0.46428 0.76782 0.00000
0.51628 0.76634 0.00000
0.56827 0.76486 0.00000
0.61988 0.76340 0.00000
0.67069 0.76196 0.00000
0.72031 0.76057 0.00000
0.76836 0.75924 0.00000
0.81442 0.75798 0.00000
0.85811 0.75680 0.00000
0.89904 0.75573 0.00000
0.93680 0.75478 0.00000
0.97100 0.75396 0.00000
1.00000 0.75328 0.00000
1.00000 0.75277 0.00000
1.00000 0.75243 0.00000
1.00000 0.75229 0.00000
1.00000 0.75234 0.00000
1.00000 0.75262 0.00000
0.00000 0.83244 0.00000
0.00000 0.83204 0.00000
0.00000 0.83143 0.00000
0.00000 0.83060 0.00000
0.01086 0.82959 0.00000
0.03608 0.82840 0.00000
0.06565 0.82705 0.00000
0.09917 0.82555 0.00000
0.13626 0.82392 0.00000
0.17650 0.82217 0.00000
0.21952 0.82033 0.00000
0.26537 0.81885 0.00000
0.31341 0.81751 0.00000
0.36304 0.81612 0.00000
0.41385 0.81469 0.00000
0.46545 0.81322 0.00000
0.51745 0.81174 0.00000
0.56945 0.81026 0.00000
0.62105 0.80879 0.00000
0.67186 0.80736 0.00000
0.72149 0.80597 0.00000
0.76953 0.80463 0.00000
0.81559 0.80337 0.00000
0.85929 0.80220 0.00000
0.90021 0.80113 0.00000
0.93797 0.80018 0.00000
0.97217 0.79936 0.00000
1.00000 0.79868 0.00000
1.00000 0.79817 0.00000
1.00000 0.79783 0.00000
1.00000 0.79768 0.00000
1.00000 0.79774 0.00000
1.00000 0.79802 0.00000
0.00000 0.87414 0.00000
0.00000 0.87374 0.00000
0.00000 0.87312 0.00000
0.00000 0.87230 0.00000
0.01080 0.87128 0.00000
0.03601 0.87009 0.00000
0.06558 0.86874 0.00000
0.09911 0.86725 0.00000
0.13619 0.86562 0.00000
0.17687 0.86430 0.00000
0.22056 0.86313 0.00000
0.26663 0.86187 0.00000
0.31467 0.86054 0.00000
0.36430 0.85915 0.00000
0.41511 0.85771 0.00000
0.46671 0.85624 0.00000
0.51871 0.85476 0.00000
0.57071 0.85328 0.00000
0.62231 0.85182 0.00000
0.67312 0.85038 0.00000
0.72275 0.84899 0.00000
0.77079 0.84766 0.00000
0.81685 0.84640 0.00000
0.86055 0.84522 0.00000
0.90147 0.84415 0.00000
0.93923 0.84320 0.00000
0.97343 0.84238 0.00000
1.00000 0.84171 0.00000
1.00000 0.84119 0.00000
1.00000 0.84085 0.00000
1.00000 0.84071 0.00000
1.00000 0.84077 0.00000
1.00000 0.84104 0.00000
0.00000 0.91307 0.00000
0.00000 0.91267 0.00000
0.00000 0.91205 0.00000
0.00000 0.91123 0.00000
0.01083 0.91021 0.00000
0.03605 0.90902 0.00000
0.06562 0.90767 0.00000
0.09955 0.90658 0.00000
0.13731 0.90563 0.00000
0.17823 0.90456 0.00000
0.22193 0.90339 0.00000
0.26799 0.90213 0.00000
0.31603 0.90079 0.00000
0.36566 0.89940 0.00000
0.41647 0.89797 0.00000
0.46807 0.89650 0.00000
0.52007 0.89502 0.00000
0.57207 0.89354 0.00000
0.62367 0.89207 0.00000
0.67448 0.89064 0.00000
0.72411 0.88925 0.00000
0.77215 0.88791 0.00000
0.81822 0.88665 0.00000
0.86191 0.88548 0.00000
0.90283 0.88441 0.00000
0.94059 0.88346 0.00000
0.97479 0.88264 0.00000
1.00000 0.88196 0.00000
1.00000 0.88145 0.00000
1.00000 0.88111 0.00000
1.00000 0.88096 0.00000
1.00000 0.88102 0.00000
1.00000 0.88130 0.00000
0.00000 0.94883 0.00000
0.00000 0.94843 0.00000
0.00000 0.94781 0.00000
0.00000 0.94699 0.00000
0.01098 0.94597 0.00000
0.03658 0.94517 0.00000
0.06683 0.94449 0.00000
0.10103 0.94367 0.00000
0.13879 0.94272 0.00000
0.17971 0.94165 0.00000
0.22341 0.94048 0.00000
0.26947 0.93922 0.00000
0.31751 0.93788 0.00000
0.36714 0.93649 0.00000
0.41795 0.93506 0.00000
0.46955 0.93359 0.00000
0.52155 0.93211 0.00000
0.57355 0.93063 0.00000
0.62515 0.92917 0.00000
0.67596 0.92773 0.00000
0.72559 0.92634 0.00000
0.77363 0.92500 0.00000
0.81970 0.92374 0.00000
0.86339 0.92257 0.00000
0.90431 0.92150 0.00000
0.94207 0.92055 0.00000
0.97627 0.91973 0.00000
1.00000 0.91905 0.00000
1.00000 0.91854 0.00000
1.00000 0.91820 0.00000
1.00000 0.91805 0.00000
1.00000 0.91811 0.00000
1.00000 0.91839 0.00000
0.00000 0.98103 0.00000
0.00000 0.98063 0.00000
0.00000 0.98002 0.00000
0.00000 0.97955 0.00000
0.01230 0.97921 0.00000
0.03820 0.97870 0.00000
0.06844 0.97803 0.00000
0.10264 0.97721 0.00000
0.14040 0.97625 0.00000
0.18133 0.97518 0.00000
0.22502 0.97401 0.00000
0.27108 0.97275 0.00000
0.31913 0.97142 0.00000
0.36875 0.97002 0.00000
0.41956 0.96859 0.00000
0.47116 0.96712 0.00000
0.52316 0.96564 0.00000
0.57516 0.96416 0.00000
0.62676 0.96270 0.00000
0.67757 0.96126 0.00000
0.72720 0.95987 0.00000
0.77524 0.95853 0.00000
0.82131 0.95727 0.00000
0.86500 0.95610 0.00000
0.90592 0.95503 0.00000
0.94368 0.95408 0.00000
0.97788 0.95326 0.00000
1.00000 0.95258 0.00000
1.00000 0.95207 0.00000
1.00000 0.95173 0.00000
1.00000 0.95159 0.00000
1.00000 0.95164 0.00000
1.00000 0.95192 0.00000
0.00000 1.00000 0.00000
0.00000 1.00000 0.00000
0.00000 1.00000 0.00000
0.00000 1.00000 0.00000
0.01406 1.00000 0.00000
0.03995 1.00000 0.00000
0.07020 1.00000 0.00000
0.10440 1.00000 0.00000
0.14216 1.00000 0.00000
