kit/luts/signature_teal_orange.cube
# anime-edit-studio signature teal-orange
TITLE "signature_teal_orange"
LUT_3D_SIZE 9
0.00000 0.01520 0.06560
0.00866 0.01235 0.05898
0.13405 0.00668 0.04954
0.31007 0.00000 0.03823
0.51140 0.00000 0.02599
0.71273 0.00000 0.01374
0.88875 0.00000 0.00243
1.00000 0.00000 0.00000
1.00000 0.00000 0.00000
0.00000 0.05938 0.05425
0.01292 0.05652 0.04763
0.13832 0.05085 0.03820
0.31434 0.04331 0.02689
0.51567 0.03483 0.01464
0.71700 0.02635 0.00239
0.89302 0.01881 0.00000
1.00000 0.01314 0.00000
1.00000 0.01029 0.00000
0.00000 0.17949 0.04010
0.01438 0.17663 0.03347
0.13977 0.17097 0.02404
0.31579 0.16342 0.01273
0.51712 0.15494 0.00048
0.71846 0.14646 0.00000
0.89447 0.13892 0.00000
1.00000 0.13325 0.00000
1.00000 0.13040 0.00000
0.00000 0.35023 0.02406
0.01396 0.34737 0.01744
0.13936 0.34170 0.00801
0.31537 0.33416 0.00000
0.51671 0.32568 0.00000
0.71804 0.31720 0.00000
0.89405 0.30966 0.00000
1.00000 0.30399 0.00000
1.00000 0.30252 0.00000
0.00000 0.54628 0.00709
0.01261 0.54342 0.00047
0.13800 0.53776 0.00000
0.31402 0.53021 0.00000
0.51535 0.52173 0.00000
0.71668 0.51325 0.00000
0.89398 0.50700 0.00000
1.00000 0.50403 0.00000
1.00000 0.50389 0.00000
0.00000 0.74233 0.00000
0.01125 0.73947 0.00000
0.13664 0.73381 0.00000
0.31266 0.72626 0.00000
0.51518 0.71897 0.00000
0.71922 0.71320 0.00000
0.89794 0.70836 0.00000
1.00000 0.70540 0.00000
1.00000 0.70525 0.00000
0.00000 0.91307 0.00000
0.01083 0.91021 0.00000
0.13731 0.90563 0.00000
0.31603 0.90079 0.00000
0.52007 0.89502 0.00000
0.72411 0.88925 0.00000
0.90283 0.88441 0.00000
1.00000 0.88145 0.00000
1.00000 0.88130 0.00000
0.00000 1.00000 0.00000
0.01598 1.00000 0.00000
0.14408 1.00000 0.00000
0.32280 1.00000 0.00000
0.52684 1.00000 0.00000
0.73088 1.00000 0.00000
0.90960 1.00000 0.00000
1.00000 1.00000 0.00000
1.00000 1.00000 0.00000
0.00000 1.00000 0.00000
0.02556 1.00000 0.00000
0.15366 1.00000 0.00000
0.33238 1.00000 0.00000
0.53642 1.00000 0.00000
0.74046 1.00000 0.00000
0.91918 1.00000 0.00000
1.00000 1.00000 0.00000
1.00000 1.00000 0.00000
0.00000 0.01305 0.11014
0.00810 0.01019 0.10351
0.13349 0.00453 0.09408
0.30951 0.00000 0.08277
0.51084 0.00000 0.07052
0.71217 0.00000 0.05827
0.88819 0.00000 0.04697
1.00000 0.00000 0.03753
1.00000 0.00000 0.03091
0.00000 0.05722 0.09879
0.01237 0.05437 0.09217
0.13776 0.04870 0.08273
0.31378 0.04116 0.07142
0.51511 0.03268 0.05918
0.71644 0.02420 0.04693
0.89246 0.01666 0.03562
1.00000 0.01099 0.02618
1.00000 0.00813 0.01956
0.00000 0.17734 0.08463
0.01382 0.17448 0.07801
0.13922 0.16881 0.06858
0.31524 0.16127 0.05727
0.51657 0.15279 0.04502
0.71790 0.14431 0.03277
0.89392 0.13677 0.02146
1.00000 0.13110 0.01203
1.00000 0.12825 0.00540
0.00000 0.34808 0.06860
0.01341 0.34522 0.06198
0.13880 0.33955 0.05254
0.31482 0.33201 0.04123
0.51615 0.32353 0.02899
0.71748 0.31505 0.01674
0.89350 0.30751 0.00543
1.00000 0.30184 0.00000
1.00000 0.30140 0.00000
0.00000 0.54413 0.05163
0.01205 0.54127 0.04501
0.13744 0.53560 0.03557
0.31346 0.52806 0.02426
0.51479 0.51958 0.01202
0.71612 0.51110 0.00000
0.89446 0.50588 0.00000
1.00000 0.50291 0.00000
1.00000 0.50276 0.00000
0.00000 0.74018 0.03466
0.01069 0.73732 0.02804
0.13609 0.73165 0.01860
0.31211 0.72411 0.00729
0.51565 0.71785 0.00000
0.71969 0.71207 0.00000
0.89842 0.70724 0.00000
1.00000 0.70428 0.00000
1.00000 0.70413 0.00000
0.00000 0.91091 0.01863
0.01027 0.90806 0.01200
0.13779 0.90451 0.00272
0.31651 0.89967 0.00000
0.52055 0.89390 0.00000
0.72458 0.88813 0.00000
0.90331 0.88329 0.00000
1.00000 0.88033 0.00000
1.00000 0.88018 0.00000
0.00000 1.00000 0.00461
0.01645 1.00000 0.00000
0.14455 1.00000 0.00000
0.32328 1.00000 0.00000
0.52732 1.00000 0.00000
0.73135 1.00000 0.00000
0.91008 1.00000 0.00000
1.00000 1.00000 0.00000
1.00000 1.00000 0.00000
0.00000 1.00000 0.00000
0.02604 1.00000 0.00000
0.15414 1.00000 0.00000
0.33286 1.00000 0.00000
0.53690 1.00000 0.00000
0.74093 1.00000 0.00000
0.91966 1.00000 0.00000
1.00000 1.00000 0.00000
1.00000 1.00000 0.00000
0.00000 0.00808 0.23061
0.00473 0.00523 0.22399
0.13013 0.00000 0.21455
0.30614 0.00000 0.20324
0.50747 0.00000 0.19100
0.70881 0.00000 0.17875
0.88482 0.00000 0.16744
1.00000 0.00000 0.15800
1.00000 0.00000 0.15138
0.00000 0.05226 0.21927
0.00900 0.04940 0.21264
0.13439 0.04374 0.20321
0.31041 0.03619 0.19190
0.51174 0.02771 0.17965
0.71307 0.01923 0.16740
0.88909 0.01169 0.15609
1.00000 0.00602 0.14666
1.00000 0.00317 0.14004
0.00000 0.17237 0.20511
0.01046 0.16952 0.19848
0.13585 0.16385 0.18905
0.31187 0.15631 0.17774
0.51320 0.14783 0.16549
0.71453 0.13935 0.15325
0.89055 0.13181 0.14194
1.00000 0.12614 0.13250
1.00000 0.12328 0.12588
0.00000 0.34311 0.18907
0.01004 0.34026 0.18245
0.13543 0.33459 0.17302
0.31145 0.32705 0.16171
0.51278 0.31857 0.14946
0.71411 0.31009 0.13721
0.89013 0.30254 0.12590
1.00000 0.29762 0.11652
1.00000 0.29747 0.11009
0.00000 0.53916 0.17210
0.00868 0.53631 0.16548
0.13407 0.53064 0.15605
0.31009 0.52310 0.14474
0.51142 0.51462 0.13249
0.71340 0.50678 0.12029
0.89212 0.50194 0.10917
1.00000 0.49898 0.09993
1.00000 0.49883 0.09350
0.00000 0.73521 0.15513
0.00732 0.73236 0.14851
0.13272 0.72669 0.13908
0.30928 0.71969 0.12781
0.51332 0.71392 0.11575
0.71735 0.70814 0.10370
0.89608 0.70331 0.09258
1.00000 0.70034 0.08334
1.00000 0.70020 0.07691
0.00000 0.90595 0.13910
0.00735 0.90354 0.13251
0.13545 0.90058 0.12327
0.31417 0.89574 0.11215
0.51821 0.88997 0.10010
0.72225 0.88419 0.08805
0.90097 0.87936 0.07693
1.00000 0.87639 0.06769
1.00000 0.87625 0.06126
0.00000 1.00000 0.12516
0.01412 1.00000 0.11873
0.14222 1.00000 0.10949
0.32094 1.00000 0.09838
0.52498 1.00000 0.08632
0.72902 1.00000 0.07427
0.90774 1.00000 0.06316
1.00000 1.00000 0.05391
1.00000 1.00000 0.04749
0.00000 1.00000 0.11420
0.02370 1.00000 0.10777
0.15180 1.00000 0.09853
0.33052 1.00000 0.08741
0.53456 1.00000 0.07536
0.73860 1.00000 0.06331
0.91732 1.00000 0.05219
1.00000 1.00000 0.04295
1.00000 1.00000 0.03652
0.00000 0.00124 0.40171
0.00000 0.00000 0.39509
0.12488 0.00000 0.38565
0.30090 0.00000 0.37434
0.50223 0.00000 0.36210
0.70356 0.00000 0.34985
0.87958 0.00000 0.33854
1.00000 0.00000 0.32910
1.00000 0.00000 0.32248
0.00000 0.04542 0.39036
0.00376 0.04256 0.38374
0.12915 0.03690 0.37431
0.30517 0.02935 0.36300
0.50650 0.02087 0.35075
0.70783 0.01240 0.33850
0.88385 0.00485 0.32719
1.00000 0.00000 0.31776
1.00000 0.00000 0.31114
0.00000 0.16553 0.37621
0.00521 0.16268 0.36958
0.13061 0.15701 0.36015
0.30663 0.14947 0.34884
0.50796 0.14099 0.33659
0.70929 0.13251 0.32434
0.88531 0.12497 0.31303
1.00000 0.11930 0.30360
1.00000 0.11644 0.29698
0.00000 0.33627 0.36017
0.00479 0.33342 0.35355
0.13019 0.32775 0.34412
0.30621 0.32021 0.33281
0.50754 0.31173 0.32056
0.70887 0.30325 0.30831
0.88489 0.29570 0.29700
1.00000 0.29181 0.28769
1.00000 0.29166 0.28127
0.00000 0.53232 0.34320
0.00344 0.52947 0.33658
0.12883 0.52380 0.32715
0.30485 0.51626 0.31584
0.50618 0.50778 0.30359
0.70919 0.50097 0.29146
0.88791 0.49613 0.28035
1.00000 0.49317 0.27111
1.00000 0.49302 0.26468
0.00000 0.72837 0.32623
0.00208 0.72552 0.31961
0.12747 0.71985 0.31018
0.30507 0.71388 0.29898
0.50911 0.70811 0.28693
0.71314 0.70233 0.27487
0.89187 0.69750 0.26376
1.00000 0.69454 0.25452
1.00000 0.69439 0.24809
0.00000 0.89911 0.31020
0.00314 0.89773 0.30368
0.13124 0.89477 0.29444
0.30996 0.88993 0.28333
0.51400 0.88416 0.27127
0.71804 0.87838 0.25922
0.89676 0.87355 0.24811
1.00000 0.87059 0.23886
1.00000 0.87044 0.23244
0.00000 1.00000 0.29633
0.00991 1.00000 0.28991
0.13801 1.00000 0.28067
0.31673 1.00000 0.26955
0.52077 1.00000 0.25750
0.72480 1.00000 0.24544
0.90353 0.99897 0.23433
1.00000 0.99601 0.22509
1.00000 0.99586 0.21866
0.00000 1.00000 0.28537
0.01949 1.00000 0.27894
0.14759 1.00000 0.26970
0.32631 1.00000 0.25859
0.53035 1.00000 0.24653
0.73439 1.00000 0.23448
0.91311 1.00000 0.22336
1.00000 1.00000 0.21412
1.00000 1.00000 0.20770
0.00000 0.00000 0.59812
0.00000 0.00000 0.59150
0.11870 0.00000 0.58206
0.29472 0.00000 0.57075
0.49605 0.00000 0.55851
0.69738 0.00000 0.54626
0.87340 0.00000 0.53495
0.99879 0.00000 0.52552
1.00000 0.00000 0.51889
0.00000 0.03764 0.58678
0.00000 0.03479 0.58015
0.12297 0.02912 0.57072
0.29899 0.02158 0.55941
0.50032 0.01310 0.54716
0.70165 0.00462 0.53491
0.87767 0.00000 0.52360
1.00000 0.00000 0.51417
1.00000 0.00000 0.50755
0.00000 0.15776 0.57262
0.00000 0.15490 0.56600
0.12443 0.14923 0.55656
0.30044 0.14169 0.54525
0.50178 0.13321 0.53300
0.70311 0.12473 0.52076
0.87912 0.11719 0.50945
1.00000 0.11152 0.50001
1.00000 0.10887 0.49340
0.00000 0.32849 0.55658
0.00000 0.32564 0.54996
0.12401 0.31997 0.54053
0.30003 0.31243 0.52922
0.50136 0.30395 0.51697
0.70269 0.29547 0.50472
0.87881 0.28803 0.49342
1.00000 0.28506 0.48418
1.00000 0.28492 0.47775
0.00000 0.52454 0.53961
0.00000 0.52169 0.53299
0.12265 0.51602 0.52356
0.29867 0.50848 0.51225
0.50000 0.50000 0.50000
0.70404 0.49423 0.48795
0.88276 0.48939 0.47683
1.00000 0.48643 0.46759
1.00000 0.48628 0.46116
0.00000 0.72060 0.52264
0.00000 0.71774 0.51602
0.12129 0.71207 0.50659
0.29992 0.70714 0.49546
0.50396 0.70136 0.48341
0.70799 0.69559 0.47136
0.88672 0.69075 0.46024
1.00000 0.68779 0.45100
1.00000 0.68764 0.44457
0.00000 0.89133 0.50661
0.00000 0.89099 0.50017
0.12609 0.88802 0.49093
0.30481 0.88319 0.47981
0.50885 0.87741 0.46776
0.71289 0.87164 0.45571
0.89161 0.86680 0.44459
1.00000 0.86384 0.43535
1.00000 0.86369 0.42892
0.00000 1.00000 0.49282
0.00476 1.00000 0.48639
0.13286 1.00000 0.47715
0.31158 1.00000 0.46604
0.51562 1.00000 0.45398
0.71966 0.99707 0.44193
0.89838 0.99223 0.43081
1.00000 0.98927 0.42157
1.00000 0.98912 0.41515
0.00000 1.00000 0.48186
0.01434 1.00000 0.47543
0.14244 1.00000 0.46619
0.32116 1.00000 0.45507
0.52520 1.00000 0.44302
0.72924 1.00000 0.43097
0.90796 1.00000 0.41985
1.00000 1.00000 0.41061
1.00000 1.00000 0.40418
0.00000 0.00000 0.79453
0.00000 0.00000 0.78791
0.11252 0.00000 0.77848
0.28854 0.00000 0.76717
0.48987 0.00000 0.75492
0.69120 0.00000 0.74267
0.86722 0.00000 0.73136
0.99261 0.00000 0.72193
1.00000 0.00000 0.71530
0.00000 0.02987 0.78319
0.00000 0.02701 0.77657
0.11679 0.02134 0.76713
0.29281 0.01380 0.75582
0.49414 0.00532 0.74357
0.69547 0.00000 0.73133
0.87149 0.00000 0.72002
0.99688 0.00000 0.71058
1.00000 0.00000 0.70396
0.00000 0.14998 0.76903
0.00000 0.14712 0.76241
0.11824 0.14146 0.75297
0.29426 0.13391 0.74166
0.49559 0.12543 0.72942
0.69693 0.11695 0.71717
0.87294 0.10941 0.70586
0.99834 0.10374 0.69642
1.00000 0.10212 0.68989
0.00000 0.32072 0.75300
0.00000 0.31786 0.74637
0.11783 0.31219 0.73694
0.29384 0.30465 0.72563
0.49518 0.29617 0.71338
0.69651 0.28769 0.70113
0.87366 0.28128 0.68991
1.00000 0.27832 0.68067
1.00000 0.27817 0.67424
0.00000 0.51677 0.73603
0.00000 0.51391 0.72940
0.11647 0.50825 0.71997
0.29249 0.50070 0.70866
0.49485 0.49325 0.69649
0.69889 0.48748 0.68443
0.87761 0.48264 0.67332
1.00000 0.47968 0.66408
1.00000 0.47953 0.65765
0.00000 0.71282 0.71906
0.00000 0.70996 0.71243
0.11605 0.70523 0.70307
0.29477 0.70039 0.69195
0.49881 0.69462 0.67990
0.70284 0.68884 0.66784
0.88157 0.68401 0.65673
1.00000 0.68105 0.64749
1.00000 0.68090 0.64106
0.00000 0.88439 0.70308
0.00000 0.88424 0.69665
0.12094 0.88128 0.68741
0.29966 0.87644 0.67630
0.50370 0.87067 0.66425
0.70774 0.86489 0.65219
0.88646 0.86006 0.64108
1.00000 0.85710 0.63184
1.00000 0.85695 0.62541
0.00000 1.00000 0.68931
0.00000 1.00000 0.68288
0.12771 1.00000 0.67364
0.30643 1.00000 0.66252
0.51047 0.99609 0.65047
0.71451 0.99032 0.63842
0.89323 0.98548 0.62730
1.00000 0.98252 0.61806
1.00000 0.98237 0.61163
0.00000 1.00000 0.67834
0.00919 1.00000 0.67191
0.13729 1.00000 0.66267
0.31601 1.00000 0.65156
0.52005 1.00000 0.63950
0.72409 1.00000 0.62745
0.90281 1.00000 0.61634
1.00000 1.00000 0.60710
1.00000 1.00000 0.60067
0.00000 0.00000 0.96563
0.00000 0.00000 0.95901
0.10728 0.00000 0.94958
0.28329 0.00000 0.93827
0.48463 0.00000 0.92602
0.68596 0.00000 0.91377
0.86198 0.00000 0.90246
0.98737 0.00000 0.89303
1.00000 0.00000 0.88640
0.00000 0.02303 0.95429
0.00000 0.02017 0.94766
0.11155 0.01450 0.93823
0.28756 0.00696 0.92692
0.48889 0.00000 0.91467
0.69023 0.00000 0.90243
0.86624 0.00000 0.89112
0.99164 0.00000 0.88168
1.00000 0.00000 0.87506
0.00000 0.14314 0.94013
0.00000 0.14028 0.93351
0.11300 0.13462 0.92407
0.28902 0.12707 0.91276
0.49035 0.11859 0.90051
0.69168 0.11011 0.88827
0.86770 0.10257 0.87696
0.99309 0.09690 0.86752
1.00000 0.09631 0.86106
0.00000 0.31388 0.92410
0.00000 0.31102 0.91747
0.11258 0.30536 0.90804
0.28860 0.29781 0.89673
0.48993 0.28933 0.88448
0.69126 0.28085 0.87223
0.86944 0.27547 0.86108
0.99754 0.27251 0.85184
1.00000 0.27236 0.84541
0.00000 0.50993 0.90713
0.00000 0.50707 0.90050
0.11123 0.50141 0.89107
0.28724 0.49386 0.87976
0.49064 0.48745 0.86766
0.69468 0.48167 0.85561
0.87340 0.47684 0.84449
1.00000 0.47387 0.83525
1.00000 0.47373 0.82882
0.00000 0.70598 0.89015
0.00000 0.70312 0.88353
0.11183 0.69942 0.87424
0.29056 0.69458 0.86312
0.49459 0.68881 0.85107
0.69863 0.68304 0.83902
0.87736 0.67820 0.82790
1.00000 0.67524 0.81866
1.00000 0.67509 0.81223
0.00000 0.87858 0.87426
0.00000 0.87843 0.86783
0.11673 0.87547 0.85859
0.29545 0.87063 0.84747
0.49949 0.86486 0.83542
0.70353 0.85909 0.82337
0.88225 0.85425 0.81225
1.00000 0.85129 0.80301
1.00000 0.85114 0.79658
0.00000 1.00000 0.86048
0.00000 1.00000 0.85405
0.12350 1.00000 0.84481
0.30222 0.99606 0.83369
0.50626 0.99029 0.82164
0.71029 0.98451 0.80959
0.88902 0.97968 0.79847
1.00000 0.97671 0.78923
1.00000 0.97656 0.78280
0.00000 1.00000 0.84952
0.00498 1.00000 0.84309
0.13308 1.00000 0.83385
0.31180 1.00000 0.82273
0.51584 1.00000 0.81068
0.71987 1.00000 0.79862
0.89860 1.00000 0.78751
1.00000 1.00000 0.77827
1.00000 1.00000 0.77184
0.00000 0.00000 1.00000
0.00000 0.00000 1.00000
0.10391 0.00000 1.00000
0.27993 0.00000 1.00000
0.48126 0.00000 1.00000
0.68259 0.00000 1.00000
0.85861 0.00000 1.00000
0.98400 0.00000 1.00000
1.00000 0.00000 1.00000
0.00000 0.01806 1.00000
0.00000 0.01521 1.00000
0.10818 0.00954 1.00000
0.28420 0.00200 1.00000
0.48553 0.00000 1.00000
0.68686 0.00000 1.00000
0.86288 0.00000 1.00000
0.98827 0.00000 1.00000
1.00000 0.00000 0.99553
0.00000 0.13818 1.00000
0.00000 0.13532 1.00000
0.10963 0.12965 1.00000
0.28565 0.12211 1.00000
0.48698 0.11363 1.00000
0.68831 0.10515 1.00000
0.86433 0.09761 0.99743
0.99031 0.09253 0.98804
1.00000 0.09238 0.98161
0.00000 0.30891 1.00000
0.00000 0.30606 1.00000
0.10921 0.30039 1.00000
0.28523 0.29285 1.00000
0.48656 0.28437 1.00000
0.68838 0.27638 0.99274
0.86711 0.27154 0.98163
0.99521 0.26858 0.97239
1.00000 0.26843 0.96596
0.00000 0.50496 1.00000
0.00000 0.50211 1.00000
0.10786 0.49644 1.00000
0.28427 0.48929 1.00000
0.48830 0.48351 0.98821
0.69234 0.47774 0.97615
0.87106 0.47290 0.96504
0.99916 0.46994 0.95580
1.00000 0.46979 0.94937
0.00000 0.70101 1.00000
0.00000 0.69845 1.00000
0.10950 0.69549 0.99479
0.28822 0.69065 0.98367
0.49226 0.68488 0.97162
0.69630 0.67910 0.95957
0.87502 0.67427 0.94845
1.00000 0.67131 0.93921
1.00000 0.67116 0.93278
0.00000 0.87465 0.99480
0.00000 0.87450 0.98838
0.11439 0.87154 0.97914
0.29311 0.86670 0.96802
0.49715 0.86093 0.95597
0.70119 0.85515 0.94391
0.87991 0.85032 0.93280
1.00000 0.84736 0.92356
1.00000 0.84721 0.91713
0.00000 1.00000 0.98103
0.00000 0.99993 0.97460
0.12116 0.99696 0.96536
0.29988 0.99213 0.95424
0.50392 0.98635 0.94219
0.70796 0.98058 0.93014
0.88668 0.97574 0.91902
1.00000 0.97278 0.90978
1.00000 0.97263 0.90335
0.00000 1.00000 0.97006
0.00264 1.00000 0.96364
0.13074 1.00000 0.95439
0.30946 1.00000 0.94328
0.51350 1.00000 0.93123
0.71754 1.00000 0.91917
0.89626 1.00000 0.90806
1.00000 1.00000 0.89882
1.00000 1.00000 0.89239
0.00000 0.00000 1.00000
0.00000 0.00000 1.00000
0.10335 0.00000 1.00000
0.27937 0.00000 1.00000
0.48070 0.00000 1.00000
0.68203 0.00000 1.00000
0.85805 0.00000 1.00000
0.98344 0.00000 1.00000
1.00000 0.00000 1.00000
0.00000 0.01591 1.00000
0.00000 0.01306 1.00000
0.10762 0.00739 1.00000
0.28364 0.00000 1.00000
0.48497 0.00000 1.00000
0.68630 0.00000 1.00000
0.86232 0.00000 1.00000
0.98771 0.00000 1.00000
1.00000 0.00000 1.00000
0.00000 0.13602 1.00000
0.00000 0.13317 1.00000
0.10908 0.12750 1.00000
0.28510 0.11996 1.00000
0.48643 0.11148 1.00000
0.68776 0.10300 1.00000
0.86378 0.09546 1.00000
0.99079 0.09141 1.00000
1.00000 0.09126 1.00000
0.00000 0.30676 1.00000
0.00000 0.30391 1.00000
0.10866 0.29824 1.00000
0.28468 0.29070 1.00000
0.48601 0.28222 1.00000
0.68886 0.27526 1.00000
0.86758 0.27042 1.00000
0.99568 0.26746 1.00000
1.00000 0.26731 1.00000
0.00000 0.50281 1.00000
0.00000 0.49996 1.00000
0.10730 0.49429 1.00000
0.28474 0.48817 1.00000
0.48878 0.48239 1.00000
0.69281 0.47662 1.00000
0.87154 0.47178 1.00000
0.99964 0.46882 1.00000
1.00000 0.46867 0.99398
0.00000 0.69886 1.00000
0.00000 0.69733 1.00000
0.10997 0.69437 1.00000
0.28870 0.68953 1.00000
0.49273 0.68376 1.00000
0.69677 0.67798 1.00000
0.87550 0.67315 0.99306
1.00000 0.67019 0.98382
1.00000 0.67004 0.97739
0.00000 0.87353 1.00000
0.00000 0.87338 1.00000
0.11487 0.87042 1.00000
0.29359 0.86558 1.00000
0.49763 0.85981 1.00000
0.70166 0.85403 0.98852
0.88039 0.84920 0.97741
1.00000 0.84624 0.96817
1.00000 0.84609 0.96174
0.00000 0.99895 1.00000
0.00000 0.99881 1.00000
0.12163 0.99584 1.00000
0.30036 0.99101 0.99885
0.50440 0.98523 0.98680
0.70843 0.97946 0.97475
0.88716 0.97462 0.96363
1.00000 0.97166 0.95439
1.00000 0.97151 0.94796
0.00000 1.00000 1.00000
0.00312 1.00000 1.00000
0.13122 1.00000 0.99901
0.30994 1.00000 0.98789
0.51398 1.00000 0.97584
0.71801 1.00000 0.96378
0.89674 1.00000 0.95267
1.00000 1.00000 0.94343
1.00000 1.00000 0.93700
