kit/luts/signature_teal_orange.cube
# anime-edit-studio signature teal-orange
TITLE "signature_teal_orange"
LUT_3D_SIZE 5
0.00000 0.01520 0.06560
0.13405 0.00668 0.04954
0.51140 0.00000 0.02599
0.88875 0.00000 0.00243
1.00000 0.00000 0.00000
0.00000 0.17949 0.04010
0.13977 0.17097 0.02404
0.51712 0.15494 0.00048
0.89447 0.13892 0.00000
1.00000 0.13040 0.00000
0.00000 0.54628 0.00709
0.13800 0.53776 0.00000
0.51535 0.52173 0.00000
0.89398 0.50700 0.00000
1.00000 0.50389 0.00000
0.00000 0.91307 0.00000
0.13731 0.90563 0.00000
0.52007 0.89502 0.00000
0.90283 0.88441 0.00000
1.00000 0.88130 0.00000
0.00000 1.00000 0.00000
0.15366 1.00000 0.00000
0.53642 1.00000 0.00000
0.91918 1.00000 0.00000
1.00000 1.00000 0.00000
0.00000 0.00808 0.23061
0.13013 0.00000 0.21455
0.50747 0.00000 0.19100
0.88482 0.00000 0.16744
1.00000 0.00000 0.15138
0.00000 0.17237 0.20511
0.13585 0.16385 0.18905
0.51320 0.14783 0.16549
0.89055 0.13181 0.14194
1.00000 0.12328 0.12588
0.00000 0.53916 0.17210
0.13407 0.53064 0.15605
0.51142 0.51462 0.13249
0.89212 0.50194 0.10917
1.00000 0.49883 0.09350
0.00000 0.90595 0.13910
0.13545 0.90058 0.12327
0.51821 0.88997 0.10010
0.90097 0.87936 0.07693
1.00000 0.87625 0.06126
0.00000 1.00000 0.11420
0.15180 1.00000 0.09853
0.53456 1.00000 0.07536
0.91732 1.00000 0.05219
1.00000 1.00000 0.03652
0.00000 0.00000 0.59812
0.11870 0.00000 0.58206
0.49605 0.00000 0.55851
0.87340 0.00000 0.53495
1.00000 0.00000 0.51889
0.00000 0.15776 0.57262
0.12443 0.14923 0.55656
0.50178 0.13321 0.53300
0.87912 0.11719 0.50945
1.00000 0.10887 0.49340
0.00000 0.52454 0.53961
0.12265 0.51602 0.52356
0.50000 0.50000 0.50000
0.88276 0.48939 0.47683
1.00000 0.48628 0.46116
0.00000 0.89133 0.50661
0.12609 0.88802 0.49093
0.50885 0.87741 0.46776
0.89161 0.86680 0.44459
1.00000 0.86369 0.42892
0.00000 1.00000 0.48186
0.14244 1.00000 0.46619
0.52520 1.00000 0.44302
0.90796 1.00000 0.41985
1.00000 1.00000 0.40418
0.00000 0.00000 0.96563
0.10728 0.00000 0.94958
0.48463 0.00000 0.92602
0.86198 0.00000 0.90246
1.00000 0.00000 0.88640
0.00000 0.14314 0.94013
0.11300 0.13462 0.92407
0.49035 0.11859 0.90051
0.86770 0.10257 0.87696
1.00000 0.09631 0.86106
0.00000 0.50993 0.90713
0.11123 0.50141 0.89107
0.49064 0.48745 0.86766
0.87340 0.47684 0.84449
1.00000 0.47373 0.82882
0.00000 0.87858 0.87426
0.11673 0.87547 0.85859
0.49949 0.86486 0.83542
0.88225 0.85425 0.81225
1.00000 0.85114 0.79658
0.00000 1.00000 0.84952
0.13308 1.00000 0.83385
0.51584 1.00000 0.81068
0.89860 1.00000 0.78751
1.00000 1.00000 0.77184
0.00000 0.00000 1.00000
0.10335 0.00000 1.00000
0.48070 0.00000 1.00000
0.85805 0.00000 1.00000
1.00000 0.00000 1.00000
0.00000 0.13602 1.00000
0.10908 0.12750 1.00000
0.48643 0.11148 1.00000
0.86378 0.09546 1.00000
1.00000 0.09126 1.00000
0.00000 0.50281 1.00000
0.10730 0.49429 1.00000
0.48878 0.48239 1.00000
0.87154 0.47178 1.00000
1.00000 0.46867 0.99398
0.00000 0.87353 1.00000
0.11487 0.87042 1.00000
0.49763 0.85981 1.00000
0.88039 0.84920 0.97741
1.00000 0.84609 0.96174
0.00000 1.00000 1.00000
0.13122 1.00000 0.99901
0.51398 1.00000 0.97584
0.89674 1.00000 0.95267
1.00000 1.00000 0.93700
