recipes/color/anime_fire_v1/anime_fire_v1.cube
TITLE "anime_fire_v1"
LUT_3D_SIZE 5
DOMAIN_MIN 0.0 0.0 0.0
DOMAIN_MAX 1.0 1.0 1.0
0.00000000 0.00000000 0.00000000
0.26730000 0.00000000 0.00000000
0.56700000 0.00000000 0.00000000
0.86670000 0.00000000 0.00000000
1.00000000 0.00000000 0.00000000
0.00000000 0.21664500 0.00000000
0.26730000 0.21664500 0.00000000
0.56700000 0.21664500 0.00000000
0.86670000 0.21664500 0.00000000
1.00000000 0.21664500 0.00000000
0.00000000 0.49692000 0.00000000
0.26730000 0.49692000 0.00000000
0.56700000 0.49692000 0.00000000
0.86670000 0.49692000 0.00000000
1.00000000 0.49692000 0.00000000
0.00000000 0.77719500 0.00000000
0.26730000 0.77719500 0.00000000
0.56700000 0.77719500 0.00000000
0.86670000 0.77719500 0.00000000
1.00000000 0.77719500 0.00000000
0.00000000 1.00000000 0.00000000
0.26730000 1.00000000 0.00000000
0.56700000 1.00000000 0.00000000
0.86670000 1.00000000 0.00000000
1.00000000 1.00000000 0.00000000
0.00000000 0.00000000 0.17710000
0.26730000 0.00000000 0.17710000
0.56700000 0.00000000 0.17710000
0.86670000 0.00000000 0.17710000
1.00000000 0.00000000 0.17710000
0.00000000 0.21664500 0.17710000
0.26730000 0.21005985 0.16537400
0.56700000 0.17109885 0.12641300
0.86670000 0.13213785 0.08745200
1.00000000 0.11480885 0.07012300
0.00000000 0.49692000 0.17710000
0.23744940 0.49692000 0.13552340
0.56700000 0.48780960 0.12641300
0.86670000 0.44884860 0.08745200
1.00000000 0.43151960 0.07012300
0.00000000 0.77719500 0.17710000
0.20101365 0.77719500 0.09908765
0.53967465 0.77719500 0.09908765
0.86670000 0.76555935 0.08745200
1.00000000 0.74823035 0.07012300
0.00000000 1.00000000 0.17710000
0.17204900 1.00000000 0.07012300
0.51071000 1.00000000 0.07012300
0.84937100 1.00000000 0.07012300
1.00000000 1.00000000 0.07012300
0.00000000 0.00000000 0.43240000
0.26730000 0.00000000 0.43240000
0.56700000 0.00000000 0.43240000
0.86670000 0.00000000 0.43240000
1.00000000 0.00000000 0.43240000
0.00000000 0.21664500 0.43240000
0.24583700 0.18859685 0.43240000
0.56700000 0.17109885 0.41490200
0.86670000 0.13213785 0.37594100
1.00000000 0.11480885 0.35861200
0.00000000 0.49692000 0.43240000
0.23744940 0.49692000 0.42401240
0.56700000 0.48780960 0.41490200
0.86670000 0.44884860 0.37594100
1.00000000 0.43151960 0.35861200
0.00000000 0.77719500 0.43240000
0.20101365 0.77719500 0.38757665
0.53967465 0.77719500 0.38757665
0.86670000 0.76555935 0.37594100
1.00000000 0.74823035 0.35861200
0.00000000 1.00000000 0.43240000
0.17204900 1.00000000 0.35861200
0.51071000 1.00000000 0.35861200
0.84937100 1.00000000 0.35861200
1.00000000 1.00000000 0.35861200
0.00000000 0.00000000 0.68770000
0.26730000 0.00000000 0.68770000
0.56700000 0.00000000 0.68770000
0.86670000 0.00000000 0.68770000
1.00000000 0.00000000 0.68770000
0.00000000 0.21664500 0.68770000
0.21264800 0.15540785 0.68770000
0.55130900 0.15540785 0.68770000
0.86670000 0.13213785 0.66443000
1.00000000 0.11480885 0.64710100
0.00000000 0.49692000 0.68770000
0.21264800 0.47211860 0.68770000
0.55130900 0.47211860 0.68770000
0.86670000 0.44884860 0.66443000
1.00000000 0.43151960 0.64710100
0.00000000 0.77719500 0.68770000
0.20101365 0.77719500 0.67606565
0.53967465 0.77719500 0.67606565
0.86670000 0.76555935 0.66443000
1.00000000 0.74823035 0.64710100
0.00000000 1.00000000 0.68770000
0.17204900 1.00000000 0.64710100
0.51071000 1.00000000 0.64710100
0.84937100 1.00000000 0.64710100
1.00000000 1.00000000 0.64710100
0.00000000 0.00000000 0.94300000
0.26730000 0.00000000 0.94300000
0.56700000 0.00000000 0.94300000
0.86670000 0.00000000 0.94300000
1.00000000 0.00000000 0.94300000
0.00000000 0.21664500 0.94300000
0.17945900 0.12221885 0.94300000
0.51812000 0.12221885 0.94300000
0.85678100 0.12221885 0.94300000
1.00000000 0.11480885 0.93559000
0.00000000 0.49692000 0.94300000
0.17945900 0.43892960 0.94300000
0.51812000 0.43892960 0.94300000
0.85678100 0.43892960 0.94300000
1.00000000 0.43151960 0.93559000
0.00000000 0.77719500 0.94300000
0.17945900 0.75564035 0.94300000
0.51812000 0.75564035 0.94300000
0.85678100 0.75564035 0.94300000
1.00000000 0.74823035 0.93559000
0.00000000 1.00000000 0.94300000
0.17204900 1.00000000 0.93559000
0.51071000 1.00000000 0.93559000
0.84937100 1.00000000 0.93559000
1.00000000 1.00000000 0.93559000
