recipes/color/anime_fire_v1/anime_fire_v1.cube
TITLE "anime_fire_v1"
LUT_3D_SIZE 17
DOMAIN_MIN 0.0 0.0 0.0
DOMAIN_MAX 1.0 1.0 1.0
0.00000000 0.00000000 0.00000000
0.04252500 0.00000000 0.00000000
0.11745000 0.00000000 0.00000000
0.19237500 0.00000000 0.00000000
0.26730000 0.00000000 0.00000000
0.34222500 0.00000000 0.00000000
0.41715000 0.00000000 0.00000000
0.49207500 0.00000000 0.00000000
0.56700000 0.00000000 0.00000000
0.64192500 0.00000000 0.00000000
0.71685000 0.00000000 0.00000000
0.79177500 0.00000000 0.00000000
0.86670000 0.00000000 0.00000000
0.94162500 0.00000000 0.00000000
1.00000000 0.00000000 0.00000000
1.00000000 0.00000000 0.00000000
1.00000000 0.00000000 0.00000000
0.00000000 0.00643875 0.00000000
0.04252500 0.00643875 0.00000000
0.11745000 0.00643875 0.00000000
0.19237500 0.00643875 0.00000000
0.26730000 0.00643875 0.00000000
0.34222500 0.00643875 0.00000000
0.41715000 0.00643875 0.00000000
0.49207500 0.00643875 0.00000000
0.56700000 0.00643875 0.00000000
0.64192500 0.00643875 0.00000000
0.71685000 0.00643875 0.00000000
0.79177500 0.00643875 0.00000000
0.86670000 0.00643875 0.00000000
0.94162500 0.00643875 0.00000000
1.00000000 0.00643875 0.00000000
1.00000000 0.00643875 0.00000000
1.00000000 0.00643875 0.00000000
0.00000000 0.07650750 0.00000000
0.04252500 0.07650750 0.00000000
0.11745000 0.07650750 0.00000000
0.19237500 0.07650750 0.00000000
0.26730000 0.07650750 0.00000000
0.34222500 0.07650750 0.00000000
0.41715000 0.07650750 0.00000000
0.49207500 0.07650750 0.00000000
0.56700000 0.07650750 0.00000000
0.64192500 0.07650750 0.00000000
0.71685000 0.07650750 0.00000000
0.79177500 0.07650750 0.00000000
0.86670000 0.07650750 0.00000000
0.94162500 0.07650750 0.00000000
1.00000000 0.07650750 0.00000000
1.00000000 0.07650750 0.00000000
1.00000000 0.07650750 0.00000000
0.00000000 0.14657625 0.00000000
0.04252500 0.14657625 0.00000000
0.11745000 0.14657625 0.00000000
0.19237500 0.14657625 0.00000000
0.26730000 0.14657625 0.00000000
0.34222500 0.14657625 0.00000000
0.41715000 0.14657625 0.00000000
0.49207500 0.14657625 0.00000000
0.56700000 0.14657625 0.00000000
0.64192500 0.14657625 0.00000000
0.71685000 0.14657625 0.00000000
0.79177500 0.14657625 0.00000000
0.86670000 0.14657625 0.00000000
0.94162500 0.14657625 0.00000000
1.00000000 0.14657625 0.00000000
1.00000000 0.14657625 0.00000000
1.00000000 0.14657625 0.00000000
0.00000000 0.21664500 0.00000000
0.04252500 0.21664500 0.00000000
0.11745000 0.21664500 0.00000000
0.19237500 0.21664500 0.00000000
0.26730000 0.21664500 0.00000000
0.34222500 0.21664500 0.00000000
0.41715000 0.21664500 0.00000000
0.49207500 0.21664500 0.00000000
0.56700000 0.21664500 0.00000000
0.64192500 0.21664500 0.00000000
0.71685000 0.21664500 0.00000000
0.79177500 0.21664500 0.00000000
0.86670000 0.21664500 0.00000000
0.94162500 0.21664500 0.00000000
1.00000000 0.21664500 0.00000000
1.00000000 0.21664500 0.00000000
1.00000000 0.21664500 0.00000000
0.00000000 0.28671375 0.00000000
0.04252500 0.28671375 0.00000000
0.11745000 0.28671375 0.00000000
0.19237500 0.28671375 0.00000000
0.26730000 0.28671375 0.00000000
0.34222500 0.28671375 0.00000000
0.41715000 0.28671375 0.00000000
0.49207500 0.28671375 0.00000000
0.56700000 0.28671375 0.00000000
0.64192500 0.28671375 0.00000000
0.71685000 0.28671375 0.00000000
0.79177500 0.28671375 0.00000000
0.86670000 0.28671375 0.00000000
0.94162500 0.28671375 0.00000000
1.00000000 0.28671375 0.00000000
1.00000000 0.28671375 0.00000000
1.00000000 0.28671375 0.00000000
0.00000000 0.35678250 0.00000000
0.04252500 0.35678250 0.00000000
0.11745000 0.35678250 0.00000000
0.19237500 0.35678250 0.00000000
0.26730000 0.35678250 0.00000000
0.34222500 0.35678250 0.00000000
0.41715000 0.35678250 0.00000000
0.49207500 0.35678250 0.00000000
0.56700000 0.35678250 0.00000000
0.64192500 0.35678250 0.00000000
0.71685000 0.35678250 0.00000000
0.79177500 0.35678250 0.00000000
0.86670000 0.35678250 0.00000000
0.94162500 0.35678250 0.00000000
1.00000000 0.35678250 0.00000000
1.00000000 0.35678250 0.00000000
1.00000000 0.35678250 0.00000000
0.00000000 0.42685125 0.00000000
0.04252500 0.42685125 0.00000000
0.11745000 0.42685125 0.00000000
0.19237500 0.42685125 0.00000000
0.26730000 0.42685125 0.00000000
0.34222500 0.42685125 0.00000000
0.41715000 0.42685125 0.00000000
0.49207500 0.42685125 0.00000000
0.56700000 0.42685125 0.00000000
0.64192500 0.42685125 0.00000000
0.71685000 0.42685125 0.00000000
0.79177500 0.42685125 0.00000000
0.86670000 0.42685125 0.00000000
0.94162500 0.42685125 0.00000000
1.00000000 0.42685125 0.00000000
1.00000000 0.42685125 0.00000000
1.00000000 0.42685125 0.00000000
0.00000000 0.49692000 0.00000000
0.04252500 0.49692000 0.00000000
0.11745000 0.49692000 0.00000000
0.19237500 0.49692000 0.00000000
0.26730000 0.49692000 0.00000000
0.34222500 0.49692000 0.00000000
0.41715000 0.49692000 0.00000000
0.49207500 0.49692000 0.00000000
0.56700000 0.49692000 0.00000000
0.64192500 0.49692000 0.00000000
0.71685000 0.49692000 0.00000000
0.79177500 0.49692000 0.00000000
0.86670000 0.49692000 0.00000000
0.94162500 0.49692000 0.00000000
1.00000000 0.49692000 0.00000000
1.00000000 0.49692000 0.00000000
1.00000000 0.49692000 0.00000000
0.00000000 0.56698875 0.00000000
0.04252500 0.56698875 0.00000000
0.11745000 0.56698875 0.00000000
0.19237500 0.56698875 0.00000000
0.26730000 0.56698875 0.00000000
0.34222500 0.56698875 0.00000000
0.41715000 0.56698875 0.00000000
0.49207500 0.56698875 0.00000000
0.56700000 0.56698875 0.00000000
0.64192500 0.56698875 0.00000000
0.71685000 0.56698875 0.00000000
0.79177500 0.56698875 0.00000000
0.86670000 0.56698875 0.00000000
0.94162500 0.56698875 0.00000000
1.00000000 0.56698875 0.00000000
1.00000000 0.56698875 0.00000000
1.00000000 0.56698875 0.00000000
0.00000000 0.63705750 0.00000000
0.04252500 0.63705750 0.00000000
0.11745000 0.63705750 0.00000000
0.19237500 0.63705750 0.00000000
0.26730000 0.63705750 0.00000000
0.34222500 0.63705750 0.00000000
0.41715000 0.63705750 0.00000000
0.49207500 0.63705750 0.00000000
0.56700000 0.63705750 0.00000000
0.64192500 0.63705750 0.00000000
0.71685000 0.63705750 0.00000000
0.79177500 0.63705750 0.00000000
0.86670000 0.63705750 0.00000000
0.94162500 0.63705750 0.00000000
1.00000000 0.63705750 0.00000000
1.00000000 0.63705750 0.00000000
1.00000000 0.63705750 0.00000000
0.00000000 0.70712625 0.00000000
0.04252500 0.70712625 0.00000000
0.11745000 0.70712625 0.00000000
0.19237500 0.70712625 0.00000000
0.26730000 0.70712625 0.00000000
0.34222500 0.70712625 0.00000000
0.41715000 0.70712625 0.00000000
0.49207500 0.70712625 0.00000000
0.56700000 0.70712625 0.00000000
0.64192500 0.70712625 0.00000000
0.71685000 0.70712625 0.00000000
0.79177500 0.70712625 0.00000000
0.86670000 0.70712625 0.00000000
0.94162500 0.70712625 0.00000000
1.00000000 0.70712625 0.00000000
1.00000000 0.70712625 0.00000000
1.00000000 0.70712625 0.00000000
0.00000000 0.77719500 0.00000000
0.04252500 0.77719500 0.00000000
0.11745000 0.77719500 0.00000000
0.19237500 0.77719500 0.00000000
0.26730000 0.77719500 0.00000000
0.34222500 0.77719500 0.00000000
0.41715000 0.77719500 0.00000000
0.49207500 0.77719500 0.00000000
0.56700000 0.77719500 0.00000000
0.64192500 0.77719500 0.00000000
0.71685000 0.77719500 0.00000000
0.79177500 0.77719500 0.00000000
0.86670000 0.77719500 0.00000000
0.94162500 0.77719500 0.00000000
1.00000000 0.77719500 0.00000000
1.00000000 0.77719500 0.00000000
1.00000000 0.77719500 0.00000000
0.00000000 0.84726375 0.00000000
0.04252500 0.84726375 0.00000000
0.11745000 0.84726375 0.00000000
0.19237500 0.84726375 0.00000000
0.26730000 0.84726375 0.00000000
0.34222500 0.84726375 0.00000000
0.41715000 0.84726375 0.00000000
0.49207500 0.84726375 0.00000000
0.56700000 0.84726375 0.00000000
0.64192500 0.84726375 0.00000000
0.71685000 0.84726375 0.00000000
0.79177500 0.84726375 0.00000000
0.86670000 0.84726375 0.00000000
0.94162500 0.84726375 0.00000000
1.00000000 0.84726375 0.00000000
1.00000000 0.84726375 0.00000000
1.00000000 0.84726375 0.00000000
0.00000000 0.91733250 0.00000000
0.04252500 0.91733250 0.00000000
0.11745000 0.91733250 0.00000000
0.19237500 0.91733250 0.00000000
0.26730000 0.91733250 0.00000000
0.34222500 0.91733250 0.00000000
0.41715000 0.91733250 0.00000000
0.49207500 0.91733250 0.00000000
0.56700000 0.91733250 0.00000000
0.64192500 0.91733250 0.00000000
0.71685000 0.91733250 0.00000000
0.79177500 0.91733250 0.00000000
0.86670000 0.91733250 0.00000000
0.94162500 0.91733250 0.00000000
1.00000000 0.91733250 0.00000000
1.00000000 0.91733250 0.00000000
1.00000000 0.91733250 0.00000000
0.00000000 0.98740125 0.00000000
0.04252500 0.98740125 0.00000000
0.11745000 0.98740125 0.00000000
0.19237500 0.98740125 0.00000000
0.26730000 0.98740125 0.00000000
0.34222500 0.98740125 0.00000000
0.41715000 0.98740125 0.00000000
0.49207500 0.98740125 0.00000000
0.56700000 0.98740125 0.00000000
0.64192500 0.98740125 0.00000000
0.71685000 0.98740125 0.00000000
0.79177500 0.98740125 0.00000000
0.86670000 0.98740125 0.00000000
0.94162500 0.98740125 0.00000000
1.00000000 0.98740125 0.00000000
1.00000000 0.98740125 0.00000000
1.00000000 0.98740125 0.00000000
0.00000000 1.00000000 0.00000000
0.04252500 1.00000000 0.00000000
0.11745000 1.00000000 0.00000000
0.19237500 1.00000000 0.00000000
0.26730000 1.00000000 0.00000000
0.34222500 1.00000000 0.00000000
0.41715000 1.00000000 0.00000000
0.49207500 1.00000000 0.00000000
0.56700000 1.00000000 0.00000000
0.64192500 1.00000000 0.00000000
0.71685000 1.00000000 0.00000000
0.79177500 1.00000000 0.00000000
0.86670000 1.00000000 0.00000000
0.94162500 1.00000000 0.00000000
1.00000000 1.00000000 0.00000000
1.00000000 1.00000000 0.00000000
1.00000000 1.00000000 0.00000000
0.00000000 0.00000000 0.00000000
0.04252500 0.00000000 0.00000000
0.11745000 0.00000000 0.00000000
0.19237500 0.00000000 0.00000000
0.26730000 0.00000000 0.00000000
0.34222500 0.00000000 0.00000000
0.41715000 0.00000000 0.00000000
0.49207500 0.00000000 0.00000000
0.56700000 0.00000000 0.00000000
0.64192500 0.00000000 0.00000000
0.71685000 0.00000000 0.00000000
0.79177500 0.00000000 0.00000000
0.86670000 0.00000000 0.00000000
0.94162500 0.00000000 0.00000000
1.00000000 0.00000000 0.00000000
1.00000000 0.00000000 0.00000000
1.00000000 0.00000000 0.00000000
0.00000000 0.00643875 0.00000000
0.04252500 0.00643875 0.00000000
0.11745000 0.00643875 0.00000000
0.19237500 0.00643875 0.00000000
0.26730000 0.00643875 0.00000000
0.34222500 0.00643875 0.00000000
0.41715000 0.00643875 0.00000000
0.49207500 0.00643875 0.00000000
0.56700000 0.00643875 0.00000000
0.64192500 0.00643875 0.00000000
0.71685000 0.00643875 0.00000000
0.79177500 0.00643875 0.00000000
0.86670000 0.00643875 0.00000000
0.94162500 0.00643875 0.00000000
1.00000000 0.00643875 0.00000000
1.00000000 0.00643875 0.00000000
1.00000000 0.00643875 0.00000000
0.00000000 0.07650750 0.00000000
0.04252500 0.07650750 0.00000000
0.11745000 0.07650750 0.00000000
0.19237500 0.07650750 0.00000000
0.26730000 0.07650750 0.00000000
0.34222500 0.07650750 0.00000000
0.41715000 0.07650750 0.00000000
0.49207500 0.07650750 0.00000000
0.56700000 0.07650750 0.00000000
0.64192500 0.07650750 0.00000000
0.71685000 0.07650750 0.00000000
0.79177500 0.07650750 0.00000000
0.86670000 0.07650750 0.00000000
0.94162500 0.07650750 0.00000000
1.00000000 0.07650750 0.00000000
1.00000000 0.07650750 0.00000000
1.00000000 0.07650750 0.00000000
0.00000000 0.14657625 0.00000000
0.04252500 0.14657625 0.00000000
0.11745000 0.14657625 0.00000000
0.19237500 0.14657625 0.00000000
0.26730000 0.14657625 0.00000000
0.34222500 0.14657625 0.00000000
0.41715000 0.14657625 0.00000000
0.49207500 0.14657625 0.00000000
0.56700000 0.14657625 0.00000000
0.64192500 0.14657625 0.00000000
0.71685000 0.14657625 0.00000000
0.79177500 0.14657625 0.00000000
0.86670000 0.14657625 0.00000000
0.94162500 0.14657625 0.00000000
1.00000000 0.14657625 0.00000000
1.00000000 0.14657625 0.00000000
1.00000000 0.14657625 0.00000000
0.00000000 0.21664500 0.00000000
0.04252500 0.21664500 0.00000000
0.11745000 0.21664500 0.00000000
0.19237500 0.21664500 0.00000000
0.26730000 0.21664500 0.00000000
0.34222500 0.21664500 0.00000000
0.41715000 0.21664500 0.00000000
0.49207500 0.21664500 0.00000000
0.56700000 0.21664500 0.00000000
0.64192500 0.21664500 0.00000000
0.71685000 0.21664500 0.00000000
0.79177500 0.21664500 0.00000000
0.86670000 0.21664500 0.00000000
0.94162500 0.21664500 0.00000000
1.00000000 0.21664500 0.00000000
1.00000000 0.21664500 0.00000000
1.00000000 0.21664500 0.00000000
0.00000000 0.28671375 0.00000000
0.04252500 0.28671375 0.00000000
0.11745000 0.28671375 0.00000000
0.19237500 0.28671375 0.00000000
0.26730000 0.28671375 0.00000000
0.34222500 0.28671375 0.00000000
0.41715000 0.28671375 0.00000000
0.49207500 0.28671375 0.00000000
0.56700000 0.28671375 0.00000000
0.64192500 0.28671375 0.00000000
0.71685000 0.28671375 0.00000000
0.79177500 0.28671375 0.00000000
0.86670000 0.28671375 0.00000000
0.94162500 0.28671375 0.00000000
1.00000000 0.28671375 0.00000000
1.00000000 0.28671375 0.00000000
1.00000000 0.28671375 0.00000000
0.00000000 0.35678250 0.00000000
0.04252500 0.35678250 0.00000000
0.11745000 0.35678250 0.00000000
0.19237500 0.35678250 0.00000000
0.26730000 0.35678250 0.00000000
0.34222500 0.35678250 0.00000000
0.41715000 0.35678250 0.00000000
0.49207500 0.35678250 0.00000000
0.56700000 0.35678250 0.00000000
0.64192500 0.35678250 0.00000000
0.71685000 0.35678250 0.00000000
0.79177500 0.35678250 0.00000000
0.86670000 0.35678250 0.00000000
0.94162500 0.35678250 0.00000000
1.00000000 0.35678250 0.00000000
1.00000000 0.35678250 0.00000000
1.00000000 0.35678250 0.00000000
0.00000000 0.42685125 0.00000000
0.04252500 0.42685125 0.00000000
0.11745000 0.42685125 0.00000000
0.19237500 0.42685125 0.00000000
0.26730000 0.42685125 0.00000000
0.34222500 0.42685125 0.00000000
0.41715000 0.42685125 0.00000000
0.49207500 0.42685125 0.00000000
0.56700000 0.42685125 0.00000000
0.64192500 0.42685125 0.00000000
0.71685000 0.42685125 0.00000000
0.79177500 0.42685125 0.00000000
0.86670000 0.42685125 0.00000000
0.94162500 0.42685125 0.00000000
1.00000000 0.42685125 0.00000000
1.00000000 0.42685125 0.00000000
1.00000000 0.42685125 0.00000000
0.00000000 0.49692000 0.00000000
0.04252500 0.49692000 0.00000000
0.11745000 0.49692000 0.00000000
0.19237500 0.49692000 0.00000000
0.26730000 0.49692000 0.00000000
0.34222500 0.49692000 0.00000000
0.41715000 0.49692000 0.00000000
0.49207500 0.49692000 0.00000000
0.56700000 0.49692000 0.00000000
0.64192500 0.49692000 0.00000000
0.71685000 0.49692000 0.00000000
0.79177500 0.49692000 0.00000000
0.86670000 0.49692000 0.00000000
0.94162500 0.49692000 0.00000000
1.00000000 0.49692000 0.00000000
1.00000000 0.49692000 0.00000000
1.00000000 0.49692000 0.00000000
0.00000000 0.56698875 0.00000000
0.04252500 0.56698875 0.00000000
0.11745000 0.56698875 0.00000000
0.19237500 0.56698875 0.00000000
0.26730000 0.56698875 0.00000000
0.34222500 0.56698875 0.00000000
0.41715000 0.56698875 0.00000000
0.49207500 0.56698875 0.00000000
0.56700000 0.56698875 0.00000000
0.64192500 0.56698875 0.00000000
0.71685000 0.56698875 0.00000000
0.79177500 0.56698875 0.00000000
0.86670000 0.56698875 0.00000000
0.94162500 0.56698875 0.00000000
1.00000000 0.56698875 0.00000000
1.00000000 0.56698875 0.00000000
1.00000000 0.56698875 0.00000000
0.00000000 0.63705750 0.00000000
0.04252500 0.63705750 0.00000000
0.11745000 0.63705750 0.00000000
0.19237500 0.63705750 0.00000000
0.26730000 0.63705750 0.00000000
0.34222500 0.63705750 0.00000000
0.41715000 0.63705750 0.00000000
0.49207500 0.63705750 0.00000000
0.56700000 0.63705750 0.00000000
0.64192500 0.63705750 0.00000000
0.71685000 0.63705750 0.00000000
0.79177500 0.63705750 0.00000000
0.86670000 0.63705750 0.00000000
0.94162500 0.63705750 0.00000000
1.00000000 0.63705750 0.00000000
1.00000000 0.63705750 0.00000000
1.00000000 0.63705750 0.00000000
0.00000000 0.70712625 0.00000000
0.04252500 0.70712625 0.00000000
0.11745000 0.70712625 0.00000000
0.19237500 0.70712625 0.00000000
0.26730000 0.70712625 0.00000000
0.34222500 0.70712625 0.00000000
0.41715000 0.70712625 0.00000000
0.49207500 0.70712625 0.00000000
0.56700000 0.70712625 0.00000000
0.64192500 0.70712625 0.00000000
0.71685000 0.70712625 0.00000000
0.79177500 0.70712625 0.00000000
0.86670000 0.70712625 0.00000000
0.94162500 0.70712625 0.00000000
1.00000000 0.70712625 0.00000000
1.00000000 0.70712625 0.00000000
1.00000000 0.70712625 0.00000000
0.00000000 0.77719500 0.00000000
0.04252500 0.77719500 0.00000000
0.11745000 0.77719500 0.00000000
0.19237500 0.77719500 0.00000000
0.26730000 0.77719500 0.00000000
0.34222500 0.77719500 0.00000000
0.41715000 0.77719500 0.00000000
0.49207500 0.77719500 0.00000000
0.56700000 0.77719500 0.00000000
0.64192500 0.77719500 0.00000000
0.71685000 0.77719500 0.00000000
0.79177500 0.77719500 0.00000000
0.86670000 0.77719500 0.00000000
0.94162500 0.77719500 0.00000000
1.00000000 0.77719500 0.00000000
1.00000000 0.77719500 0.00000000
1.00000000 0.77719500 0.00000000
0.00000000 0.84726375 0.00000000
0.04252500 0.84726375 0.00000000
0.11745000 0.84726375 0.00000000
0.19237500 0.84726375 0.00000000
0.26730000 0.84726375 0.00000000
0.34222500 0.84726375 0.00000000
0.41715000 0.84726375 0.00000000
0.49207500 0.84726375 0.00000000
0.56700000 0.84726375 0.00000000
0.64192500 0.84726375 0.00000000
0.71685000 0.84726375 0.00000000
0.79177500 0.84726375 0.00000000
0.86670000 0.84726375 0.00000000
0.94162500 0.84726375 0.00000000
1.00000000 0.84726375 0.00000000
1.00000000 0.84726375 0.00000000
1.00000000 0.84726375 0.00000000
0.00000000 0.91733250 0.00000000
0.04252500 0.91733250 0.00000000
0.11745000 0.91733250 0.00000000
0.19237500 0.91733250 0.00000000
0.26730000 0.91733250 0.00000000
0.34222500 0.91733250 0.00000000
0.41715000 0.91733250 0.00000000
0.49207500 0.91733250 0.00000000
0.56700000 0.91733250 0.00000000
0.64192500 0.91733250 0.00000000
0.71685000 0.91733250 0.00000000
0.79177500 0.91733250 0.00000000
0.86670000 0.91733250 0.00000000
0.94162500 0.91733250 0.00000000
1.00000000 0.91733250 0.00000000
1.00000000 0.91733250 0.00000000
1.00000000 0.91733250 0.00000000
0.00000000 0.98740125 0.00000000
0.04252500 0.98740125 0.00000000
0.11745000 0.98740125 0.00000000
0.19237500 0.98740125 0.00000000
0.26730000 0.98740125 0.00000000
0.34222500 0.98740125 0.00000000
0.41715000 0.98740125 0.00000000
0.49207500 0.98740125 0.00000000
0.56700000 0.98740125 0.00000000
0.64192500 0.98740125 0.00000000
0.71685000 0.98740125 0.00000000
0.79177500 0.98740125 0.00000000
0.86670000 0.98740125 0.00000000
0.94162500 0.98740125 0.00000000
1.00000000 0.98740125 0.00000000
1.00000000 0.98740125 0.00000000
1.00000000 0.98740125 0.00000000
0.00000000 1.00000000 0.00000000
0.04252500 1.00000000 0.00000000
0.11745000 1.00000000 0.00000000
0.19237500 1.00000000 0.00000000
0.26730000 1.00000000 0.00000000
0.34222500 1.00000000 0.00000000
0.41715000 1.00000000 0.00000000
0.49207500 1.00000000 0.00000000
0.56700000 1.00000000 0.00000000
0.64192500 1.00000000 0.00000000
0.71685000 1.00000000 0.00000000
0.79177500 1.00000000 0.00000000
0.86670000 1.00000000 0.00000000
0.94162500 1.00000000 0.00000000
1.00000000 1.00000000 0.00000000
1.00000000 1.00000000 0.00000000
1.00000000 1.00000000 0.00000000
0.00000000 0.00000000 0.04945000
0.04252500 0.00000000 0.04945000
0.11745000 0.00000000 0.04945000
0.19237500 0.00000000 0.04945000
0.26730000 0.00000000 0.04945000
0.34222500 0.00000000 0.04945000
0.41715000 0.00000000 0.04945000
0.49207500 0.00000000 0.04945000
0.56700000 0.00000000 0.04945000
0.64192500 0.00000000 0.04945000
0.71685000 0.00000000 0.04945000
0.79177500 0.00000000 0.04945000
0.86670000 0.00000000 0.04945000
0.94162500 0.00000000 0.04945000
1.00000000 0.00000000 0.04945000
1.00000000 0.00000000 0.04945000
1.00000000 0.00000000 0.04945000
0.00000000 0.00643875 0.04945000
0.04162475 0.00084729 0.04945000
0.11745000 0.00000000 0.04550594
0.19237500 0.00000000 0.04450068
0.26730000 0.00000000 0.04407288
0.34222500 0.00000000 0.04383600
0.41715000 0.00000000 0.04368554
0.49207500 0.00000000 0.04358151
0.56700000 0.00000000 0.04350529
0.64192500 0.00000000 0.04344704
0.71685000 0.00000000 0.04340108
0.79177500 0.00000000 0.04336389
0.86670000 0.00000000 0.04333317
0.94162500 0.00000000 0.04330738
1.00000000 0.00000000 0.04328998
1.00000000 0.00000000 0.04328998
1.00000000 0.00000000 0.04328998
0.00000000 0.07650750 0.04945000
0.03810727 0.07650750 0.04593252
0.11745000 0.07118497 0.04061000
0.19237500 0.06144472 0.03086975
0.26730000 0.05170448 0.02112950
0.34222500 0.04196423 0.01138925
0.41715000 0.03222398 0.00164900
0.49207500 0.03008036 0.00000000
0.56700000 0.02964274 0.00000000
0.64192500 0.02931581 0.00000000
0.71685000 0.02906228 0.00000000
0.79177500 0.02885994 0.00000000
0.86670000 0.02869469 0.00000000
0.94162500 0.02855720 0.00000000
1.00000000 0.02846510 0.00000000
1.00000000 0.02846510 0.00000000
1.00000000 0.02846510 0.00000000
0.00000000 0.14657625 0.04945000
0.02899834 0.14657625 0.03682359
0.11366359 0.14657625 0.03682359
0.19237500 0.14062241 0.03086975
0.26730000 0.13088216 0.02112950
0.34222500 0.12114191 0.01138925
0.41715000 0.11140166 0.00164900
0.49207500 0.10797718 0.00000000
0.56700000 0.10640631 0.00000000
0.64192500 0.10523274 0.00000000
0.71685000 0.10432267 0.00000000
0.79177500 0.10359632 0.00000000
0.86670000 0.10300315 0.00000000
0.94162500 0.10250960 0.00000000
1.00000000 0.10217900 0.00000000
1.00000000 0.10217900 0.00000000
1.00000000 0.10217900 0.00000000
0.00000000 0.21664500 0.04945000
0.01988940 0.21664500 0.02771465
0.10455465 0.21664500 0.02771465
0.18921990 0.21664500 0.02771465
0.26730000 0.21005985 0.02112950
0.34222500 0.20031960 0.01138925
0.41715000 0.19057935 0.00164900
0.49207500 0.18587400 0.00000000
0.56700000 0.18316987 0.00000000
0.64192500 0.18114967 0.00000000
0.71685000 0.17958306 0.00000000
0.79177500 0.17833270 0.00000000
0.86670000 0.17731160 0.00000000
0.94162500 0.17646201 0.00000000
1.00000000 0.17589290 0.00000000
1.00000000 0.17589290 0.00000000
1.00000000 0.17589290 0.00000000
0.00000000 0.28671375 0.04945000
0.01078046 0.28671375 0.01860571
0.09544571 0.28671375 0.01860571
0.18011096 0.28671375 0.01860571
0.26477621 0.28671375 0.01860571
0.34222500 0.27949729 0.01138925
0.41715000 0.26975704 0.00164900
0.49207500 0.26377082 0.00000000
0.56700000 0.25993343 0.00000000
0.64192500 0.25706660 0.00000000
0.71685000 0.25484345 0.00000000
0.79177500 0.25306908 0.00000000
0.86670000 0.25162006 0.00000000
0.94162500 0.25041441 0.00000000
1.00000000 0.24960681 0.00000000
1.00000000 0.24960681 0.00000000
1.00000000 0.24960681 0.00000000
0.00000000 0.35678250 0.04945000
0.00167153 0.35678250 0.00949677
0.08633678 0.35678250 0.00949678
0.17100202 0.35678250 0.00949678
0.25566727 0.35678250 0.00949678
0.34033253 0.35678250 0.00949678
0.41715000 0.34893472 0.00164900
0.49207500 0.34166764 0.00000000
0.56700000 0.33669699 0.00000000
0.64192500 0.33298353 0.00000000
0.71685000 0.33010384 0.00000000
0.79177500 0.32780546 0.00000000
0.86670000 0.32592851 0.00000000
0.94162500 0.32436682 0.00000000
1.00000000 0.32332071 0.00000000
1.00000000 0.32332071 0.00000000
1.00000000 0.32332071 0.00000000
0.00000000 0.42685125 0.04945000
0.00000000 0.42685125 0.00769124
0.07722784 0.42685125 0.00038784
0.16189309 0.42685125 0.00038784
0.24655834 0.42685125 0.00038784
0.33122359 0.42685125 0.00038784
0.41588884 0.42685125 0.00038784
0.49207500 0.41956446 0.00000000
0.56700000 0.41346055 0.00000000
0.64192500 0.40890046 0.00000000
0.71685000 0.40536423 0.00000000
0.79177500 0.40254184 0.00000000
0.86670000 0.40023697 0.00000000
0.94162500 0.39831922 0.00000000
1.00000000 0.39703461 0.00000000
1.00000000 0.39703461 0.00000000
1.00000000 0.39703461 0.00000000
0.00000000 0.49692000 0.04945000
0.00000000 0.49692000 0.00757308
0.07551469 0.49692000 0.00000000
0.15871967 0.49692000 0.00000000
0.24192465 0.49692000 0.00000000
0.32512962 0.49692000 0.00000000
0.40833460 0.49692000 0.00000000
0.49153958 0.49692000 0.00000000
0.56700000 0.49022411 0.00000000
0.64192500 0.48481738 0.00000000
