recipes/color/anime_fire_v1/anime_fire_v1.cube
TITLE "anime_fire_v1"
LUT_3D_SIZE 9
DOMAIN_MIN 0.0 0.0 0.0
DOMAIN_MAX 1.0 1.0 1.0
0.00000000 0.00000000 0.00000000
0.11745000 0.00000000 0.00000000
0.26730000 0.00000000 0.00000000
0.41715000 0.00000000 0.00000000
0.56700000 0.00000000 0.00000000
0.71685000 0.00000000 0.00000000
0.86670000 0.00000000 0.00000000
1.00000000 0.00000000 0.00000000
1.00000000 0.00000000 0.00000000
0.00000000 0.07650750 0.00000000
0.11745000 0.07650750 0.00000000
0.26730000 0.07650750 0.00000000
0.41715000 0.07650750 0.00000000
0.56700000 0.07650750 0.00000000
0.71685000 0.07650750 0.00000000
0.86670000 0.07650750 0.00000000
1.00000000 0.07650750 0.00000000
1.00000000 0.07650750 0.00000000
0.00000000 0.21664500 0.00000000
0.11745000 0.21664500 0.00000000
0.26730000 0.21664500 0.00000000
0.41715000 0.21664500 0.00000000
0.56700000 0.21664500 0.00000000
0.71685000 0.21664500 0.00000000
0.86670000 0.21664500 0.00000000
1.00000000 0.21664500 0.00000000
1.00000000 0.21664500 0.00000000
0.00000000 0.35678250 0.00000000
0.11745000 0.35678250 0.00000000
0.26730000 0.35678250 0.00000000
0.41715000 0.35678250 0.00000000
0.56700000 0.35678250 0.00000000
0.71685000 0.35678250 0.00000000
0.86670000 0.35678250 0.00000000
1.00000000 0.35678250 0.00000000
1.00000000 0.35678250 0.00000000
0.00000000 0.49692000 0.00000000
0.11745000 0.49692000 0.00000000
0.26730000 0.49692000 0.00000000
0.41715000 0.49692000 0.00000000
0.56700000 0.49692000 0.00000000
0.71685000 0.49692000 0.00000000
0.86670000 0.49692000 0.00000000
1.00000000 0.49692000 0.00000000
1.00000000 0.49692000 0.00000000
0.00000000 0.63705750 0.00000000
0.11745000 0.63705750 0.00000000
0.26730000 0.63705750 0.00000000
0.41715000 0.63705750 0.00000000
0.56700000 0.63705750 0.00000000
0.71685000 0.63705750 0.00000000
0.86670000 0.63705750 0.00000000
1.00000000 0.63705750 0.00000000
1.00000000 0.63705750 0.00000000
0.00000000 0.77719500 0.00000000
0.11745000 0.77719500 0.00000000
0.26730000 0.77719500 0.00000000
0.41715000 0.77719500 0.00000000
0.56700000 0.77719500 0.00000000
0.71685000 0.77719500 0.00000000
0.86670000 0.77719500 0.00000000
1.00000000 0.77719500 0.00000000
1.00000000 0.77719500 0.00000000
0.00000000 0.91733250 0.00000000
0.11745000 0.91733250 0.00000000
0.26730000 0.91733250 0.00000000
0.41715000 0.91733250 0.00000000
0.56700000 0.91733250 0.00000000
0.71685000 0.91733250 0.00000000
0.86670000 0.91733250 0.00000000
1.00000000 0.91733250 0.00000000
1.00000000 0.91733250 0.00000000
0.00000000 1.00000000 0.00000000
0.11745000 1.00000000 0.00000000
0.26730000 1.00000000 0.00000000
0.41715000 1.00000000 0.00000000
0.56700000 1.00000000 0.00000000
0.71685000 1.00000000 0.00000000
0.86670000 1.00000000 0.00000000
1.00000000 1.00000000 0.00000000
1.00000000 1.00000000 0.00000000
0.00000000 0.00000000 0.04945000
0.11745000 0.00000000 0.04945000
0.26730000 0.00000000 0.04945000
0.41715000 0.00000000 0.04945000
0.56700000 0.00000000 0.04945000
0.71685000 0.00000000 0.04945000
0.86670000 0.00000000 0.04945000
1.00000000 0.00000000 0.04945000
1.00000000 0.00000000 0.04945000
0.00000000 0.07650750 0.04945000
0.11745000 0.07118497 0.04061000
0.26730000 0.05170448 0.02112950
0.41715000 0.03222398 0.00164900
0.56700000 0.02964274 0.00000000
0.71685000 0.02906228 0.00000000
0.86670000 0.02869469 0.00000000
1.00000000 0.02846510 0.00000000
1.00000000 0.02846510 0.00000000
0.00000000 0.21664500 0.04945000
0.10455465 0.21664500 0.02771465
0.26730000 0.21005985 0.02112950
0.41715000 0.19057935 0.00164900
0.56700000 0.18316987 0.00000000
0.71685000 0.17958306 0.00000000
0.86670000 0.17731160 0.00000000
1.00000000 0.17589290 0.00000000
1.00000000 0.17589290 0.00000000
0.00000000 0.35678250 0.04945000
0.08633678 0.35678250 0.00949678
0.25566727 0.35678250 0.00949678
0.41715000 0.34893472 0.00164900
0.56700000 0.33669699 0.00000000
0.71685000 0.33010384 0.00000000
0.86670000 0.32592851 0.00000000
1.00000000 0.32332071 0.00000000
1.00000000 0.32332071 0.00000000
0.00000000 0.49692000 0.04945000
0.07551469 0.49692000 0.00000000
0.24192465 0.49692000 0.00000000
0.40833460 0.49692000 0.00000000
0.56700000 0.49022411 0.00000000
0.71685000 0.48062462 0.00000000
0.86670000 0.47454543 0.00000000
1.00000000 0.47074851 0.00000000
1.00000000 0.47074851 0.00000000
0.00000000 0.63705750 0.04945000
0.07372253 0.63705750 0.00000000
0.23618313 0.63705750 0.00000000
0.39864373 0.63705750 0.00000000
0.56110432 0.63705750 0.00000000
0.71685000 0.63114539 0.00000000
0.86670000 0.62316234 0.00000000
1.00000000 0.61817632 0.00000000
1.00000000 0.61817632 0.00000000
0.00000000 0.77719500 0.04945000
0.07262057 0.77719500 0.00000000
0.23265283 0.77719500 0.00000000
0.39268508 0.77719500 0.00000000
0.55271733 0.77719500 0.00000000
0.71274958 0.77719500 0.00000000
0.86670000 0.77177925 0.00000000
1.00000000 0.76560412 0.00000000
1.00000000 0.76560412 0.00000000
0.00000000 0.91733250 0.04945000
0.07187449 0.91733250 0.00000000
0.23026260 0.91733250 0.00000000
0.38865072 0.91733250 0.00000000
0.54703884 0.91733250 0.00000000
0.70542696 0.91733250 0.00000000
0.86381507 0.91733250 0.00000000
1.00000000 0.91303193 0.00000000
1.00000000 0.91303193 0.00000000
0.00000000 1.00000000 0.04945000
0.07153753 1.00000000 0.00000000
0.22918310 1.00000000 0.00000000
0.38682868 1.00000000 0.00000000
0.54447425 1.00000000 0.00000000
0.70211983 1.00000000 0.00000000
0.85976540 1.00000000 0.00000000
1.00000000 1.00000000 0.00000000
1.00000000 1.00000000 0.00000000
0.00000000 0.00000000 0.17710000
0.11745000 0.00000000 0.17710000
0.26730000 0.00000000 0.17710000
0.41715000 0.00000000 0.17710000
0.56700000 0.00000000 0.17710000
0.71685000 0.00000000 0.17710000
0.86670000 0.00000000 0.17710000
1.00000000 0.00000000 0.17710000
1.00000000 0.00000000 0.17710000
0.00000000 0.07650750 0.17710000
0.10969550 0.06343048 0.17710000
0.26730000 0.05170448 0.16537400
0.41715000 0.03222398 0.14589350
0.56700000 0.01274347 0.12641300
0.71685000 0.00000000 0.11261119
0.86670000 0.00000000 0.11033200
1.00000000 0.00000000 0.10892617
1.00000000 0.00000000 0.10892617
0.00000000 0.21664500 0.17710000
0.10455465 0.21664500 0.17195915
0.26730000 0.21005985 0.16537400
0.41715000 0.19057935 0.14589350
0.56700000 0.17109885 0.12641300
0.71685000 0.15161835 0.10693250
0.86670000 0.13213785 0.08745200
1.00000000 0.11480885 0.07012300
1.00000000 0.11480885 0.07012300
0.00000000 0.35678250 0.17710000
0.08633678 0.35678250 0.15374128
0.25566727 0.35678250 0.15374128
0.41715000 0.34893472 0.14589350
0.56700000 0.32945422 0.12641300
0.71685000 0.30997373 0.10693250
0.86670000 0.29049322 0.08745200
1.00000000 0.27316423 0.07012300
1.00000000 0.27316423 0.07012300
0.00000000 0.49692000 0.17710000
0.06811890 0.49692000 0.13552340
0.23744940 0.49692000 0.13552340
0.40677990 0.49692000 0.13552340
0.56700000 0.48780960 0.12641300
0.71685000 0.46832910 0.10693250
0.86670000 0.44884860 0.08745200
1.00000000 0.43151960 0.07012300
1.00000000 0.43151960 0.07012300
0.00000000 0.63705750 0.17710000
0.04990103 0.63705750 0.11730552
0.21923153 0.63705750 0.11730553
0.38856202 0.63705750 0.11730553
0.55789253 0.63705750 0.11730553
0.71685000 0.62668448 0.10693250
0.86670000 0.60720398 0.08745200
1.00000000 0.58987498 0.07012300
1.00000000 0.58987498 0.07012300
0.00000000 0.77719500 0.17710000
0.03168315 0.77719500 0.09908765
0.20101365 0.77719500 0.09908765
0.37034415 0.77719500 0.09908765
0.53967465 0.77719500 0.09908765
0.70900515 0.77719500 0.09908765
0.86670000 0.76555935 0.08745200
1.00000000 0.74823035 0.07012300
1.00000000 0.74823035 0.07012300
0.00000000 0.91733250 0.17710000
0.01346528 0.91733250 0.08086977
0.18279577 0.91733250 0.08086977
0.35212628 0.91733250 0.08086977
0.52145678 0.91733250 0.08086977
0.69078728 0.91733250 0.08086977
0.86011778 0.91733250 0.08086977
1.00000000 0.90658573 0.07012300
1.00000000 0.90658573 0.07012300
0.00000000 1.00000000 0.17710000
0.00271850 1.00000000 0.07012300
0.17204900 1.00000000 0.07012300
0.34137950 1.00000000 0.07012300
0.51071000 1.00000000 0.07012300
0.68004050 1.00000000 0.07012300
0.84937100 1.00000000 0.07012300
1.00000000 1.00000000 0.07012300
1.00000000 1.00000000 0.07012300
0.00000000 0.00000000 0.30475000
0.11745000 0.00000000 0.30475000
0.26730000 0.00000000 0.30475000
0.41715000 0.00000000 0.30475000
0.56700000 0.00000000 0.30475000
0.71685000 0.00000000 0.30475000
0.86670000 0.00000000 0.30475000
1.00000000 0.00000000 0.30475000
1.00000000 0.00000000 0.30475000
0.00000000 0.07650750 0.30475000
0.09310100 0.04683597 0.30475000
0.26243150 0.04683597 0.30475000
0.41715000 0.03222398 0.29013800
0.56700000 0.01274347 0.27065750
0.71685000 0.00000000 0.25551269
0.86670000 0.00000000 0.25034125
1.00000000 0.00000000 0.24715144
1.00000000 0.00000000 0.24715144
0.00000000 0.21664500 0.30475000
0.09310100 0.20519135 0.30475000
0.26243150 0.20519135 0.30475000
0.41715000 0.19057935 0.29013800
0.56700000 0.17109885 0.27065750
0.71685000 0.15161835 0.25117700
0.86670000 0.13213785 0.23169650
1.00000000 0.11480885 0.21436750
1.00000000 0.11480885 0.21436750
0.00000000 0.35678250 0.30475000
0.08633678 0.35678250 0.29798577
0.25566727 0.35678250 0.29798578
0.41715000 0.34893472 0.29013800
0.56700000 0.32945422 0.27065750
0.71685000 0.30997372 0.25117700
0.86670000 0.29049322 0.23169650
1.00000000 0.27316423 0.21436750
1.00000000 0.27316423 0.21436750
0.00000000 0.49692000 0.30475000
0.06811890 0.49692000 0.27976790
0.23744940 0.49692000 0.27976790
0.40677990 0.49692000 0.27976790
0.56700000 0.48780960 0.27065750
0.71685000 0.46832910 0.25117700
0.86670000 0.44884860 0.23169650
1.00000000 0.43151960 0.21436750
1.00000000 0.43151960 0.21436750
0.00000000 0.63705750 0.30475000
0.04990103 0.63705750 0.26155003
0.21923153 0.63705750 0.26155003
0.38856203 0.63705750 0.26155003
0.55789253 0.63705750 0.26155003
0.71685000 0.62668448 0.25117700
0.86670000 0.60720398 0.23169650
1.00000000 0.58987498 0.21436750
1.00000000 0.58987498 0.21436750
0.00000000 0.77719500 0.30475000
0.03168315 0.77719500 0.24333215
0.20101365 0.77719500 0.24333215
0.37034415 0.77719500 0.24333215
0.53967465 0.77719500 0.24333215
0.70900515 0.77719500 0.24333215
0.86670000 0.76555935 0.23169650
1.00000000 0.74823035 0.21436750
1.00000000 0.74823035 0.21436750
0.00000000 0.91733250 0.30475000
0.01346528 0.91733250 0.22511427
0.18279577 0.91733250 0.22511427
0.35212628 0.91733250 0.22511428
0.52145678 0.91733250 0.22511428
0.69078728 0.91733250 0.22511428
0.86011778 0.91733250 0.22511428
1.00000000 0.90658573 0.21436750
1.00000000 0.90658573 0.21436750
0.00000000 1.00000000 0.30475000
0.00271850 1.00000000 0.21436750
0.17204900 1.00000000 0.21436750
0.34137950 1.00000000 0.21436750
0.51071000 1.00000000 0.21436750
0.68004050 1.00000000 0.21436750
0.84937100 1.00000000 0.21436750
1.00000000 1.00000000 0.21436750
1.00000000 1.00000000 0.21436750
0.00000000 0.00000000 0.43240000
0.11745000 0.00000000 0.43240000
0.26730000 0.00000000 0.43240000
0.41715000 0.00000000 0.43240000
0.56700000 0.00000000 0.43240000
0.71685000 0.00000000 0.43240000
0.86670000 0.00000000 0.43240000
1.00000000 0.00000000 0.43240000
1.00000000 0.00000000 0.43240000
0.00000000 0.07650750 0.43240000
0.07650650 0.03024147 0.43240000
0.24583700 0.03024147 0.43240000
0.41516750 0.03024147 0.43240000
0.56700000 0.01274347 0.41490200
0.71685000 0.00000000 0.39841419
0.86670000 0.00000000 0.39035049
1.00000000 0.00000000 0.38537671
1.00000000 0.00000000 0.38537671
0.00000000 0.21664500 0.43240000
0.07650650 0.18859685 0.43240000
0.24583700 0.18859685 0.43240000
0.41516750 0.18859685 0.43240000
0.56700000 0.17109885 0.41490200
0.71685000 0.15161835 0.39542150
0.86670000 0.13213785 0.37594100
1.00000000 0.11480885 0.35861200
1.00000000 0.11480885 0.35861200
0.00000000 0.35678250 0.43240000
0.07650650 0.34695222 0.43240000
0.24583700 0.34695223 0.43240000
0.41516750 0.34695222 0.43240000
0.56700000 0.32945422 0.41490200
0.71685000 0.30997373 0.39542150
0.86670000 0.29049322 0.37594100
1.00000000 0.27316423 0.35861200
1.00000000 0.27316423 0.35861200
0.00000000 0.49692000 0.43240000
0.06811890 0.49692000 0.42401240
0.23744940 0.49692000 0.42401240
0.40677990 0.49692000 0.42401240
0.56700000 0.48780960 0.41490200
0.71685000 0.46832910 0.39542150
0.86670000 0.44884860 0.37594100
1.00000000 0.43151960 0.35861200
1.00000000 0.43151960 0.35861200
0.00000000 0.63705750 0.43240000
0.04990103 0.63705750 0.40579453
0.21923153 0.63705750 0.40579453
0.38856203 0.63705750 0.40579452
0.55789253 0.63705750 0.40579453
0.71685000 0.62668448 0.39542150
0.86670000 0.60720398 0.37594100
1.00000000 0.58987498 0.35861200
1.00000000 0.58987498 0.35861200
0.00000000 0.77719500 0.43240000
0.03168315 0.77719500 0.38757665
0.20101365 0.77719500 0.38757665
0.37034415 0.77719500 0.38757665
0.53967465 0.77719500 0.38757665
0.70900515 0.77719500 0.38757665
0.86670000 0.76555935 0.37594100
1.00000000 0.74823035 0.35861200
1.00000000 0.74823035 0.35861200
0.00000000 0.91733250 0.43240000
0.01346528 0.91733250 0.36935877
0.18279577 0.91733250 0.36935878
0.35212628 0.91733250 0.36935877
0.52145677 0.91733250 0.36935877
0.69078728 0.91733250 0.36935877
0.86011778 0.91733250 0.36935877
1.00000000 0.90658573 0.35861200
1.00000000 0.90658573 0.35861200
0.00000000 1.00000000 0.43240000
0.00271850 1.00000000 0.35861200
0.17204900 1.00000000 0.35861200
0.34137950 1.00000000 0.35861200
0.51071000 1.00000000 0.35861200
0.68004050 1.00000000 0.35861200
0.84937100 1.00000000 0.35861200
1.00000000 1.00000000 0.35861200
1.00000000 1.00000000 0.35861200
0.00000000 0.00000000 0.56005000
0.11745000 0.00000000 0.56005000
0.26730000 0.00000000 0.56005000
0.41715000 0.00000000 0.56005000
0.56700000 0.00000000 0.56005000
0.71685000 0.00000000 0.56005000
0.86670000 0.00000000 0.56005000
1.00000000 0.00000000 0.56005000
1.00000000 0.00000000 0.56005000
0.00000000 0.07650750 0.56005000
0.05991200 0.01364697 0.56005000
0.22924250 0.01364697 0.56005000
0.39857300 0.01364697 0.56005000
0.56700000 0.01274347 0.55914650
0.71685000 0.00000000 0.54131569
0.86670000 0.00000000 0.53035973
1.00000000 0.00000000 0.52360198
1.00000000 0.00000000 0.52360198
0.00000000 0.21664500 0.56005000
0.05991200 0.17200235 0.56005000
0.22924250 0.17200235 0.56005000
0.39857300 0.17200235 0.56005000
0.56700000 0.17109885 0.55914650
0.71685000 0.15161835 0.53966600
0.86670000 0.13213785 0.52018550
1.00000000 0.11480885 0.50285650
1.00000000 0.11480885 0.50285650
0.00000000 0.35678250 0.56005000
0.05991200 0.33035773 0.56005000
0.22924250 0.33035772 0.56005000
0.39857300 0.33035772 0.56005000
0.56700000 0.32945422 0.55914650
0.71685000 0.30997373 0.53966600
0.86670000 0.29049322 0.52018550
1.00000000 0.27316423 0.50285650
1.00000000 0.27316423 0.50285650
0.00000000 0.49692000 0.56005000
0.05991200 0.48871310 0.56005000
0.22924250 0.48871310 0.56005000
0.39857300 0.48871310 0.56005000
0.56700000 0.48780960 0.55914650
0.71685000 0.46832910 0.53966600
0.86670000 0.44884860 0.52018550
1.00000000 0.43151960 0.50285650
1.00000000 0.43151960 0.50285650
0.00000000 0.63705750 0.56005000
0.04990103 0.63705750 0.55003903
0.21923153 0.63705750 0.55003903
0.38856203 0.63705750 0.55003903
0.55789253 0.63705750 0.55003903
0.71685000 0.62668448 0.53966600
0.86670000 0.60720398 0.52018550
1.00000000 0.58987498 0.50285650
1.00000000 0.58987498 0.50285650
0.00000000 0.77719500 0.56005000
0.03168315 0.77719500 0.53182115
0.20101365 0.77719500 0.53182115
0.37034415 0.77719500 0.53182115
0.53967465 0.77719500 0.53182115
0.70900515 0.77719500 0.53182115
0.86670000 0.76555935 0.52018550
1.00000000 0.74823035 0.50285650
1.00000000 0.74823035 0.50285650
0.00000000 0.91733250 0.56005000
0.01346528 0.91733250 0.51360327
0.18279577 0.91733250 0.51360328
0.35212628 0.91733250 0.51360328
0.52145678 0.91733250 0.51360328
0.69078728 0.91733250 0.51360328
0.86011778 0.91733250 0.51360328
1.00000000 0.90658573 0.50285650
1.00000000 0.90658573 0.50285650
0.00000000 1.00000000 0.56005000
0.00271850 1.00000000 0.50285650
0.17204900 1.00000000 0.50285650
0.34137950 1.00000000 0.50285650
0.51071000 1.00000000 0.50285650
0.68004050 1.00000000 0.50285650
0.84937100 1.00000000 0.50285650
1.00000000 1.00000000 0.50285650
1.00000000 1.00000000 0.50285650
0.00000000 0.00000000 0.68770000
0.11745000 0.00000000 0.68770000
0.26730000 0.00000000 0.68770000
0.41715000 0.00000000 0.68770000
0.56700000 0.00000000 0.68770000
0.71685000 0.00000000 0.68770000
0.86670000 0.00000000 0.68770000
1.00000000 0.00000000 0.68770000
1.00000000 0.00000000 0.68770000
0.00000000 0.07650750 0.68770000
0.04606758 0.00000000 0.68770000
0.21467541 0.00000000 0.68770000
0.38328325 0.00000000 0.68770000
0.55189109 0.00000000 0.68770000
0.71685000 0.00000000 0.68421719
0.86670000 0.00000000 0.67036898
1.00000000 0.00000000 0.66182725
1.00000000 0.00000000 0.66182725
0.00000000 0.21664500 0.68770000
0.04331750 0.15540785 0.68770000
0.21264800 0.15540785 0.68770000
0.38197850 0.15540785 0.68770000
0.55130900 0.15540785 0.68770000
0.71685000 0.15161835 0.68391050
0.86670000 0.13213785 0.66443000
1.00000000 0.11480885 0.64710100
1.00000000 0.11480885 0.64710100
0.00000000 0.35678250 0.68770000
0.04331750 0.31376322 0.68770000
0.21264800 0.31376322 0.68770000
0.38197850 0.31376322 0.68770000
0.55130900 0.31376322 0.68770000
0.71685000 0.30997373 0.68391050
0.86670000 0.29049322 0.66443000
1.00000000 0.27316423 0.64710100
1.00000000 0.27316423 0.64710100
0.00000000 0.49692000 0.68770000
0.04331750 0.47211860 0.68770000
0.21264800 0.47211860 0.68770000
0.38197850 0.47211860 0.68770000
0.55130900 0.47211860 0.68770000
0.71685000 0.46832910 0.68391050
0.86670000 0.44884860 0.66443000
1.00000000 0.43151960 0.64710100
1.00000000 0.43151960 0.64710100
0.00000000 0.63705750 0.68770000
0.04331750 0.63047397 0.68770000
0.21264800 0.63047397 0.68770000
0.38197850 0.63047398 0.68770000
0.55130900 0.63047398 0.68770000
0.71685000 0.62668448 0.68391050
0.86670000 0.60720398 0.66443000
1.00000000 0.58987498 0.64710100
1.00000000 0.58987498 0.64710100
0.00000000 0.77719500 0.68770000
0.03168315 0.77719500 0.67606565
0.20101365 0.77719500 0.67606565
0.37034415 0.77719500 0.67606565
0.53967465 0.77719500 0.67606565
0.70900515 0.77719500 0.67606565
0.86670000 0.76555935 0.66443000
1.00000000 0.74823035 0.64710100
1.00000000 0.74823035 0.64710100
0.00000000 0.91733250 0.68770000
0.01346528 0.91733250 0.65784777
0.18279577 0.91733250 0.65784778
0.35212628 0.91733250 0.65784778
0.52145678 0.91733250 0.65784778
0.69078728 0.91733250 0.65784778
0.86011778 0.91733250 0.65784778
1.00000000 0.90658573 0.64710100
1.00000000 0.90658573 0.64710100
0.00000000 1.00000000 0.68770000
0.00271850 1.00000000 0.64710100
0.17204900 1.00000000 0.64710100
0.34137950 1.00000000 0.64710100
0.51071000 1.00000000 0.64710100
0.68004050 1.00000000 0.64710100
0.84937100 1.00000000 0.64710100
1.00000000 1.00000000 0.64710100
1.00000000 1.00000000 0.64710100
0.00000000 0.00000000 0.81535000
0.11745000 0.00000000 0.81535000
0.26730000 0.00000000 0.81535000
0.41715000 0.00000000 0.81535000
0.56700000 0.00000000 0.81535000
0.71685000 0.00000000 0.81535000
0.86670000 0.00000000 0.81535000
1.00000000 0.00000000 0.81535000
1.00000000 0.00000000 0.81535000
0.00000000 0.07650750 0.81535000
0.04518212 0.00000000 0.81535000
0.21054916 0.00000000 0.81535000
0.37591620 0.00000000 0.81535000
0.54128324 0.00000000 0.81535000
0.70665028 0.00000000 0.81535000
0.86670000 0.00000000 0.81037822
1.00000000 0.00000000 0.80005252
1.00000000 0.00000000 0.80005252
0.00000000 0.21664500 0.81535000
0.02672300 0.13881335 0.81535000
0.19605350 0.13881335 0.81535000
0.36538400 0.13881335 0.81535000
0.53471450 0.13881335 0.81535000
0.70404500 0.13881335 0.81535000
0.86670000 0.13213785 0.80867450
1.00000000 0.11480885 0.79134550
1.00000000 0.11480885 0.79134550
0.00000000 0.35678250 0.81535000
0.02672300 0.29716873 0.81535000
0.19605350 0.29716872 0.81535000
0.36538400 0.29716872 0.81535000
0.53471450 0.29716872 0.81535000
0.70404500 0.29716872 0.81535000
0.86670000 0.29049322 0.80867450
1.00000000 0.27316423 0.79134550
1.00000000 0.27316423 0.79134550
0.00000000 0.49692000 0.81535000
0.02672300 0.45552410 0.81535000
0.19605350 0.45552410 0.81535000
0.36538400 0.45552410 0.81535000
0.53471450 0.45552410 0.81535000
0.70404500 0.45552410 0.81535000
0.86670000 0.44884860 0.80867450
1.00000000 0.43151960 0.79134550
1.00000000 0.43151960 0.79134550
0.00000000 0.63705750 0.81535000
0.02672300 0.61387948 0.81535000
0.19605350 0.61387948 0.81535000
0.36538400 0.61387948 0.81535000
0.53471450 0.61387948 0.81535000
0.70404500 0.61387948 0.81535000
0.86670000 0.60720398 0.80867450
1.00000000 0.58987498 0.79134550
1.00000000 0.58987498 0.79134550
0.00000000 0.77719500 0.81535000
0.02672300 0.77223485 0.81535000
0.19605350 0.77223485 0.81535000
0.36538400 0.77223485 0.81535000
0.53471450 0.77223485 0.81535000
0.70404500 0.77223485 0.81535000
0.86670000 0.76555935 0.80867450
1.00000000 0.74823035 0.79134550
1.00000000 0.74823035 0.79134550
0.00000000 0.91733250 0.81535000
0.01346528 0.91733250 0.80209227
0.18279577 0.91733250 0.80209228
0.35212628 0.91733250 0.80209227
0.52145678 0.91733250 0.80209228
0.69078728 0.91733250 0.80209228
0.86011778 0.91733250 0.80209228
1.00000000 0.90658573 0.79134550
1.00000000 0.90658573 0.79134550
0.00000000 1.00000000 0.81535000
0.00271850 1.00000000 0.79134550
0.17204900 1.00000000 0.79134550
0.34137950 1.00000000 0.79134550
0.51071000 1.00000000 0.79134550
0.68004050 1.00000000 0.79134550
0.84937100 1.00000000 0.79134550
1.00000000 1.00000000 0.79134550
1.00000000 1.00000000 0.79134550
0.00000000 0.00000000 0.94300000
0.11745000 0.00000000 0.94300000
0.26730000 0.00000000 0.94300000
0.41715000 0.00000000 0.94300000
0.56700000 0.00000000 0.94300000
0.71685000 0.00000000 0.94300000
0.86670000 0.00000000 0.94300000
1.00000000 0.00000000 0.94300000
1.00000000 0.00000000 0.94300000
0.00000000 0.07650750 0.94300000
0.04455754 0.00000000 0.94300000
0.20763864 0.00000000 0.94300000
0.37071974 0.00000000 0.94300000
0.53380084 0.00000000 0.94300000
0.69688194 0.00000000 0.94300000
0.85996304 0.00000000 0.94300000
1.00000000 0.00000000 0.93827779
1.00000000 0.00000000 0.93827779
0.00000000 0.21664500 0.94300000
0.01012850 0.12221885 0.94300000
0.17945900 0.12221885 0.94300000
0.34878950 0.12221885 0.94300000
0.51812000 0.12221885 0.94300000
0.68745050 0.12221885 0.94300000
0.85678100 0.12221885 0.94300000
1.00000000 0.11480885 0.93559000
1.00000000 0.11480885 0.93559000
0.00000000 0.35678250 0.94300000
0.01012850 0.28057423 0.94300000
0.17945900 0.28057422 0.94300000
0.34878950 0.28057422 0.94300000
0.51812000 0.28057422 0.94300000
0.68745050 0.28057422 0.94300000
0.85678100 0.28057422 0.94300000
1.00000000 0.27316423 0.93559000
1.00000000 0.27316423 0.93559000
0.00000000 0.49692000 0.94300000
0.01012850 0.43892960 0.94300000
0.17945900 0.43892960 0.94300000
0.34878950 0.43892960 0.94300000
0.51812000 0.43892960 0.94300000
0.68745050 0.43892960 0.94300000
0.85678100 0.43892960 0.94300000
1.00000000 0.43151960 0.93559000
1.00000000 0.43151960 0.93559000
0.00000000 0.63705750 0.94300000
0.01012850 0.59728497 0.94300000
0.17945900 0.59728498 0.94300000
0.34878950 0.59728497 0.94300000
0.51812000 0.59728498 0.94300000
0.68745050 0.59728498 0.94300000
0.85678100 0.59728498 0.94300000
1.00000000 0.58987498 0.93559000
1.00000000 0.58987498 0.93559000
0.00000000 0.77719500 0.94300000
0.01012850 0.75564035 0.94300000
0.17945900 0.75564035 0.94300000
0.34878950 0.75564035 0.94300000
0.51812000 0.75564035 0.94300000
0.68745050 0.75564035 0.94300000
0.85678100 0.75564035 0.94300000
1.00000000 0.74823035 0.93559000
1.00000000 0.74823035 0.93559000
0.00000000 0.91733250 0.94300000
0.01012850 0.91399573 0.94300000
0.17945900 0.91399573 0.94300000
0.34878950 0.91399573 0.94300000
0.51812000 0.91399572 0.94300000
0.68745050 0.91399573 0.94300000
0.85678100 0.91399573 0.94300000
1.00000000 0.90658573 0.93559000
1.00000000 0.90658573 0.93559000
0.00000000 1.00000000 0.94300000
0.00271850 1.00000000 0.93559000
0.17204900 1.00000000 0.93559000
0.34137950 1.00000000 0.93559000
0.51071000 1.00000000 0.93559000
0.68004050 1.00000000 0.93559000
0.84937100 1.00000000 0.93559000
1.00000000 1.00000000 0.93559000
1.00000000 1.00000000 0.93559000
