recipes/color/cinematic_strong_v1/cinematic_strong_v1.cube
# cinematic teal-orange MOODY (gojo-ref v2)
TITLE "cinematic_strong"
LUT_3D_SIZE 5
0.000000 0.009743 0.093818
0.022650 0.008271 0.089762
0.366942 0.000000 0.065122
0.750548 0.000000 0.037669
0.887400 0.000000 0.022505
0.000000 0.099387 0.068593
0.015348 0.097539 0.064167
0.359640 0.081091 0.039527
0.743246 0.062765 0.012074
0.887400 0.052644 0.000000
0.000000 0.389704 0.000000
0.000000 0.386640 0.000000
0.335991 0.370193 0.000000
0.719597 0.351867 0.000000
0.887400 0.341745 0.000000
0.000000 0.714999 0.000000
0.000000 0.711012 0.000000
0.327568 0.696691 0.000000
0.716186 0.681514 0.000000
0.887400 0.673558 0.000000
0.000000 0.870000 0.000000
0.000000 0.870000 0.000000
0.318653 0.870000 0.000000
0.702988 0.866710 0.000000
0.887400 0.859042 0.000000
0.000000 0.008056 0.196030
0.021913 0.006546 0.191937
0.366205 0.000000 0.167297
0.749810 0.000000 0.139843
0.887400 0.000000 0.124679
0.000000 0.097700 0.170805
0.014611 0.095815 0.166342
0.358903 0.079367 0.141702
0.742508 0.061041 0.114248
0.887400 0.050919 0.099084
0.000000 0.388017 0.089111
0.000000 0.384916 0.083451
0.335254 0.368468 0.058811
0.718860 0.350142 0.031357
0.887400 0.340161 0.015605
0.000000 0.713599 0.000000
0.000000 0.709530 0.000000
0.327986 0.695398 0.000000
0.715956 0.680588 0.000000
0.887400 0.672715 0.000000
0.000000 0.870000 0.000000
0.000000 0.870000 0.000000
0.318554 0.870000 0.000000
0.703043 0.866064 0.000000
0.887400 0.858523 0.000000
0.000000 0.002593 0.527049
0.019526 0.000961 0.522835
0.363817 0.000000 0.498195
0.747423 0.000000 0.470741
0.887400 0.000000 0.455578
0.000000 0.092237 0.501824
0.012223 0.090229 0.497240
0.356515 0.073781 0.472600
0.740121 0.055455 0.445146
0.887400 0.045333 0.429983
0.000000 0.382554 0.420130
0.000000 0.379330 0.414349
0.332867 0.362882 0.389709
0.716473 0.344556 0.362255
0.887400 0.335362 0.343229
0.000000 0.709068 0.318870
0.000000 0.704731 0.308310
0.328714 0.690599 0.274029
0.713838 0.676244 0.245965
0.887400 0.668371 0.230873
0.000000 0.870000 0.254616
0.000000 0.870000 0.247043
0.316436 0.870000 0.222519
0.700924 0.861719 0.195194
0.887400 0.854323 0.180572
0.000000 0.000000 0.856950
0.016866 0.000000 0.856950
0.361157 0.000000 0.856950
0.744763 0.000000 0.839424
0.887400 0.000000 0.824261
0.000000 0.086150 0.856950
0.009564 0.084005 0.856950
0.353855 0.067557 0.841283
0.737461 0.049231 0.813829
0.887400 0.039109 0.798666
0.000000 0.376467 0.788948
0.000000 0.373106 0.783032
0.330207 0.356658 0.758392
0.715314 0.338711 0.729361
0.887400 0.330015 0.708264
0.000000 0.703747 0.683930
0.000000 0.699384 0.673345
0.326989 0.685657 0.642017
0.711477 0.671403 0.614692
0.887400 0.663530 0.599600
0.000000 0.870000 0.623343
0.000000 0.870000 0.615770
0.314076 0.870000 0.591246
0.698564 0.856878 0.563921
0.887400 0.849644 0.549458
0.000000 0.000000 0.856950
0.015939 0.000000 0.856950
0.360081 0.000000 0.856950
0.743519 0.000000 0.856950
0.887400 0.000000 0.856950
0.000000 0.083213 0.856950
0.008481 0.080947 0.856950
0.352623 0.064352 0.856950
0.736061 0.045862 0.856950
0.887400 0.035672 0.856950
0.000000 0.373105 0.856950
0.000000 0.369669 0.856950
0.328738 0.353221 0.856950
0.715762 0.335758 0.856950
0.887400 0.327062 0.856950
0.000000 0.700794 0.856950
0.000000 0.696430 0.856950
0.325686 0.682984 0.845673
0.710174 0.668729 0.818348
0.887400 0.660856 0.803256
0.000000 0.870000 0.826999
0.000000 0.870000 0.819427
0.312772 0.868459 0.794902
0.697261 0.854205 0.767577
0.887400 0.847060 0.753202
