recipes/color/cinematic_strong_v1/cinematic_strong_v1.cube
# cinematic teal-orange MOODY (gojo-ref v2)
TITLE "cinematic_strong"
LUT_3D_SIZE 9
0.000000 0.009743 0.093818
0.000000 0.009702 0.093423
0.022650 0.008271 0.089762
0.167423 0.001355 0.079401
0.366942 0.000000 0.065122
0.578021 0.000000 0.050016
0.750548 0.000000 0.037669
0.879605 0.000000 0.028432
0.887400 0.000000 0.022505
0.000000 0.021953 0.090382
0.000000 0.021912 0.089987
0.021655 0.020430 0.086276
0.166429 0.013514 0.075915
0.365947 0.003982 0.061636
0.577026 0.000000 0.046530
0.749553 0.000000 0.034182
0.878610 0.000000 0.024946
0.887400 0.000000 0.019019
0.000000 0.099387 0.068593
0.000000 0.099346 0.068198
0.015348 0.097539 0.064167
0.160121 0.090623 0.053806
0.359640 0.081091 0.039527
0.570719 0.071008 0.024421
0.743246 0.062765 0.012074
0.872303 0.056600 0.002837
0.887400 0.052644 0.000000
0.000000 0.221464 0.034241
0.000000 0.221423 0.033846
0.005404 0.219105 0.029312
0.150177 0.212189 0.018951
0.349696 0.202657 0.004672
0.560775 0.192573 0.000000
0.733302 0.184331 0.000000
0.862359 0.178166 0.000000
0.887400 0.174209 0.000000
0.000000 0.389704 0.000000
0.000000 0.389663 0.000000
0.000000 0.386640 0.000000
0.136473 0.379724 0.000000
0.335991 0.370193 0.000000
0.547071 0.360109 0.000000
0.719597 0.351867 0.000000
0.848654 0.345701 0.000000
0.887400 0.341745 0.000000
0.000000 0.567692 0.000000
0.000000 0.567651 0.000000
0.000000 0.563883 0.000000
0.121975 0.556967 0.000000
0.324145 0.548105 0.000000
0.540849 0.539441 0.000000
0.717944 0.532332 0.000000
0.850333 0.526929 0.000000
0.887400 0.523462 0.000000
0.000000 0.714999 0.000000
0.000000 0.714781 0.000000
0.000000 0.711012 0.000000
0.122899 0.705043 0.000000
0.327568 0.696691 0.000000
0.543331 0.687992 0.000000
0.716186 0.681514 0.000000
0.845488 0.676668 0.000000
0.887400 0.673558 0.000000
0.000000 0.826489 0.000000
0.000000 0.825883 0.000000
0.000000 0.822039 0.000000
0.123914 0.816218 0.000000
0.323811 0.808726 0.000000
0.535292 0.800800 0.000000
0.708147 0.794321 0.000000
0.837449 0.789475 0.000000
0.887400 0.786365 0.000000
0.000000 0.870000 0.000000
0.000000 0.870000 0.000000
0.000000 0.870000 0.000000
0.118755 0.870000 0.000000
0.318653 0.870000 0.000000
0.530133 0.870000 0.000000
0.702988 0.866710 0.000000
0.832290 0.861864 0.000000
0.887400 0.859042 0.000000
0.000000 0.009513 0.107740
0.000000 0.009472 0.107345
0.022550 0.008036 0.103679
0.167323 0.001120 0.093318
0.366841 0.000000 0.079039
0.577921 0.000000 0.063933
0.750447 0.000000 0.051585
0.879504 0.000000 0.042349
0.887400 0.000000 0.036422
0.000000 0.021724 0.104304
0.000000 0.021683 0.103909
0.021555 0.020195 0.100193
0.166328 0.013279 0.089832
0.365847 0.003747 0.075553
0.576926 0.000000 0.060447
0.749453 0.000000 0.048099
0.878510 0.000000 0.038863
0.887400 0.000000 0.032936
0.000000 0.099157 0.082515
0.000000 0.099116 0.082120
0.015248 0.097304 0.078084
0.160021 0.090388 0.067723
0.359539 0.080857 0.053444
0.570618 0.070773 0.038338
0.743145 0.062531 0.025991
0.872202 0.056365 0.016754
0.887400 0.052409 0.010827
0.000000 0.221234 0.048163
0.000000 0.221193 0.047768
0.005304 0.218870 0.043229
0.150077 0.211954 0.032868
0.349595 0.202422 0.018589
0.560674 0.192338 0.003483
0.733201 0.184096 0.000000
0.862258 0.177931 0.000000
0.887400 0.173974 0.000000
0.000000 0.389474 0.000821
0.000000 0.389433 0.000426
0.000000 0.386405 0.000000
0.136372 0.379489 0.000000
0.335891 0.369958 0.000000
0.546970 0.359874 0.000000
0.719497 0.351632 0.000000
0.848554 0.345466 0.000000
0.887400 0.341510 0.000000
0.000000 0.567462 0.000000
0.000000 0.567421 0.000000
0.000000 0.563648 0.000000
0.121874 0.556732 0.000000
0.324176 0.547903 0.000000
0.540880 0.539239 0.000000
0.718004 0.532158 0.000000
0.850500 0.526861 0.000000
0.887400 0.523462 0.000000
0.000000 0.714808 0.000000
0.000000 0.714579 0.000000
0.000000 0.710810 0.000000
0.122956 0.704868 0.000000
0.327792 0.696679 0.000000
0.543460 0.688023 0.000000
0.716315 0.681545 0.000000
0.845617 0.676699 0.000000
0.887400 0.673589 0.000000
0.000000 0.826464 0.000000
0.000000 0.825869 0.000000
0.000000 0.822049 0.000000
0.124043 0.816249 0.000000
0.323940 0.808757 0.000000
0.535421 0.800831 0.000000
0.708276 0.794352 0.000000
0.837578 0.789506 0.000000
0.887400 0.786396 0.000000
0.000000 0.870000 0.000000
0.000000 0.870000 0.000000
0.000000 0.870000 0.000000
0.118884 0.870000 0.000000
0.318782 0.870000 0.000000
0.530262 0.870000 0.000000
0.703117 0.866742 0.000000
0.832419 0.861895 0.000000
0.887400 0.859079 0.000000
0.000000 0.008056 0.196030
0.000000 0.008015 0.195634
0.021913 0.006546 0.191937
0.166686 0.000000 0.181576
0.366205 0.000000 0.167297
0.577284 0.000000 0.152190
0.749810 0.000000 0.139843
0.878868 0.000000 0.130606
0.887400 0.000000 0.124679
0.000000 0.020267 0.192594
0.000000 0.020225 0.192198
0.020918 0.018705 0.188450
0.165692 0.011789 0.178089
0.365210 0.002258 0.163810
0.576289 0.000000 0.148704
0.748816 0.000000 0.136357
0.877873 0.000000 0.127120
0.887400 0.000000 0.121193
0.000000 0.097700 0.170805
0.000000 0.097659 0.170409
0.014611 0.095815 0.166342
0.159384 0.088898 0.155981
0.358903 0.079367 0.141702
0.569982 0.069283 0.126595
0.742508 0.061041 0.114248
0.871566 0.054875 0.105012
0.887400 0.050919 0.099084
0.000000 0.219777 0.136453
0.000000 0.219736 0.136057
0.004667 0.217380 0.131486
0.149440 0.210464 0.121125
0.348959 0.200932 0.106846
0.560038 0.190849 0.091740
0.732564 0.182606 0.079393
0.861622 0.176441 0.070156
0.887400 0.172485 0.064229
0.000000 0.388017 0.089111
0.000000 0.387976 0.088716
0.000000 0.384916 0.083451
0.135736 0.377999 0.073090
0.335254 0.368468 0.058811
0.546333 0.358384 0.043704
0.718860 0.350142 0.031357
0.847917 0.343976 0.022121
0.887400 0.340161 0.015605
0.000000 0.566005 0.039026
0.000000 0.565964 0.038631
0.000000 0.562158 0.032632
0.121237 0.555242 0.022271
0.324370 0.546623 0.004194
0.541074 0.537959 0.000000
0.718198 0.530878 0.000000
0.850694 0.525581 0.000000
0.887400 0.522182 0.000000
0.000000 0.713599 0.000000
0.000000 0.713299 0.000000
0.000000 0.709530 0.000000
0.123151 0.703588 0.000000
0.327986 0.695398 0.000000
0.543032 0.686999 0.000000
0.715956 0.680588 0.000000
0.845310 0.675793 0.000000
0.887400 0.672715 0.000000
0.000000 0.825184 0.000000
0.000000 0.824589 0.000000
0.000000 0.820820 0.000000
0.123624 0.815234 0.000000
0.323602 0.807820 0.000000
0.535167 0.799977 0.000000
0.708090 0.793566 0.000000
0.837444 0.788770 0.000000
0.887400 0.785693 0.000000
0.000000 0.870000 0.000000
0.000000 0.870000 0.000000
0.000000 0.870000 0.000000
0.118577 0.870000 0.000000
0.318554 0.870000 0.000000
0.530119 0.870000 0.000000
0.703043 0.866064 0.000000
0.832397 0.861268 0.000000
0.887400 0.858523 0.000000
0.000000 0.005759 0.335222
0.000000 0.005718 0.334827
0.020909 0.004198 0.331078
0.165682 0.000000 0.320717
0.365201 0.000000 0.306438
0.576280 0.000000 0.291331
0.748807 0.000000 0.278984
0.877864 0.000000 0.269748
0.887400 0.000000 0.263821
0.000000 0.017969 0.331786
0.000000 0.017928 0.331391
0.019914 0.016357 0.327592
0.164688 0.009440 0.317231
0.364206 0.000000 0.302952
0.575285 0.000000 0.287845
0.747812 0.000000 0.275498
0.876869 0.000000 0.266262
0.887400 0.000000 0.260335
0.000000 0.095403 0.309997
0.000000 0.095362 0.309601
0.013607 0.093466 0.305483
0.158380 0.086550 0.295122
0.357899 0.077018 0.280843
0.568978 0.066934 0.265737
0.741505 0.058692 0.253389
0.870562 0.052526 0.244153
0.887400 0.048570 0.238226
0.000000 0.217480 0.275645
0.000000 0.217439 0.275250
0.003663 0.215032 0.270628
0.148436 0.208115 0.260267
0.347955 0.198584 0.245988
0.559034 0.188500 0.230881
0.731561 0.180258 0.218534
0.860618 0.174092 0.209298
0.887400 0.170136 0.203371
0.000000 0.385720 0.228303
0.000000 0.385678 0.227908
0.000000 0.382567 0.222592
0.134732 0.375651 0.212231
0.334250 0.366119 0.197952
0.545330 0.356035 0.182845
0.717856 0.347793 0.170498
0.846913 0.341627 0.161262
0.887400 0.338143 0.153370
0.000000 0.563708 0.178218
0.000000 0.563667 0.177823
0.000000 0.559810 0.171773
0.120234 0.552893 0.161412
0.324676 0.544605 0.141959
0.541380 0.535941 0.120942
0.718504 0.528860 0.103763
0.851001 0.523563 0.090913
0.887400 0.520164 0.082667
0.000000 0.711694 0.128857
0.000000 0.711281 0.127594
0.000000 0.707512 0.118450
0.123457 0.701570 0.104035
0.328292 0.693381 0.084169
0.542142 0.685172 0.066475
0.715065 0.678761 0.054185
0.844419 0.673966 0.044992
0.887400 0.670888 0.039093
0.000000 0.823166 0.085807
0.000000 0.822571 0.084365
0.000000 0.818802 0.075221
0.122734 0.813407 0.064797
0.322711 0.805993 0.050585
0.534276 0.798150 0.035549
0.707200 0.791739 0.023260
0.836554 0.786943 0.014067
0.887400 0.783913 0.008214
0.000000 0.870000 0.062836
0.000000 0.870000 0.061805
0.000000 0.870000 0.055264
0.117686 0.870000 0.044951
0.317664 0.870000 0.030739
0.529228 0.870000 0.015704
0.702152 0.864237 0.003414
0.831506 0.859441 0.000000
0.887400 0.856757 0.000000
0.000000 0.002593 0.527049
0.000000 0.002552 0.526654
0.019526 0.000961 0.522835
0.164299 0.000000 0.512474
0.363817 0.000000 0.498195
0.574896 0.000000 0.483088
0.747423 0.000000 0.470741
0.876480 0.000000 0.461505
0.887400 0.000000 0.455578
0.000000 0.014803 0.523613
0.000000 0.014762 0.523218
0.018531 0.013120 0.519349
0.163304 0.006203 0.508988
0.362823 0.000000 0.494709
0.573902 0.000000 0.479602
0.746429 0.000000 0.467255
0.875486 0.000000 0.458019
0.887400 0.000000 0.452092
0.000000 0.092237 0.501824
0.000000 0.092196 0.501428
0.012223 0.090229 0.497240
0.156997 0.083313 0.486879
0.356515 0.073781 0.472600
0.567594 0.063697 0.457494
0.740121 0.055455 0.445146
0.869178 0.049289 0.435910
0.887400 0.045333 0.429983
0.000000 0.214314 0.467472
0.000000 0.214273 0.467077
0.002280 0.211795 0.462385
0.147053 0.204878 0.452024
0.346571 0.195347 0.437745
0.557650 0.185263 0.422638
0.730177 0.177021 0.410291
0.859234 0.170855 0.401055
0.887400 0.166899 0.395128
0.000000 0.382554 0.420130
0.000000 0.382513 0.419735
0.000000 0.379330 0.414349
0.133348 0.372414 0.403988
0.332867 0.362882 0.389709
0.543946 0.352798 0.374603
0.716473 0.344556 0.362255
0.846999 0.338761 0.351475
0.887400 0.335362 0.343229
0.000000 0.560542 0.370045
0.000000 0.560501 0.369650
0.000000 0.556573 0.363530
0.120263 0.550013 0.351684
0.325098 0.541824 0.331818
0.541802 0.533160 0.310801
0.718927 0.526079 0.293623
0.851423 0.520782 0.280773
0.887400 0.517383 0.272527
0.000000 0.709068 0.318870
0.000000 0.708500 0.317453
0.000000 0.704731 0.308310
0.123879 0.698789 0.293895
0.328714 0.690599 0.274029
0.540914 0.682655 0.258254
0.713838 0.676244 0.245965
0.843192 0.671448 0.236772
0.887400 0.668371 0.230873
0.000000 0.820384 0.275666
0.000000 0.819790 0.274225
0.000000 0.816269 0.266889
0.121506 0.810889 0.256576
0.321484 0.803475 0.242364
0.533048 0.795632 0.227329
0.705972 0.789221 0.215039
0.835326 0.784425 0.205846
0.887400 0.781479 0.200077
0.000000 0.870000 0.254616
0.000000 0.870000 0.253585
0.000000 0.870000 0.247043
0.116459 0.870000 0.236731
0.316436 0.870000 0.222519
0.528001 0.868130 0.207484
0.700924 0.861719 0.195194
0.830278 0.856924 0.186001
0.887400 0.854323 0.180572
0.000000 0.000000 0.729991
0.000000 0.000000 0.729596
0.018062 0.000000 0.725703
0.162835 0.000000 0.715342
0.362354 0.000000 0.701063
0.573433 0.000000 0.685956
0.745960 0.000000 0.673609
0.875017 0.000000 0.664373
0.887400 0.000000 0.658446
0.000000 0.011454 0.726555
0.000000 0.011413 0.726160
0.017067 0.009695 0.722217
0.161841 0.002779 0.711856
0.361359 0.000000 0.697577
0.572438 0.000000 0.682470
0.744965 0.000000 0.670123
0.874022 0.000000 0.660887
0.887400 0.000000 0.654959
0.000000 0.088888 0.704766
0.000000 0.088846 0.704370
0.010760 0.086804 0.700108
0.155533 0.079888 0.689747
0.355052 0.070356 0.675468
0.566131 0.060272 0.660361
0.738657 0.052030 0.648014
0.867715 0.045865 0.638778
0.887400 0.041908 0.632851
0.000000 0.210965 0.670414
0.000000 0.210923 0.670019
0.000816 0.208370 0.665253
0.145589 0.201454 0.654892
0.345108 0.191922 0.640613
0.556187 0.181838 0.625506
0.728713 0.173596 0.613159
0.857771 0.167431 0.603922
0.887400 0.163474 0.597995
0.000000 0.379204 0.623072
0.000000 0.379163 0.622677
0.000000 0.375905 0.617217
0.131885 0.368989 0.606856
0.331403 0.359457 0.592577
0.542483 0.349374 0.577470
0.715009 0.341131 0.565123
0.847445 0.335819 0.552336
0.887400 0.332420 0.544090
0.000000 0.557192 0.572987
0.000000 0.557151 0.572592
0.000000 0.553148 0.566398
0.120710 0.547071 0.552545
0.325545 0.538882 0.532679
0.542249 0.530218 0.511662
0.719373 0.523137 0.494483
0.851870 0.517840 0.481633
0.887400 0.514676 0.475107
0.000000 0.706152 0.519756
0.000000 0.705558 0.518314
0.000000 0.701789 0.509171
0.124326 0.695846 0.494756
0.328051 0.687834 0.476182
0.539615 0.679991 0.461146
0.712539 0.673580 0.448857
0.841893 0.668784 0.439664
0.887400 0.665707 0.433765
0.000000 0.817556 0.477353
0.000000 0.817018 0.476322
0.000000 0.813605 0.469781
0.120207 0.808226 0.459468
0.320185 0.800812 0.445256
0.531750 0.792968 0.430221
0.704673 0.786557 0.417931
0.834027 0.781761 0.408738
0.887400 0.778905 0.403056
0.000000 0.870000 0.457508
0.000000 0.870000 0.456477
0.000000 0.870000 0.449935
0.115160 0.870000 0.439623
0.315137 0.870000 0.425411
0.526702 0.865466 0.410375
0.699626 0.859056 0.398086
0.828980 0.854260 0.388893
0.887400 0.851749 0.383552
0.000000 0.000000 0.856950
0.000000 0.000000 0.856950
0.016866 0.000000 0.856950
0.161639 0.000000 0.856950
0.361157 0.000000 0.856950
0.572237 0.000000 0.851772
0.744763 0.000000 0.839424
0.873820 0.000000 0.830188
0.887400 0.000000 0.824261
0.000000 0.008717 0.856950
0.000000 0.008676 0.856950
0.015871 0.006896 0.856950
0.160644 0.000000 0.856950
0.360163 0.000000 0.856950
0.571242 0.000000 0.848285
0.743769 0.000000 0.835938
0.872826 0.000000 0.826702
0.887400 0.000000 0.820775
0.000000 0.086150 0.856950
0.000000 0.086109 0.856950
0.009564 0.084005 0.856950
0.154337 0.077089 0.855562
0.353855 0.067557 0.841283
0.564934 0.057473 0.826177
0.737461 0.049231 0.813829
0.866518 0.043066 0.804593
0.887400 0.039109 0.798666
0.000000 0.208227 0.836290
0.000000 0.208186 0.835894
0.000000 0.205571 0.831068
0.144393 0.198655 0.820707
0.343911 0.189123 0.806428
0.554990 0.179039 0.791321
0.727517 0.170797 0.778974
0.856574 0.164632 0.769738
0.887400 0.160675 0.763811
0.000000 0.376467 0.788948
0.000000 0.376426 0.788553
0.000000 0.373106 0.783032
0.130689 0.366190 0.772671
0.330207 0.356658 0.758392
0.541286 0.346574 0.743286
0.715314 0.338711 0.729361
0.847810 0.333414 0.716511
0.887400 0.330015 0.708264
0.000000 0.554455 0.738863
0.000000 0.554414 0.738468
0.000000 0.550608 0.731134
0.121075 0.544666 0.716719
0.325910 0.536477 0.696853
0.542614 0.527813 0.675836
0.719738 0.520732 0.658658
0.851347 0.515577 0.646841
0.887400 0.512499 0.640942
0.000000 0.703747 0.683930
0.000000 0.703153 0.682489
0.000000 0.699384 0.673345
0.124691 0.693442 0.658930
0.326989 0.685657 0.642017
0.538554 0.677814 0.626981
0.711477 0.671403 0.614692
0.840832 0.666607 0.605499
0.887400 0.663530 0.599600
0.000000 0.815378 0.643188
0.000000 0.814840 0.642157
0.000000 0.811428 0.635616
0.119146 0.806048 0.625303
0.319123 0.798634 0.611091
0.530688 0.790791 0.596056
0.703612 0.784380 0.583766
0.832966 0.779584 0.574573
0.887400 0.776800 0.568963
0.000000 0.870000 0.623343
0.000000 0.870000 0.622311
0.000000 0.870000 0.615770
0.114098 0.870000 0.605458
0.314076 0.870000 0.591246
0.525641 0.863289 0.576210
0.698564 0.856878 0.563921
0.827918 0.852083 0.554728
0.887400 0.849644 0.549458
0.000000 0.000000 0.856950
0.000000 0.000000 0.856950
0.015971 0.000000 0.856950
0.160744 0.000000 0.856950
0.360263 0.000000 0.856950
0.571342 0.000000 0.856950
0.743868 0.000000 0.856950
0.872926 0.000000 0.856950
0.887400 0.000000 0.856950
0.000000 0.006669 0.856950
0.000000 0.006628 0.856950
0.014976 0.004802 0.856950
0.159749 0.000000 0.856950
0.359268 0.000000 0.856950
0.570347 0.000000 0.856950
0.742874 0.000000 0.856950
0.871931 0.000000 0.856950
0.887400 0.000000 0.856950
0.000000 0.084102 0.856950
0.000000 0.084061 0.856950
0.008669 0.081911 0.856950
0.153442 0.074995 0.856950
0.352960 0.065464 0.856950
0.564040 0.055380 0.856950
0.736566 0.047137 0.856950
0.865623 0.040972 0.856950
0.887400 0.037016 0.856950
0.000000 0.206179 0.856950
0.000000 0.206138 0.856950
0.000000 0.203477 0.856950
0.143498 0.196561 0.856950
0.343016 0.187029 0.856950
0.554096 0.176945 0.856950
0.726622 0.168703 0.856950
0.855679 0.162538 0.856950
0.887400 0.158581 0.856950
0.000000 0.374419 0.856950
0.000000 0.374378 0.856950
0.000000 0.371012 0.856950
0.129794 0.364096 0.856950
0.329312 0.354565 0.856950
0.540391 0.344481 0.856950
0.715587 0.336912 0.852170
0.848084 0.331615 0.839320
0.887400 0.328216 0.831074
0.000000 0.552407 0.856950
0.000000 0.552366 0.856950
0.000000 0.548809 0.853944
0.121348 0.542867 0.839529
0.326183 0.534678 0.819663
0.542887 0.526014 0.798646
0.720011 0.518933 0.781467
0.850553 0.513948 0.770893
0.887400 0.510871 0.764993
0.000000 0.701948 0.806740
0.000000 0.701354 0.805298
0.000000 0.697585 0.796155
0.124964 0.691643 0.781740
0.326195 0.684029 0.766068
0.537760 0.676185 0.751033
0.710683 0.669774 0.738743
0.840038 0.664978 0.729550
0.887400 0.661901 0.723651
0.000000 0.813750 0.767240
0.000000 0.813212 0.766208
0.000000 0.809799 0.759667
0.118352 0.804420 0.749355
0.318329 0.797006 0.735143
0.529894 0.789162 0.720107
0.702818 0.782751 0.707818
0.832172 0.777956 0.698625
0.887400 0.775226 0.693068
0.000000 0.870000 0.747394
0.000000 0.870000 0.746363
0.000000 0.870000 0.739822
0.113304 0.870000 0.729509
0.313282 0.869504 0.715297
0.524847 0.861661 0.700262
0.697770 0.855250 0.687972
0.827124 0.850454 0.678779
0.887400 0.848070 0.673563
0.000000 0.000000 0.856950
0.000000 0.000000 0.856950
0.015939 0.000000 0.856950
0.160649 0.000000 0.856950
0.360081 0.000000 0.856950
0.571068 0.000000 0.856950
0.743519 0.000000 0.856950
0.872520 0.000000 0.856950
0.887400 0.000000 0.856950
0.000000 0.005911 0.856950
0.000000 0.005864 0.856950
0.014923 0.003970 0.856950
0.159633 0.000000 0.856950
0.359065 0.000000 0.856950
0.570052 0.000000 0.856950
0.742503 0.000000 0.856950
0.871504 0.000000 0.856950
0.887400 0.000000 0.856950
0.000000 0.083213 0.856950
0.000000 0.083165 0.856950
0.008481 0.080947 0.856950
0.153191 0.073969 0.856950
0.352623 0.064352 0.856950
0.563610 0.054178 0.856950
0.736061 0.045862 0.856950
0.865062 0.039641 0.856950
0.887400 0.035672 0.856950
0.000000 0.205081 0.856950
0.000000 0.205034 0.856950
0.000000 0.202304 0.856950
0.143035 0.195326 0.856950
0.342466 0.185709 0.856950
0.553521 0.175602 0.856950
0.726048 0.167360 0.856950
0.855105 0.161194 0.856950
0.887400 0.157238 0.856950
0.000000 0.373105 0.856950
0.000000 0.373064 0.856950
0.000000 0.369669 0.856950
0.129219 0.362753 0.856950
0.328738 0.353221 0.856950
0.539817 0.343137 0.856950
0.715762 0.335758 0.856950
0.848259 0.330461 0.856950
0.887400 0.327062 0.856950
0.000000 0.551126 0.856950
0.000000 0.551200 0.856950
0.000000 0.547655 0.856950
0.121523 0.541713 0.856950
0.326358 0.533524 0.856950
0.543062 0.524860 0.856950
0.720187 0.517779 0.856950
0.850043 0.512903 0.850497
0.887400 0.509825 0.844598
0.000000 0.700794 0.856950
0.000000 0.700199 0.856950
0.000000 0.696430 0.856950
0.125139 0.690488 0.856950
0.325686 0.682984 0.845673
0.537250 0.675140 0.830638
0.710174 0.668729 0.818348
0.839528 0.663933 0.809155
0.887400 0.660856 0.803256
0.000000 0.812705 0.846845
0.000000 0.812167 0.845813
0.000000 0.808754 0.839272
0.117842 0.803375 0.828959
0.317820 0.795961 0.814747
0.529385 0.788117 0.799712
0.702308 0.781706 0.787423
0.831662 0.776911 0.778230
0.887400 0.774216 0.772707
0.000000 0.870000 0.826999
0.000000 0.870000 0.825968
0.000000 0.870000 0.819427
0.112795 0.870000 0.809114
0.312772 0.868459 0.794902
0.524337 0.860616 0.779867
0.697261 0.854205 0.767577
0.826615 0.849409 0.758384
0.887400 0.847060 0.753202
