recipes/color/cinematic_strong_v1/cinematic_strong_v1.cube
# cinematic teal-orange MOODY (gojo-ref v2)
TITLE "cinematic_strong"
LUT_3D_SIZE 33
0.000000 0.009743 0.093818
0.000000 0.009743 0.093818
0.000000 0.009743 0.093818
0.000000 0.009741 0.093796
0.000000 0.009702 0.093423
0.000000 0.009651 0.092934
0.000000 0.009591 0.092351
0.000000 0.009521 0.091678
0.022650 0.008271 0.089762
0.053850 0.006781 0.087530
0.088355 0.005132 0.085060
0.126200 0.003324 0.082352
0.167423 0.001355 0.079401
0.212067 0.000000 0.076206
0.260174 0.000000 0.072763
0.311785 0.000000 0.069070
0.366942 0.000000 0.065122
0.422923 0.000000 0.061116
0.476861 0.000000 0.057256
0.528602 0.000000 0.053553
0.578021 0.000000 0.050016
0.625010 0.000000 0.046653
0.669478 0.000000 0.043470
0.711346 0.000000 0.040474
0.750548 0.000000 0.037669
0.787022 0.000000 0.035058
0.820719 0.000000 0.032647
0.851593 0.000000 0.030437
0.879605 0.000000 0.028432
0.887400 0.000000 0.026635
0.887400 0.000000 0.025047
0.887400 0.000000 0.023670
0.887400 0.000000 0.022505
0.000000 0.009743 0.093818
0.000000 0.009743 0.093818
0.000000 0.009743 0.093818
0.000000 0.009741 0.093796
0.000000 0.009702 0.093423
0.000000 0.009651 0.092934
0.000000 0.009591 0.092351
0.000000 0.009521 0.091678
0.022650 0.008271 0.089762
0.053850 0.006781 0.087530
0.088355 0.005132 0.085060
0.126200 0.003324 0.082352
0.167423 0.001355 0.079401
0.212067 0.000000 0.076206
0.260174 0.000000 0.072763
0.311785 0.000000 0.069070
0.366942 0.000000 0.065122
0.422923 0.000000 0.061116
0.476861 0.000000 0.057256
0.528602 0.000000 0.053553
0.578021 0.000000 0.050016
0.625010 0.000000 0.046653
0.669478 0.000000 0.043470
0.711346 0.000000 0.040474
0.750548 0.000000 0.037669
0.787022 0.000000 0.035058
0.820719 0.000000 0.032647
0.851593 0.000000 0.030437
0.879605 0.000000 0.028432
0.887400 0.000000 0.026635
0.887400 0.000000 0.025047
0.887400 0.000000 0.023670
0.887400 0.000000 0.022505
0.000000 0.009743 0.093818
0.000000 0.009743 0.093818
0.000000 0.009743 0.093818
0.000000 0.009741 0.093796
0.000000 0.009702 0.093423
0.000000 0.009651 0.092934
0.000000 0.009591 0.092351
0.000000 0.009521 0.091678
0.022650 0.008271 0.089762
0.053850 0.006781 0.087530
0.088355 0.005132 0.085060
0.126200 0.003324 0.082352
0.167423 0.001355 0.079401
0.212067 0.000000 0.076206
0.260174 0.000000 0.072763
0.311785 0.000000 0.069070
0.366942 0.000000 0.065122
0.422923 0.000000 0.061116
0.476861 0.000000 0.057256
0.528602 0.000000 0.053553
0.578021 0.000000 0.050016
0.625010 0.000000 0.046653
0.669478 0.000000 0.043470
0.711346 0.000000 0.040474
0.750548 0.000000 0.037669
0.787022 0.000000 0.035058
0.820719 0.000000 0.032647
0.851593 0.000000 0.030437
0.879605 0.000000 0.028432
0.887400 0.000000 0.026635
0.887400 0.000000 0.025047
0.887400 0.000000 0.023670
0.887400 0.000000 0.022505
0.000000 0.010426 0.093626
0.000000 0.010426 0.093626
0.000000 0.010426 0.093626
0.000000 0.010424 0.093604
0.000000 0.010385 0.093231
0.000000 0.010334 0.092742
0.000000 0.010274 0.092159
0.000000 0.010204 0.091486
0.022594 0.008951 0.089567
0.053794 0.007461 0.087334
0.088299 0.005812 0.084865
0.126144 0.004005 0.082157
0.167368 0.002035 0.079206
0.212012 0.000000 0.076011
0.260118 0.000000 0.072568
0.311729 0.000000 0.068875
0.366886 0.000000 0.064927
0.422867 0.000000 0.060921
0.476805 0.000000 0.057061
0.528547 0.000000 0.053358
0.577965 0.000000 0.049821
0.624954 0.000000 0.046458
0.669422 0.000000 0.043275
0.711291 0.000000 0.040279
0.750492 0.000000 0.037474
0.786967 0.000000 0.034863
0.820663 0.000000 0.032452
0.851537 0.000000 0.030242
0.879549 0.000000 0.028237
0.887400 0.000000 0.026440
0.887400 0.000000 0.024852
0.887400 0.000000 0.023475
0.887400 0.000000 0.022310
0.000000 0.021953 0.090382
0.000000 0.021953 0.090382
0.000000 0.021953 0.090382
0.000000 0.021951 0.090360
0.000000 0.021912 0.089987
0.000000 0.021862 0.089498
0.000000 0.021801 0.088915
0.000000 0.021731 0.088242
0.021655 0.020430 0.086276
0.052855 0.018940 0.084043
0.087360 0.017291 0.081574
0.125205 0.015483 0.078865
0.166429 0.013514 0.075915
0.211073 0.011381 0.072720
0.259179 0.009083 0.069277
0.310790 0.006617 0.065584
0.365947 0.003982 0.061636
0.421929 0.001308 0.057630
0.475866 0.000000 0.053769
0.527608 0.000000 0.050066
0.577026 0.000000 0.046530
0.624015 0.000000 0.043167
0.668483 0.000000 0.039984
0.710352 0.000000 0.036988
0.749553 0.000000 0.034182
0.786028 0.000000 0.031572
0.819724 0.000000 0.029160
0.850598 0.000000 0.026951
0.878610 0.000000 0.024946
0.887400 0.000000 0.023148
0.887400 0.000000 0.021560
0.887400 0.000000 0.020183
0.887400 0.000000 0.019019
0.000000 0.037050 0.086134
0.000000 0.037050 0.086134
0.000000 0.037050 0.086134
0.000000 0.037048 0.086112
0.000000 0.037009 0.085739
0.000000 0.036959 0.085250
0.000000 0.036898 0.084667
0.000000 0.036798 0.083964
0.020426 0.035464 0.081966
0.051626 0.033973 0.079733
0.086131 0.032325 0.077263
0.123975 0.030517 0.074555
0.165199 0.028548 0.071605
0.209843 0.026415 0.068410
0.257949 0.024117 0.064967
0.309560 0.021651 0.061273
0.364717 0.019016 0.057326
0.420699 0.016342 0.053319
0.474636 0.013765 0.049459
0.526378 0.011293 0.045756
0.575797 0.008932 0.042219
0.622786 0.006687 0.038856
0.667254 0.004563 0.035674
0.709122 0.002563 0.032677
0.748323 0.000690 0.029872
0.784798 0.000000 0.027261
0.818495 0.000000 0.024850
0.849369 0.000000 0.022640
0.877380 0.000000 0.020635
0.887400 0.000000 0.018838
0.887400 0.000000 0.017250
0.887400 0.000000 0.015873
0.887400 0.000000 0.014708
0.000000 0.055055 0.081068
0.000000 0.055055 0.081068
0.000000 0.055055 0.081068
0.000000 0.055052 0.081046
0.000000 0.055013 0.080672
0.000000 0.054963 0.080184
0.000000 0.054902 0.079601
0.000000 0.054727 0.078823
0.018959 0.053393 0.076825
0.050159 0.051902 0.074592
0.084664 0.050254 0.072123
0.122509 0.048446 0.069414
0.163732 0.046477 0.066464
0.208376 0.044344 0.063269
0.256483 0.042046 0.059826
0.308094 0.039580 0.056133
0.363251 0.036945 0.052185
0.419232 0.034271 0.048179
0.473170 0.031694 0.044318
0.524911 0.029222 0.040615
0.574330 0.026861 0.037079
0.621319 0.024616 0.033716
0.665787 0.022492 0.030533
0.707656 0.020492 0.027537
0.746857 0.018619 0.024731
0.783331 0.016876 0.022121
0.817028 0.015267 0.019709
0.847902 0.013792 0.017500
0.875914 0.012453 0.015495
0.887400 0.011254 0.013697
0.887400 0.010193 0.012109
0.887400 0.009274 0.010732
0.887400 0.008497 0.009568
0.000000 0.075842 0.075218
0.000000 0.075842 0.075218
0.000000 0.075842 0.075218
0.000000 0.075840 0.075196
0.000000 0.075801 0.074823
0.000000 0.075750 0.074334
0.000000 0.075690 0.073751
0.000000 0.075427 0.072888
0.017266 0.074093 0.070890
0.048466 0.072603 0.068657
0.082971 0.070955 0.066188
0.120815 0.069147 0.063479
0.162039 0.067177 0.060529
0.206683 0.065044 0.057334
0.254789 0.062746 0.053891
0.306400 0.060281 0.050197
0.361558 0.057646 0.046250
0.417539 0.054971 0.042243
0.471477 0.052394 0.038383
0.523218 0.049923 0.034680
0.572637 0.047562 0.031143
0.619626 0.045317 0.027780
0.664094 0.043192 0.024598
0.705962 0.041192 0.021602
0.745163 0.039320 0.018796
0.781638 0.037577 0.016186
0.815335 0.035967 0.013774
0.846209 0.034492 0.011564
0.874221 0.033154 0.009560
0.887400 0.031954 0.007762
0.887400 0.030894 0.006174
0.887400 0.029975 0.004797
0.887400 0.029198 0.003633
0.000000 0.099387 0.068593
0.000000 0.099387 0.068593
0.000000 0.099387 0.068593
0.000000 0.099384 0.068571
0.000000 0.099346 0.068198
0.000000 0.099295 0.067709
0.000000 0.099234 0.067126
0.000000 0.098873 0.066166
0.015348 0.097539 0.064167
0.046548 0.096049 0.061935
0.081053 0.094400 0.059465
0.118897 0.092592 0.056757
0.160121 0.090623 0.053806
0.204765 0.088490 0.050611
0.252872 0.086192 0.047168
0.304482 0.083727 0.043475
0.359640 0.081091 0.039527
0.415621 0.078417 0.035521
0.469559 0.075840 0.031661
0.521300 0.073368 0.027958
0.570719 0.071008 0.024421
0.617708 0.068763 0.021058
0.662176 0.066638 0.017876
0.704044 0.064638 0.014879
0.743246 0.062765 0.012074
0.779720 0.061023 0.009463
0.813417 0.059413 0.007052
0.844291 0.057938 0.004842
0.872303 0.056600 0.002837
0.887400 0.055400 0.001040
0.887400 0.054340 0.000000
0.887400 0.053421 0.000000
0.887400 0.052644 0.000000
0.000000 0.125696 0.061190
0.000000 0.125696 0.061190
0.000000 0.125696 0.061190
0.000000 0.125693 0.061168
0.000000 0.125655 0.060794
0.000000 0.125604 0.060306
0.000000 0.125543 0.059723
0.000000 0.125072 0.058654
0.013205 0.123738 0.056656
0.044405 0.122247 0.054423
0.078910 0.120599 0.051953
0.116754 0.118791 0.049245
0.157978 0.116822 0.046295
0.202622 0.114689 0.043100
0.250729 0.112391 0.039657
0.302339 0.109925 0.035963
0.357497 0.107290 0.032016
0.413478 0.104616 0.028009
0.467416 0.102039 0.024149
0.519157 0.099567 0.020446
0.568576 0.097206 0.016909
0.615565 0.094961 0.013546
0.660033 0.092837 0.010364
0.701901 0.090837 0.007367
0.741103 0.088964 0.004562
0.777577 0.087222 0.001952
0.811274 0.085612 0.000000
0.842148 0.084137 0.000000
0.870160 0.082799 0.000000
0.887400 0.081599 0.000000
0.887400 0.080539 0.000000
0.887400 0.079619 0.000000
0.887400 0.078842 0.000000
0.000000 0.154791 0.053002
0.000000 0.154791 0.053002
0.000000 0.154791 0.053002
0.000000 0.154789 0.052980
0.000000 0.154750 0.052607
0.000000 0.154699 0.052118
0.000000 0.154639 0.051535
0.000000 0.154046 0.050347
0.010835 0.152712 0.048348
0.042035 0.151221 0.046116
0.076540 0.149573 0.043646
0.114384 0.147765 0.040938
0.155608 0.145795 0.037987
0.200252 0.143663 0.034792
0.248359 0.141364 0.031349
0.299969 0.138899 0.027656
0.355127 0.136264 0.023708
0.411108 0.133589 0.019702
0.465046 0.131013 0.015842
0.516787 0.128541 0.012139
0.566206 0.126180 0.008602
0.613195 0.123935 0.005239
0.657663 0.121811 0.002057
0.699531 0.119810 0.000000
0.738732 0.117938 0.000000
0.775207 0.116195 0.000000
0.808904 0.114585 0.000000
0.839778 0.113110 0.000000
0.867790 0.111772 0.000000
0.887400 0.110572 0.000000
0.887400 0.109512 0.000000
0.887400 0.108593 0.000000
0.887400 0.107816 0.000000
0.000000 0.186703 0.044023
0.000000 0.186703 0.044023
0.000000 0.186703 0.044023
0.000000 0.186700 0.044001
0.000000 0.186662 0.043627
0.000000 0.186611 0.043138
0.000000 0.186550 0.042556
0.000000 0.185824 0.041235
0.008235 0.184490 0.039237
0.039436 0.182999 0.037004
0.073940 0.181351 0.034535
0.111785 0.179543 0.031826
0.153009 0.177573 0.028876
0.197653 0.175441 0.025681
0.245759 0.173142 0.022238
0.297370 0.170677 0.018544
0.352527 0.168042 0.014597
0.408509 0.165367 0.010590
0.462446 0.162791 0.006730
0.514188 0.160319 0.003027
0.563606 0.157958 0.000000
0.610595 0.155713 0.000000
0.655063 0.153589 0.000000
0.696932 0.151589 0.000000
0.736133 0.149716 0.000000
0.772608 0.147973 0.000000
0.806304 0.146363 0.000000
0.837178 0.144889 0.000000
0.865190 0.143550 0.000000
0.887400 0.142350 0.000000
0.887400 0.141290 0.000000
0.887400 0.140371 0.000000
0.887400 0.139594 0.000000
0.000000 0.221464 0.034241
0.000000 0.221464 0.034241
0.000000 0.221464 0.034241
0.000000 0.221461 0.034219
0.000000 0.221423 0.033846
0.000000 0.221372 0.033357
0.000000 0.221311 0.032774
0.000000 0.220439 0.031310
0.005404 0.219105 0.029312
0.036604 0.217615 0.027079
0.071109 0.215966 0.024610
0.108953 0.214158 0.021901
0.150177 0.212189 0.018951
0.194821 0.210056 0.015756
0.242928 0.207758 0.012313
0.294538 0.205292 0.008619
0.349696 0.202657 0.004672
0.405677 0.199983 0.000666
0.459615 0.197406 0.000000
0.511356 0.194934 0.000000
0.560775 0.192573 0.000000
0.607764 0.190329 0.000000
0.652232 0.188204 0.000000
0.694100 0.186204 0.000000
0.733302 0.184331 0.000000
0.769776 0.182589 0.000000
0.803473 0.180979 0.000000
0.834347 0.179504 0.000000
0.862359 0.178166 0.000000
0.887400 0.176966 0.000000
0.887400 0.175906 0.000000
0.887400 0.174987 0.000000
0.887400 0.174209 0.000000
0.000000 0.259109 0.023648
0.000000 0.259109 0.023648
0.000000 0.259109 0.023648
0.000000 0.259107 0.023626
0.000000 0.259068 0.023253
0.000000 0.259017 0.022764
0.000000 0.258957 0.022181
0.000000 0.257927 0.020562
0.002338 0.256593 0.018564
0.033538 0.255102 0.016331
0.068042 0.253454 0.013861
0.105887 0.251646 0.011153
0.147111 0.249676 0.008203
0.191755 0.247544 0.005008
0.239861 0.245245 0.001565
0.291472 0.242780 0.000000
0.346629 0.240145 0.000000
0.402611 0.237470 0.000000
0.456548 0.234894 0.000000
0.508290 0.232422 0.000000
0.557708 0.230061 0.000000
0.604697 0.227816 0.000000
0.649165 0.225692 0.000000
0.691034 0.223691 0.000000
0.730235 0.221819 0.000000
0.766710 0.220076 0.000000
0.800407 0.218466 0.000000
0.831280 0.216991 0.000000
0.859292 0.215653 0.000000
0.884408 0.214453 0.000000
0.887400 0.213393 0.000000
0.887400 0.212474 0.000000
0.887400 0.211697 0.000000
0.000000 0.299674 0.012233
0.000000 0.299674 0.012233
0.000000 0.299674 0.012233
0.000000 0.299671 0.012211
0.000000 0.299633 0.011838
0.000000 0.299582 0.011349
0.000000 0.299499 0.010744
0.000000 0.298321 0.008980
0.000000 0.296987 0.006982
0.030233 0.295497 0.004749
0.064738 0.293849 0.002279
0.102583 0.292041 0.000000
0.143806 0.290071 0.000000
0.188450 0.287938 0.000000
0.236557 0.285640 0.000000
0.288168 0.283175 0.000000
0.343325 0.280540 0.000000
0.399306 0.277865 0.000000
0.453244 0.275288 0.000000
0.504985 0.272817 0.000000
0.554404 0.270456 0.000000
0.601393 0.268211 0.000000
0.645861 0.266086 0.000000
0.687730 0.264086 0.000000
0.726931 0.262214 0.000000
0.763406 0.260471 0.000000
0.797102 0.258861 0.000000
0.827976 0.257386 0.000000
0.855988 0.256048 0.000000
0.881104 0.254848 0.000000
0.887400 0.253788 0.000000
0.887400 0.252869 0.000000
0.887400 0.252092 0.000000
0.000000 0.343193 0.000000
0.000000 0.343193 0.000000
0.000000 0.343193 0.000000
0.000000 0.343191 0.000000
0.000000 0.343152 0.000000
0.000000 0.343102 0.000000
0.000000 0.342837 0.000000
0.000000 0.341659 0.000000
0.000000 0.340325 0.000000
0.026688 0.338834 0.000000
0.061193 0.337186 0.000000
0.099038 0.335378 0.000000
0.140261 0.333409 0.000000
0.184905 0.331276 0.000000
0.233012 0.328978 0.000000
0.284623 0.326512 0.000000
0.339780 0.323877 0.000000
0.395761 0.321203 0.000000
0.449699 0.318626 0.000000
0.501440 0.316154 0.000000
0.550859 0.313793 0.000000
0.597848 0.311548 0.000000
0.642316 0.309424 0.000000
0.684185 0.307424 0.000000
0.723386 0.305551 0.000000
0.759861 0.303809 0.000000
0.793557 0.302199 0.000000
0.824431 0.300724 0.000000
0.852443 0.299386 0.000000
0.877559 0.298186 0.000000
0.887400 0.297126 0.000000
0.887400 0.296206 0.000000
0.887400 0.295429 0.000000
0.000000 0.389704 0.000000
0.000000 0.389704 0.000000
0.000000 0.389704 0.000000
0.000000 0.389701 0.000000
0.000000 0.389663 0.000000
0.000000 0.389612 0.000000
0.000000 0.389152 0.000000
0.000000 0.387974 0.000000
0.000000 0.386640 0.000000
0.022900 0.385150 0.000000
0.057405 0.383502 0.000000
0.095249 0.381694 0.000000
0.136473 0.379724 0.000000
0.181117 0.377591 0.000000
0.229223 0.375293 0.000000
0.280834 0.372828 0.000000
0.335991 0.370193 0.000000
0.391973 0.367518 0.000000
0.445910 0.364941 0.000000
0.497652 0.362470 0.000000
0.547071 0.360109 0.000000
0.594060 0.357864 0.000000
0.638528 0.355739 0.000000
0.680396 0.353739 0.000000
0.719597 0.351867 0.000000
0.756072 0.350124 0.000000
0.789769 0.348514 0.000000
0.820643 0.347039 0.000000
0.848654 0.345701 0.000000
0.873770 0.344501 0.000000
0.887400 0.343441 0.000000
0.887400 0.342522 0.000000
0.887400 0.341745 0.000000
0.000000 0.436909 0.000000
0.000000 0.436909 0.000000
0.000000 0.436909 0.000000
0.000000 0.436906 0.000000
0.000000 0.436868 0.000000
0.000000 0.436817 0.000000
0.000000 0.436159 0.000000
0.000000 0.434982 0.000000
0.000000 0.433648 0.000000
0.019055 0.432157 0.000000
0.053559 0.430509 0.000000
0.091404 0.428701 0.000000
0.132628 0.426732 0.000000
0.177272 0.424599 0.000000
0.225378 0.422301 0.000000
0.276989 0.419835 0.000000
0.332146 0.417200 0.000000
0.388128 0.414526 0.000000
0.442065 0.411949 0.000000
0.493807 0.409477 0.000000
0.543225 0.407116 0.000000
0.590214 0.404871 0.000000
0.634682 0.402747 0.000000
0.676551 0.400747 0.000000
0.715752 0.398874 0.000000
0.752227 0.397131 0.000000
0.786764 0.395734 0.000000
0.818460 0.394467 0.000000
0.847219 0.393317 0.000000
0.873004 0.392286 0.000000
0.887400 0.391375 0.000000
0.887400 0.390585 0.000000
0.887400 0.389918 0.000000
0.000000 0.482390 0.000000
0.000000 0.482390 0.000000
0.000000 0.482390 0.000000
0.000000 0.482388 0.000000
0.000000 0.482349 0.000000
0.000000 0.482299 0.000000
0.000000 0.481451 0.000000
0.000000 0.480273 0.000000
0.000000 0.478939 0.000000
0.015350 0.477449 0.000000
0.049855 0.475800 0.000000
0.087699 0.473992 0.000000
0.128923 0.472023 0.000000
0.173567 0.469890 0.000000
0.221673 0.467592 0.000000
0.273284 0.465126 0.000000
0.328441 0.462491 0.000000
0.384423 0.459817 0.000000
0.438360 0.457240 0.000000
0.490102 0.454768 0.000000
0.539521 0.452407 0.000000
0.586970 0.450279 0.000000
0.632623 0.448454 0.000000
0.675607 0.446735 0.000000
0.715853 0.445126 0.000000
0.753300 0.443629 0.000000
0.787894 0.442246 0.000000
0.819591 0.440979 0.000000
0.848349 0.439829 0.000000
0.874135 0.438798 0.000000
0.887400 0.437887 0.000000
0.887400 0.437098 0.000000
0.887400 0.436430 0.000000
0.000000 0.526020 0.000000
0.000000 0.526020 0.000000
0.000000 0.526020 0.000000
0.000000 0.526018 0.000000
0.000000 0.525979 0.000000
0.000000 0.525918 0.000000
0.000000 0.524898 0.000000
0.000000 0.523720 0.000000
0.000000 0.522386 0.000000
0.011796 0.520896 0.000000
0.046301 0.519247 0.000000
0.084145 0.517439 0.000000
0.125369 0.515470 0.000000
0.170013 0.513337 0.000000
0.218119 0.511039 0.000000
0.269730 0.508574 0.000000
0.324888 0.505938 0.000000
0.380869 0.503264 0.000000
0.435957 0.500978 0.000000
0.489078 0.498854 0.000000
0.539813 0.496826 0.000000
0.588054 0.494897 0.000000
0.633707 0.493072 0.000000
0.676692 0.491354 0.000000
0.716937 0.489745 0.000000
0.754384 0.488247 0.000000
0.788979 0.486864 0.000000
0.820675 0.485597 0.000000
0.849434 0.484447 0.000000
0.875200 0.483398 0.000000
0.887400 0.482469 0.000000
0.887400 0.481664 0.000000
0.887400 0.480983 0.000000
0.000000 0.567692 0.000000
0.000000 0.567692 0.000000
0.000000 0.567692 0.000000
0.000000 0.567689 0.000000
0.000000 0.567651 0.000000
0.000000 0.567415 0.000000
0.000000 0.566395 0.000000
0.000000 0.565217 0.000000
0.000000 0.563883 0.000000
0.008401 0.562393 0.000000
0.042906 0.560744 0.000000
0.080751 0.558936 0.000000
0.121975 0.556967 0.000000
0.166619 0.554834 0.000000
0.214725 0.552536 0.000000
0.267518 0.550369 0.000000
0.324145 0.548105 0.000000
0.381618 0.545807 0.000000
0.436993 0.543593 0.000000
0.490113 0.541470 0.000000
0.540849 0.539441 0.000000
0.589090 0.537513 0.000000
0.634743 0.535687 0.000000
0.677727 0.533969 0.000000
0.717944 0.532332 0.000000
0.755361 0.530805 0.000000
0.789927 0.529394 0.000000
0.821598 0.528102 0.000000
0.850333 0.526929 0.000000
0.876097 0.525877 0.000000
0.887400 0.524948 0.000000
0.887400 0.524143 0.000000
0.887400 0.523462 0.000000
0.000000 0.607314 0.000000
0.000000 0.607314 0.000000
0.000000 0.607314 0.000000
0.000000 0.607312 0.000000
0.000000 0.607273 0.000000
0.000000 0.606871 0.000000
0.000000 0.605851 0.000000
0.000000 0.604674 0.000000
0.000000 0.603340 0.000000
0.005174 0.601849 0.000000
0.039679 0.600201 0.000000
0.077972 0.598506 0.000000
0.120294 0.596814 0.000000
0.166128 0.594982 0.000000
0.215516 0.593007 0.000000
0.268503 0.590889 0.000000
0.325130 0.588625 0.000000
0.382603 0.586327 0.000000
0.437978 0.584113 0.000000
0.491098 0.581990 0.000000
0.541817 0.579945 0.000000
0.590019 0.577978 0.000000
0.635635 0.576116 0.000000
0.678584 0.574363 0.000000
0.718797 0.572722 0.000000
0.756213 0.571195 0.000000
0.790780 0.569785 0.000000
0.822451 0.568492 0.000000
0.851186 0.567320 0.000000
0.876950 0.566268 0.000000
0.887400 0.565339 0.000000
0.887400 0.564534 0.000000
0.887400 0.563853 0.000000
0.000000 0.644811 0.000000
0.000000 0.644811 0.000000
0.000000 0.644811 0.000000
0.000000 0.644808 0.000000
0.000000 0.644770 0.000000
0.000000 0.644211 0.000000
0.000000 0.643260 0.000000
0.000000 0.642248 0.000000
0.000000 0.641102 0.000000
0.004627 0.639822 0.000000
0.040051 0.638406 0.000000
0.078904 0.636852 0.000000
0.121226 0.635160 0.000000
0.167060 0.633328 0.000000
0.216449 0.631353 0.000000
0.269435 0.629235 0.000000
0.326062 0.626971 0.000000
0.383523 0.624662 0.000000
0.438853 0.622404 0.000000
0.491930 0.620237 0.000000
0.542624 0.618169 0.000000
0.590826 0.616201 0.000000
0.636442 0.614340 0.000000
0.679391 0.612587 0.000000
0.719604 0.610946 0.000000
0.757020 0.609419 0.000000
0.791540 0.608017 0.000000
0.822473 0.606857 0.000000
0.850538 0.605806 0.000000
0.875702 0.604862 0.000000
0.887400 0.604029 0.000000
0.887400 0.603307 0.000000
0.887400 0.602696 0.000000
0.000000 0.680892 0.000000
0.000000 0.680892 0.000000
0.000000 0.680892 0.000000
0.000000 0.680896 0.000000
0.000000 0.680966 0.000000
0.000000 0.680241 0.000000
0.000000 0.679365 0.000000
0.000000 0.678353 0.000000
0.000000 0.677207 0.000000
0.005504 0.675927 0.000000
0.040929 0.674510 0.000000
0.079782 0.672957 0.000000
0.122104 0.671265 0.000000
0.167938 0.669433 0.000000
0.217326 0.667458 0.000000
0.270275 0.665304 0.000000
0.326856 0.662994 0.000000
0.384283 0.660651 0.000000
0.439613 0.658393 0.000000
0.492690 0.656227 0.000000
0.543384 0.654158 0.000000
0.591586 0.652191 0.000000
0.637202 0.650329 0.000000
0.679352 0.648721 0.000000
0.718627 0.647249 0.000000
0.755172 0.645879 0.000000
0.788932 0.644614 0.000000
0.819865 0.643454 0.000000
0.847930 0.642402 0.000000
0.873094 0.641459 0.000000
0.887400 0.640626 0.000000
0.887400 0.639904 0.000000
0.887400 0.639293 0.000000
0.000000 0.714999 0.000000
0.000000 0.714999 0.000000
0.000000 0.714999 0.000000
0.000000 0.715003 0.000000
0.000000 0.714781 0.000000
0.000000 0.714046 0.000000
0.000000 0.713169 0.000000
0.000000 0.712158 0.000000
0.000000 0.711012 0.000000
0.006326 0.709731 0.000000
0.041750 0.708315 0.000000
0.080603 0.706761 0.000000
0.122899 0.705043 0.000000
0.168696 0.703174 0.000000
0.218044 0.701161 0.000000
0.270987 0.699000 0.000000
0.327568 0.696691 0.000000
0.384994 0.694347 0.000000
0.440324 0.692089 0.000000
0.493401 0.689923 0.000000
0.543331 0.687992 0.000000
0.590409 0.686228 0.000000
0.634962 0.684558 0.000000
0.676910 0.682986 0.000000
0.716186 0.681514 0.000000
0.752730 0.680144 0.000000
0.786490 0.678879 0.000000
0.817423 0.677720 0.000000
0.845488 0.676668 0.000000
0.870652 0.675725 0.000000
0.887400 0.674891 0.000000
0.887400 0.674169 0.000000
0.887400 0.673558 0.000000
0.000000 0.746733 0.000000
0.000000 0.746733 0.000000
0.000000 0.746733 0.000000
0.000000 0.746737 0.000000
0.000000 0.746234 0.000000
0.000000 0.745499 0.000000
0.000000 0.744623 0.000000
0.000000 0.743611 0.000000
0.000000 0.742457 0.000000
0.007056 0.741151 0.000000
0.042452 0.739706 0.000000
0.081273 0.738122 0.000000
0.123561 0.736396 0.000000
0.169358 0.734527 0.000000
0.218706 0.732513 0.000000
0.271649 0.730353 0.000000
0.328230 0.728044 0.000000
0.385656 0.725700 0.000000
0.439706 0.723673 0.000000
0.491546 0.721730 0.000000
0.541059 0.719874 0.000000
0.588137 0.718110 0.000000
0.632690 0.716440 0.000000
0.674638 0.714868 0.000000
0.713914 0.713396 0.000000
0.750458 0.712026 0.000000
0.784218 0.710761 0.000000
0.815151 0.709602 0.000000
0.843216 0.708550 0.000000
0.868380 0.707607 0.000000
0.887400 0.706773 0.000000
0.887400 0.706051 0.000000
0.887400 0.705440 0.000000
0.000000 0.775872 0.000000
0.000000 0.775872 0.000000
0.000000 0.775872 0.000000
0.000000 0.775839 0.000000
0.000000 0.775266 0.000000
0.000000 0.774517 0.000000
0.000000 0.773623 0.000000
0.000000 0.772591 0.000000
0.000000 0.771422 0.000000
0.007668 0.770116 0.000000
0.043063 0.768671 0.000000
0.081885 0.767087 0.000000
0.124173 0.765361 0.000000
0.169969 0.763492 0.000000
0.219317 0.761478 0.000000
0.272217 0.759326 0.000000
0.327479 0.757254 0.000000
0.383567 0.755152 0.000000
0.437607 0.753127 0.000000
0.489447 0.751184 0.000000
0.538960 0.749328 0.000000
0.586038 0.747564 0.000000
0.630591 0.745894 0.000000
0.672539 0.744322 0.000000
0.711815 0.742850 0.000000
0.748359 0.741480 0.000000
0.782119 0.740215 0.000000
