recipes/color/anime_clean_v1/anime_clean_v1.cube
TITLE "anime_clean_v1"
LUT_3D_SIZE 17
DOMAIN_MIN 0.0 0.0 0.0
DOMAIN_MAX 1.0 1.0 1.0
0.00000000 0.00000000 0.00000000
0.04500000 0.00000000 0.00000000
0.11000000 0.00000000 0.00000000
0.17500000 0.00000000 0.00000000
0.24000000 0.00000000 0.00000000
0.30500000 0.00000000 0.00000000
0.37000000 0.00000000 0.00000000
0.43500000 0.00000000 0.00000000
0.50000000 0.00000000 0.00000000
0.56500000 0.00000000 0.00000000
0.63000000 0.00000000 0.00000000
0.69500000 0.00000000 0.00000000
0.76000000 0.00000000 0.00000000
0.82500000 0.00000000 0.00000000
0.89000000 0.00000000 0.00000000
0.95500000 0.00000000 0.00000000
1.00000000 0.00000000 0.00000000
0.00000000 0.04500000 0.00000000
0.04500000 0.04500000 0.00000000
0.11000000 0.04500000 0.00000000
0.17500000 0.04500000 0.00000000
0.24000000 0.04500000 0.00000000
0.30500000 0.04500000 0.00000000
0.37000000 0.04500000 0.00000000
0.43500000 0.04500000 0.00000000
0.50000000 0.04500000 0.00000000
0.56500000 0.04500000 0.00000000
0.63000000 0.04500000 0.00000000
0.69500000 0.04500000 0.00000000
0.76000000 0.04500000 0.00000000
0.82500000 0.04500000 0.00000000
0.89000000 0.04500000 0.00000000
0.95500000 0.04500000 0.00000000
1.00000000 0.04500000 0.00000000
0.00000000 0.11000000 0.00000000
0.04500000 0.11000000 0.00000000
0.11000000 0.11000000 0.00000000
0.17500000 0.11000000 0.00000000
0.24000000 0.11000000 0.00000000
0.30500000 0.11000000 0.00000000
0.37000000 0.11000000 0.00000000
0.43500000 0.11000000 0.00000000
0.50000000 0.11000000 0.00000000
0.56500000 0.11000000 0.00000000
0.63000000 0.11000000 0.00000000
0.69500000 0.11000000 0.00000000
0.76000000 0.11000000 0.00000000
0.82500000 0.11000000 0.00000000
0.89000000 0.11000000 0.00000000
0.95500000 0.11000000 0.00000000
1.00000000 0.11000000 0.00000000
0.00000000 0.17500000 0.00000000
0.04500000 0.17500000 0.00000000
0.11000000 0.17500000 0.00000000
0.17500000 0.17500000 0.00000000
0.24000000 0.17500000 0.00000000
0.30500000 0.17500000 0.00000000
0.37000000 0.17500000 0.00000000
0.43500000 0.17500000 0.00000000
0.50000000 0.17500000 0.00000000
0.56500000 0.17500000 0.00000000
0.63000000 0.17500000 0.00000000
0.69500000 0.17500000 0.00000000
0.76000000 0.17500000 0.00000000
0.82500000 0.17500000 0.00000000
0.89000000 0.17500000 0.00000000
0.95500000 0.17500000 0.00000000
1.00000000 0.17500000 0.00000000
0.00000000 0.24000000 0.00000000
0.04500000 0.24000000 0.00000000
0.11000000 0.24000000 0.00000000
0.17500000 0.24000000 0.00000000
0.24000000 0.24000000 0.00000000
0.30500000 0.24000000 0.00000000
0.37000000 0.24000000 0.00000000
0.43500000 0.24000000 0.00000000
0.50000000 0.24000000 0.00000000
0.56500000 0.24000000 0.00000000
0.63000000 0.24000000 0.00000000
0.69500000 0.24000000 0.00000000
0.76000000 0.24000000 0.00000000
0.82500000 0.24000000 0.00000000
0.89000000 0.24000000 0.00000000
0.95500000 0.24000000 0.00000000
1.00000000 0.24000000 0.00000000
0.00000000 0.30500000 0.00000000
0.04500000 0.30500000 0.00000000
0.11000000 0.30500000 0.00000000
0.17500000 0.30500000 0.00000000
0.24000000 0.30500000 0.00000000
0.30500000 0.30500000 0.00000000
0.37000000 0.30500000 0.00000000
0.43500000 0.30500000 0.00000000
0.50000000 0.30500000 0.00000000
0.56500000 0.30500000 0.00000000
0.63000000 0.30500000 0.00000000
0.69500000 0.30500000 0.00000000
0.76000000 0.30500000 0.00000000
0.82500000 0.30500000 0.00000000
0.89000000 0.30500000 0.00000000
0.95500000 0.30500000 0.00000000
1.00000000 0.30500000 0.00000000
0.00000000 0.37000000 0.00000000
0.04500000 0.37000000 0.00000000
0.11000000 0.37000000 0.00000000
0.17500000 0.37000000 0.00000000
0.24000000 0.37000000 0.00000000
0.30500000 0.37000000 0.00000000
0.37000000 0.37000000 0.00000000
0.43500000 0.37000000 0.00000000
0.50000000 0.37000000 0.00000000
0.56500000 0.37000000 0.00000000
0.63000000 0.37000000 0.00000000
0.69500000 0.37000000 0.00000000
0.76000000 0.37000000 0.00000000
0.82500000 0.37000000 0.00000000
0.89000000 0.37000000 0.00000000
0.95500000 0.37000000 0.00000000
1.00000000 0.37000000 0.00000000
0.00000000 0.43500000 0.00000000
0.04500000 0.43500000 0.00000000
0.11000000 0.43500000 0.00000000
0.17500000 0.43500000 0.00000000
0.24000000 0.43500000 0.00000000
0.30500000 0.43500000 0.00000000
0.37000000 0.43500000 0.00000000
0.43500000 0.43500000 0.00000000
0.50000000 0.43500000 0.00000000
0.56500000 0.43500000 0.00000000
0.63000000 0.43500000 0.00000000
0.69500000 0.43500000 0.00000000
0.76000000 0.43500000 0.00000000
0.82500000 0.43500000 0.00000000
0.89000000 0.43500000 0.00000000
0.95500000 0.43500000 0.00000000
1.00000000 0.43500000 0.00000000
0.00000000 0.50000000 0.00000000
0.04500000 0.50000000 0.00000000
0.11000000 0.50000000 0.00000000
0.17500000 0.50000000 0.00000000
0.24000000 0.50000000 0.00000000
0.30500000 0.50000000 0.00000000
0.37000000 0.50000000 0.00000000
0.43500000 0.50000000 0.00000000
0.50000000 0.50000000 0.00000000
0.56500000 0.50000000 0.00000000
0.63000000 0.50000000 0.00000000
0.69500000 0.50000000 0.00000000
0.76000000 0.50000000 0.00000000
0.82500000 0.50000000 0.00000000
0.89000000 0.50000000 0.00000000
0.95500000 0.50000000 0.00000000
1.00000000 0.50000000 0.00000000
0.00000000 0.56500000 0.00000000
0.04500000 0.56500000 0.00000000
0.11000000 0.56500000 0.00000000
0.17500000 0.56500000 0.00000000
0.24000000 0.56500000 0.00000000
0.30500000 0.56500000 0.00000000
0.37000000 0.56500000 0.00000000
0.43500000 0.56500000 0.00000000
0.50000000 0.56500000 0.00000000
0.56500000 0.56500000 0.00000000
0.63000000 0.56500000 0.00000000
0.69500000 0.56500000 0.00000000
0.76000000 0.56500000 0.00000000
0.82500000 0.56500000 0.00000000
0.89000000 0.56500000 0.00000000
0.95500000 0.56500000 0.00000000
1.00000000 0.56500000 0.00000000
0.00000000 0.63000000 0.00000000
0.04500000 0.63000000 0.00000000
0.11000000 0.63000000 0.00000000
0.17500000 0.63000000 0.00000000
0.24000000 0.63000000 0.00000000
0.30500000 0.63000000 0.00000000
0.37000000 0.63000000 0.00000000
0.43500000 0.63000000 0.00000000
0.50000000 0.63000000 0.00000000
0.56500000 0.63000000 0.00000000
0.63000000 0.63000000 0.00000000
0.69500000 0.63000000 0.00000000
0.76000000 0.63000000 0.00000000
0.82500000 0.63000000 0.00000000
0.89000000 0.63000000 0.00000000
0.95500000 0.63000000 0.00000000
1.00000000 0.63000000 0.00000000
0.00000000 0.69500000 0.00000000
0.04500000 0.69500000 0.00000000
0.11000000 0.69500000 0.00000000
0.17500000 0.69500000 0.00000000
0.24000000 0.69500000 0.00000000
0.30500000 0.69500000 0.00000000
0.37000000 0.69500000 0.00000000
0.43500000 0.69500000 0.00000000
0.50000000 0.69500000 0.00000000
0.56500000 0.69500000 0.00000000
0.63000000 0.69500000 0.00000000
0.69500000 0.69500000 0.00000000
0.76000000 0.69500000 0.00000000
0.82500000 0.69500000 0.00000000
0.89000000 0.69500000 0.00000000
0.95500000 0.69500000 0.00000000
1.00000000 0.69500000 0.00000000
0.00000000 0.76000000 0.00000000
0.04500000 0.76000000 0.00000000
0.11000000 0.76000000 0.00000000
0.17500000 0.76000000 0.00000000
0.24000000 0.76000000 0.00000000
0.30500000 0.76000000 0.00000000
0.37000000 0.76000000 0.00000000
0.43500000 0.76000000 0.00000000
0.50000000 0.76000000 0.00000000
0.56500000 0.76000000 0.00000000
0.63000000 0.76000000 0.00000000
0.69500000 0.76000000 0.00000000
0.76000000 0.76000000 0.00000000
0.82500000 0.76000000 0.00000000
0.89000000 0.76000000 0.00000000
0.95500000 0.76000000 0.00000000
1.00000000 0.76000000 0.00000000
0.00000000 0.82500000 0.00000000
0.04500000 0.82500000 0.00000000
0.11000000 0.82500000 0.00000000
0.17500000 0.82500000 0.00000000
0.24000000 0.82500000 0.00000000
0.30500000 0.82500000 0.00000000
0.37000000 0.82500000 0.00000000
0.43500000 0.82500000 0.00000000
0.50000000 0.82500000 0.00000000
0.56500000 0.82500000 0.00000000
0.63000000 0.82500000 0.00000000
0.69500000 0.82500000 0.00000000
0.76000000 0.82500000 0.00000000
0.82500000 0.82500000 0.00000000
0.89000000 0.82500000 0.00000000
0.95500000 0.82500000 0.00000000
1.00000000 0.82500000 0.00000000
0.00000000 0.89000000 0.00000000
0.04500000 0.89000000 0.00000000
0.11000000 0.89000000 0.00000000
0.17500000 0.89000000 0.00000000
0.24000000 0.89000000 0.00000000
0.30500000 0.89000000 0.00000000
0.37000000 0.89000000 0.00000000
0.43500000 0.89000000 0.00000000
0.50000000 0.89000000 0.00000000
0.56500000 0.89000000 0.00000000
0.63000000 0.89000000 0.00000000
0.69500000 0.89000000 0.00000000
0.76000000 0.89000000 0.00000000
0.82500000 0.89000000 0.00000000
0.89000000 0.89000000 0.00000000
0.95500000 0.89000000 0.00000000
1.00000000 0.89000000 0.00000000
0.00000000 0.95500000 0.00000000
0.04500000 0.95500000 0.00000000
0.11000000 0.95500000 0.00000000
0.17500000 0.95500000 0.00000000
0.24000000 0.95500000 0.00000000
0.30500000 0.95500000 0.00000000
0.37000000 0.95500000 0.00000000
0.43500000 0.95500000 0.00000000
0.50000000 0.95500000 0.00000000
0.56500000 0.95500000 0.00000000
0.63000000 0.95500000 0.00000000
0.69500000 0.95500000 0.00000000
0.76000000 0.95500000 0.00000000
0.82500000 0.95500000 0.00000000
0.89000000 0.95500000 0.00000000
0.95500000 0.95500000 0.00000000
1.00000000 0.95500000 0.00000000
0.00000000 1.00000000 0.00000000
0.04500000 1.00000000 0.00000000
0.11000000 1.00000000 0.00000000
0.17500000 1.00000000 0.00000000
0.24000000 1.00000000 0.00000000
0.30500000 1.00000000 0.00000000
0.37000000 1.00000000 0.00000000
0.43500000 1.00000000 0.00000000
0.50000000 1.00000000 0.00000000
0.56500000 1.00000000 0.00000000
0.63000000 1.00000000 0.00000000
0.69500000 1.00000000 0.00000000
0.76000000 1.00000000 0.00000000
0.82500000 1.00000000 0.00000000
0.89000000 1.00000000 0.00000000
0.95500000 1.00000000 0.00000000
1.00000000 1.00000000 0.00000000
0.00000000 0.00000000 0.04500000
0.04500000 0.00000000 0.04500000
0.11000000 0.00000000 0.04500000
0.17500000 0.00000000 0.04500000
0.24000000 0.00000000 0.04500000
0.30500000 0.00000000 0.04500000
0.37000000 0.00000000 0.04500000
0.43500000 0.00000000 0.04500000
0.50000000 0.00000000 0.04500000
0.56500000 0.00000000 0.04500000
0.63000000 0.00000000 0.04500000
0.69500000 0.00000000 0.04500000
0.76000000 0.00000000 0.04500000
0.82500000 0.00000000 0.04500000
0.89000000 0.00000000 0.04500000
0.95500000 0.00000000 0.04500000
1.00000000 0.00000000 0.04500000
0.00000000 0.04500000 0.04500000
0.04500000 0.04500000 0.04500000
0.11000000 0.04305000 0.04305000
0.17500000 0.04110000 0.04110000
0.24000000 0.03915000 0.03915000
0.30500000 0.03720000 0.03720000
0.37000000 0.03525000 0.03525000
0.43500000 0.03330000 0.03330000
0.50000000 0.03135000 0.03135000
0.56500000 0.02940000 0.02940000
0.63000000 0.02745000 0.02745000
0.69500000 0.02550000 0.02550000
0.76000000 0.02355000 0.02355000
0.82500000 0.02160000 0.02160000
0.89000000 0.01965000 0.01965000
0.95500000 0.01770000 0.01770000
1.00000000 0.01635000 0.01635000
0.00000000 0.11000000 0.04500000
0.04305000 0.11000000 0.04305000
0.11000000 0.11000000 0.04305000
0.17500000 0.10805000 0.04110000
0.24000000 0.10610000 0.03915000
0.30500000 0.10415000 0.03720000
0.37000000 0.10220000 0.03525000
0.43500000 0.10025000 0.03330000
0.50000000 0.09830000 0.03135000
0.56500000 0.09635000 0.02940000
0.63000000 0.09440000 0.02745000
0.69500000 0.09245000 0.02550000
0.76000000 0.09050000 0.02355000
0.82500000 0.08855000 0.02160000
0.89000000 0.08660000 0.01965000
0.95500000 0.08465000 0.01770000
1.00000000 0.08330000 0.01635000
0.00000000 0.17500000 0.04500000
0.04110000 0.17500000 0.04110000
0.10805000 0.17500000 0.04110000
0.17500000 0.17500000 0.04110000
0.24000000 0.17305000 0.03915000
0.30500000 0.17110000 0.03720000
0.37000000 0.16915000 0.03525000
0.43500000 0.16720000 0.03330000
0.50000000 0.16525000 0.03135000
0.56500000 0.16330000 0.02940000
0.63000000 0.16135000 0.02745000
0.69500000 0.15940000 0.02550000
0.76000000 0.15745000 0.02355000
0.82500000 0.15550000 0.02160000
0.89000000 0.15355000 0.01965000
0.95500000 0.15160000 0.01770000
1.00000000 0.15025000 0.01635000
0.00000000 0.24000000 0.04500000
0.03915000 0.24000000 0.03915000
0.10610000 0.24000000 0.03915000
0.17305000 0.24000000 0.03915000
0.24000000 0.24000000 0.03915000
0.30500000 0.23805000 0.03720000
0.37000000 0.23610000 0.03525000
0.43500000 0.23415000 0.03330000
0.50000000 0.23220000 0.03135000
0.56500000 0.23025000 0.02940000
0.63000000 0.22830000 0.02745000
0.69500000 0.22635000 0.02550000
0.76000000 0.22440000 0.02355000
0.82500000 0.22245000 0.02160000
0.89000000 0.22050000 0.01965000
0.95500000 0.21855000 0.01770000
1.00000000 0.21720000 0.01635000
0.00000000 0.30500000 0.04500000
0.03720000 0.30500000 0.03720000
0.10415000 0.30500000 0.03720000
0.17110000 0.30500000 0.03720000
0.23805000 0.30500000 0.03720000
0.30500000 0.30500000 0.03720000
0.37000000 0.30305000 0.03525000
0.43500000 0.30110000 0.03330000
0.50000000 0.29915000 0.03135000
0.56500000 0.29720000 0.02940000
0.63000000 0.29525000 0.02745000
0.69500000 0.29330000 0.02550000
0.76000000 0.29135000 0.02355000
0.82500000 0.28940000 0.02160000
0.89000000 0.28745000 0.01965000
0.95500000 0.28550000 0.01770000
1.00000000 0.28415000 0.01635000
0.00000000 0.37000000 0.04500000
0.03525000 0.37000000 0.03525000
0.10220000 0.37000000 0.03525000
0.16915000 0.37000000 0.03525000
0.23610000 0.37000000 0.03525000
0.30305000 0.37000000 0.03525000
0.37000000 0.37000000 0.03525000
0.43500000 0.36805000 0.03330000
0.50000000 0.36610000 0.03135000
0.56500000 0.36415000 0.02940000
0.63000000 0.36220000 0.02745000
0.69500000 0.36025000 0.02550000
0.76000000 0.35830000 0.02355000
0.82500000 0.35635000 0.02160000
0.89000000 0.35440000 0.01965000
0.95500000 0.35245000 0.01770000
1.00000000 0.35110000 0.01635000
0.00000000 0.43500000 0.04500000
0.03330000 0.43500000 0.03330000
0.10025000 0.43500000 0.03330000
0.16720000 0.43500000 0.03330000
0.23415000 0.43500000 0.03330000
0.30110000 0.43500000 0.03330000
0.36805000 0.43500000 0.03330000
0.43500000 0.43500000 0.03330000
0.50000000 0.43305000 0.03135000
0.56500000 0.43110000 0.02940000
0.63000000 0.42915000 0.02745000
0.69500000 0.42720000 0.02550000
0.76000000 0.42525000 0.02355000
0.82500000 0.42330000 0.02160000
0.89000000 0.42135000 0.01965000
0.95500000 0.41940000 0.01770000
1.00000000 0.41805000 0.01635000
0.00000000 0.50000000 0.04500000
0.03135000 0.50000000 0.03135000
0.09830000 0.50000000 0.03135000
0.16525000 0.50000000 0.03135000
0.23220000 0.50000000 0.03135000
0.29915000 0.50000000 0.03135000
0.36610000 0.50000000 0.03135000
0.43305000 0.50000000 0.03135000
0.50000000 0.50000000 0.03135000
0.56500000 0.49805000 0.02940000
0.63000000 0.49610000 0.02745000
0.69500000 0.49415000 0.02550000
0.76000000 0.49220000 0.02355000
0.82500000 0.49025000 0.02160000
0.89000000 0.48830000 0.01965000
0.95500000 0.48635000 0.01770000
1.00000000 0.48500000 0.01635000
0.00000000 0.56500000 0.04500000
0.02940000 0.56500000 0.02940000
0.09635000 0.56500000 0.02940000
0.16330000 0.56500000 0.02940000
0.23025000 0.56500000 0.02940000
0.29720000 0.56500000 0.02940000
0.36415000 0.56500000 0.02940000
0.43110000 0.56500000 0.02940000
0.49805000 0.56500000 0.02940000
0.56500000 0.56500000 0.02940000
0.63000000 0.56305000 0.02745000
0.69500000 0.56110000 0.02550000
0.76000000 0.55915000 0.02355000
0.82500000 0.55720000 0.02160000
0.89000000 0.55525000 0.01965000
0.95500000 0.55330000 0.01770000
1.00000000 0.55195000 0.01635000
0.00000000 0.63000000 0.04500000
0.02745000 0.63000000 0.02745000
0.09440000 0.63000000 0.02745000
0.16135000 0.63000000 0.02745000
0.22830000 0.63000000 0.02745000
0.29525000 0.63000000 0.02745000
0.36220000 0.63000000 0.02745000
0.42915000 0.63000000 0.02745000
0.49610000 0.63000000 0.02745000
0.56305000 0.63000000 0.02745000
0.63000000 0.63000000 0.02745000
0.69500000 0.62805000 0.02550000
0.76000000 0.62610000 0.02355000
0.82500000 0.62415000 0.02160000
0.89000000 0.62220000 0.01965000
0.95500000 0.62025000 0.01770000
1.00000000 0.61890000 0.01635000
0.00000000 0.69500000 0.04500000
0.02550000 0.69500000 0.02550000
0.09245000 0.69500000 0.02550000
0.15940000 0.69500000 0.02550000
0.22635000 0.69500000 0.02550000
0.29330000 0.69500000 0.02550000
0.36025000 0.69500000 0.02550000
0.42720000 0.69500000 0.02550000
0.49415000 0.69500000 0.02550000
0.56110000 0.69500000 0.02550000
0.62805000 0.69500000 0.02550000
0.69500000 0.69500000 0.02550000
0.76000000 0.69305000 0.02355000
0.82500000 0.69110000 0.02160000
0.89000000 0.68915000 0.01965000
0.95500000 0.68720000 0.01770000
1.00000000 0.68585000 0.01635000
0.00000000 0.76000000 0.04500000
0.02355000 0.76000000 0.02355000
0.09050000 0.76000000 0.02355000
0.15745000 0.76000000 0.02355000
0.22440000 0.76000000 0.02355000
0.29135000 0.76000000 0.02355000
0.35830000 0.76000000 0.02355000
0.42525000 0.76000000 0.02355000
0.49220000 0.76000000 0.02355000
0.55915000 0.76000000 0.02355000
0.62610000 0.76000000 0.02355000
0.69305000 0.76000000 0.02355000
0.76000000 0.76000000 0.02355000
0.82500000 0.75805000 0.02160000
0.89000000 0.75610000 0.01965000
0.95500000 0.75415000 0.01770000
1.00000000 0.75280000 0.01635000
0.00000000 0.82500000 0.04500000
0.02160000 0.82500000 0.02160000
0.08855000 0.82500000 0.02160000
0.15550000 0.82500000 0.02160000
0.22245000 0.82500000 0.02160000
0.28940000 0.82500000 0.02160000
0.35635000 0.82500000 0.02160000
0.42330000 0.82500000 0.02160000
0.49025000 0.82500000 0.02160000
0.55720000 0.82500000 0.02160000
0.62415000 0.82500000 0.02160000
0.69110000 0.82500000 0.02160000
0.75805000 0.82500000 0.02160000
0.82500000 0.82500000 0.02160000
0.89000000 0.82305000 0.01965000
0.95500000 0.82110000 0.01770000
1.00000000 0.81975000 0.01635000
0.00000000 0.89000000 0.04500000
0.01965000 0.89000000 0.01965000
0.08660000 0.89000000 0.01965000
0.15355000 0.89000000 0.01965000
0.22050000 0.89000000 0.01965000
0.28745000 0.89000000 0.01965000
0.35440000 0.89000000 0.01965000
0.42135000 0.89000000 0.01965000
0.48830000 0.89000000 0.01965000
0.55525000 0.89000000 0.01965000
0.62220000 0.89000000 0.01965000
0.68915000 0.89000000 0.01965000
0.75610000 0.89000000 0.01965000
0.82305000 0.89000000 0.01965000
0.89000000 0.89000000 0.01965000
0.95500000 0.88805000 0.01770000
1.00000000 0.88670000 0.01635000
0.00000000 0.95500000 0.04500000
0.01770000 0.95500000 0.01770000
0.08465000 0.95500000 0.01770000
0.15160000 0.95500000 0.01770000
0.21855000 0.95500000 0.01770000
0.28550000 0.95500000 0.01770000
0.35245000 0.95500000 0.01770000
0.41940000 0.95500000 0.01770000
0.48635000 0.95500000 0.01770000
0.55330000 0.95500000 0.01770000
0.62025000 0.95500000 0.01770000
0.68720000 0.95500000 0.01770000
0.75415000 0.95500000 0.01770000
0.82110000 0.95500000 0.01770000
0.88805000 0.95500000 0.01770000
0.95500000 0.95500000 0.01770000
1.00000000 0.95365000 0.01635000
0.00000000 1.00000000 0.04500000
0.01635000 1.00000000 0.01635000
0.08330000 1.00000000 0.01635000
0.15025000 1.00000000 0.01635000
0.21720000 1.00000000 0.01635000
0.28415000 1.00000000 0.01635000
0.35110000 1.00000000 0.01635000
0.41805000 1.00000000 0.01635000
0.48500000 1.00000000 0.01635000
0.55195000 1.00000000 0.01635000
0.61890000 1.00000000 0.01635000
0.68585000 1.00000000 0.01635000
0.75280000 1.00000000 0.01635000
0.81975000 1.00000000 0.01635000
0.88670000 1.00000000 0.01635000
0.95365000 1.00000000 0.01635000
1.00000000 1.00000000 0.01635000
0.00000000 0.00000000 0.11000000
0.04500000 0.00000000 0.11000000
0.11000000 0.00000000 0.11000000
0.17500000 0.00000000 0.11000000
0.24000000 0.00000000 0.11000000
0.30500000 0.00000000 0.11000000
0.37000000 0.00000000 0.11000000
0.43500000 0.00000000 0.11000000
0.50000000 0.00000000 0.11000000
0.56500000 0.00000000 0.11000000
0.63000000 0.00000000 0.11000000
0.69500000 0.00000000 0.11000000
0.76000000 0.00000000 0.11000000
0.82500000 0.00000000 0.11000000
0.89000000 0.00000000 0.11000000
0.95500000 0.00000000 0.11000000
1.00000000 0.00000000 0.11000000
0.00000000 0.04500000 0.11000000
0.04305000 0.04305000 0.11000000
0.11000000 0.04305000 0.11000000
0.17500000 0.04110000 0.10805000
0.24000000 0.03915000 0.10610000
0.30500000 0.03720000 0.10415000
0.37000000 0.03525000 0.10220000
0.43500000 0.03330000 0.10025000
0.50000000 0.03135000 0.09830000
0.56500000 0.02940000 0.09635000
0.63000000 0.02745000 0.09440000
0.69500000 0.02550000 0.09245000
0.76000000 0.02355000 0.09050000
0.82500000 0.02160000 0.08855000
0.89000000 0.01965000 0.08660000
0.95500000 0.01770000 0.08465000
1.00000000 0.01635000 0.08330000
0.00000000 0.11000000 0.11000000
0.04305000 0.11000000 0.11000000
0.11000000 0.11000000 0.11000000
0.17500000 0.10805000 0.10805000
0.24000000 0.10610000 0.10610000
0.30500000 0.10415000 0.10415000
0.37000000 0.10220000 0.10220000
0.43500000 0.10025000 0.10025000
0.50000000 0.09830000 0.09830000
0.56500000 0.09635000 0.09635000
0.63000000 0.09440000 0.09440000
0.69500000 0.09245000 0.09245000
0.76000000 0.09050000 0.09050000
0.82500000 0.08855000 0.08855000
0.89000000 0.08660000 0.08660000
0.95500000 0.08465000 0.08465000
1.00000000 0.08330000 0.08330000
0.00000000 0.17500000 0.11000000
0.04110000 0.17500000 0.10805000
0.10805000 0.17500000 0.10805000
0.17500000 0.17500000 0.10805000
0.24000000 0.17305000 0.10610000
0.30500000 0.17110000 0.10415000
0.37000000 0.16915000 0.10220000
0.43500000 0.16720000 0.10025000
0.50000000 0.16525000 0.09830000
0.56500000 0.16330000 0.09635000
0.63000000 0.16135000 0.09440000
0.69500000 0.15940000 0.09245000
0.76000000 0.15745000 0.09050000
0.82500000 0.15550000 0.08855000
0.89000000 0.15355000 0.08660000
0.95500000 0.15160000 0.08465000
1.00000000 0.15025000 0.08330000
0.00000000 0.24000000 0.11000000
0.03915000 0.24000000 0.10610000
0.10610000 0.24000000 0.10610000
0.17305000 0.24000000 0.10610000
0.24000000 0.24000000 0.10610000
0.30500000 0.23805000 0.10415000
0.37000000 0.23610000 0.10220000
0.43500000 0.23415000 0.10025000
0.50000000 0.23220000 0.09830000
0.56500000 0.23025000 0.09635000
0.63000000 0.22830000 0.09440000
0.69500000 0.22635000 0.09245000
0.76000000 0.22440000 0.09050000
0.82500000 0.22245000 0.08855000
0.89000000 0.22050000 0.08660000
0.95500000 0.21855000 0.08465000
1.00000000 0.21720000 0.08330000
0.00000000 0.30500000 0.11000000
0.03720000 0.30500000 0.10415000
0.10415000 0.30500000 0.10415000
0.17110000 0.30500000 0.10415000
0.23805000 0.30500000 0.10415000
0.30500000 0.30500000 0.10415000
0.37000000 0.30305000 0.10220000
0.43500000 0.30110000 0.10025000
0.50000000 0.29915000 0.09830000
0.56500000 0.29720000 0.09635000
0.63000000 0.29525000 0.09440000
0.69500000 0.29330000 0.09245000
0.76000000 0.29135000 0.09050000
0.82500000 0.28940000 0.08855000
0.89000000 0.28745000 0.08660000
0.95500000 0.28550000 0.08465000
1.00000000 0.28415000 0.08330000
0.00000000 0.37000000 0.11000000
0.03525000 0.37000000 0.10220000
0.10220000 0.37000000 0.10220000
0.16915000 0.37000000 0.10220000
0.23610000 0.37000000 0.10220000
0.30305000 0.37000000 0.10220000
0.37000000 0.37000000 0.10220000
0.43500000 0.36805000 0.10025000
0.50000000 0.36610000 0.09830000
0.56500000 0.36415000 0.09635000
0.63000000 0.36220000 0.09440000
0.69500000 0.36025000 0.09245000
0.76000000 0.35830000 0.09050000
0.82500000 0.35635000 0.08855000
0.89000000 0.35440000 0.08660000
0.95500000 0.35245000 0.08465000
1.00000000 0.35110000 0.08330000
0.00000000 0.43500000 0.11000000
0.03330000 0.43500000 0.10025000
0.10025000 0.43500000 0.10025000
0.16720000 0.43500000 0.10025000
0.23415000 0.43500000 0.10025000
0.30110000 0.43500000 0.10025000
0.36805000 0.43500000 0.10025000
0.43500000 0.43500000 0.10025000
0.50000000 0.43305000 0.09830000
0.56500000 0.43110000 0.09635000
0.63000000 0.42915000 0.09440000
0.69500000 0.42720000 0.09245000
0.76000000 0.42525000 0.09050000
0.82500000 0.42330000 0.08855000
0.89000000 0.42135000 0.08660000
0.95500000 0.41940000 0.08465000
1.00000000 0.41805000 0.08330000
0.00000000 0.50000000 0.11000000
0.03135000 0.50000000 0.09830000
0.09830000 0.50000000 0.09830000
0.16525000 0.50000000 0.09830000
0.23220000 0.50000000 0.09830000
0.29915000 0.50000000 0.09830000
0.36610000 0.50000000 0.09830000
0.43305000 0.50000000 0.09830000
0.50000000 0.50000000 0.09830000
0.56500000 0.49805000 0.09635000
