recipes/color/anime_clean_v1/anime_clean_v1.cube
TITLE "anime_clean_v1"
LUT_3D_SIZE 9
DOMAIN_MIN 0.0 0.0 0.0
DOMAIN_MAX 1.0 1.0 1.0
0.00000000 0.00000000 0.00000000
0.11000000 0.00000000 0.00000000
0.24000000 0.00000000 0.00000000
0.37000000 0.00000000 0.00000000
0.50000000 0.00000000 0.00000000
0.63000000 0.00000000 0.00000000
0.76000000 0.00000000 0.00000000
0.89000000 0.00000000 0.00000000
1.00000000 0.00000000 0.00000000
0.00000000 0.11000000 0.00000000
0.11000000 0.11000000 0.00000000
0.24000000 0.11000000 0.00000000
0.37000000 0.11000000 0.00000000
0.50000000 0.11000000 0.00000000
0.63000000 0.11000000 0.00000000
0.76000000 0.11000000 0.00000000
0.89000000 0.11000000 0.00000000
1.00000000 0.11000000 0.00000000
0.00000000 0.24000000 0.00000000
0.11000000 0.24000000 0.00000000
0.24000000 0.24000000 0.00000000
0.37000000 0.24000000 0.00000000
0.50000000 0.24000000 0.00000000
0.63000000 0.24000000 0.00000000
0.76000000 0.24000000 0.00000000
0.89000000 0.24000000 0.00000000
1.00000000 0.24000000 0.00000000
0.00000000 0.37000000 0.00000000
0.11000000 0.37000000 0.00000000
0.24000000 0.37000000 0.00000000
0.37000000 0.37000000 0.00000000
0.50000000 0.37000000 0.00000000
0.63000000 0.37000000 0.00000000
0.76000000 0.37000000 0.00000000
0.89000000 0.37000000 0.00000000
1.00000000 0.37000000 0.00000000
0.00000000 0.50000000 0.00000000
0.11000000 0.50000000 0.00000000
0.24000000 0.50000000 0.00000000
0.37000000 0.50000000 0.00000000
0.50000000 0.50000000 0.00000000
0.63000000 0.50000000 0.00000000
0.76000000 0.50000000 0.00000000
0.89000000 0.50000000 0.00000000
1.00000000 0.50000000 0.00000000
0.00000000 0.63000000 0.00000000
0.11000000 0.63000000 0.00000000
0.24000000 0.63000000 0.00000000
0.37000000 0.63000000 0.00000000
0.50000000 0.63000000 0.00000000
0.63000000 0.63000000 0.00000000
0.76000000 0.63000000 0.00000000
0.89000000 0.63000000 0.00000000
1.00000000 0.63000000 0.00000000
0.00000000 0.76000000 0.00000000
0.11000000 0.76000000 0.00000000
0.24000000 0.76000000 0.00000000
0.37000000 0.76000000 0.00000000
0.50000000 0.76000000 0.00000000
0.63000000 0.76000000 0.00000000
0.76000000 0.76000000 0.00000000
0.89000000 0.76000000 0.00000000
1.00000000 0.76000000 0.00000000
0.00000000 0.89000000 0.00000000
0.11000000 0.89000000 0.00000000
0.24000000 0.89000000 0.00000000
0.37000000 0.89000000 0.00000000
0.50000000 0.89000000 0.00000000
0.63000000 0.89000000 0.00000000
0.76000000 0.89000000 0.00000000
0.89000000 0.89000000 0.00000000
1.00000000 0.89000000 0.00000000
0.00000000 1.00000000 0.00000000
0.11000000 1.00000000 0.00000000
0.24000000 1.00000000 0.00000000
0.37000000 1.00000000 0.00000000
0.50000000 1.00000000 0.00000000
0.63000000 1.00000000 0.00000000
0.76000000 1.00000000 0.00000000
0.89000000 1.00000000 0.00000000
1.00000000 1.00000000 0.00000000
0.00000000 0.00000000 0.11000000
0.11000000 0.00000000 0.11000000
0.24000000 0.00000000 0.11000000
0.37000000 0.00000000 0.11000000
0.50000000 0.00000000 0.11000000
0.63000000 0.00000000 0.11000000
0.76000000 0.00000000 0.11000000
0.89000000 0.00000000 0.11000000
1.00000000 0.00000000 0.11000000
0.00000000 0.11000000 0.11000000
0.11000000 0.11000000 0.11000000
0.24000000 0.10610000 0.10610000
0.37000000 0.10220000 0.10220000
0.50000000 0.09830000 0.09830000
0.63000000 0.09440000 0.09440000
0.76000000 0.09050000 0.09050000
0.89000000 0.08660000 0.08660000
1.00000000 0.08330000 0.08330000
0.00000000 0.24000000 0.11000000
0.10610000 0.24000000 0.10610000
0.24000000 0.24000000 0.10610000
0.37000000 0.23610000 0.10220000
0.50000000 0.23220000 0.09830000
0.63000000 0.22830000 0.09440000
0.76000000 0.22440000 0.09050000
0.89000000 0.22050000 0.08660000
1.00000000 0.21720000 0.08330000
0.00000000 0.37000000 0.11000000
0.10220000 0.37000000 0.10220000
0.23610000 0.37000000 0.10220000
0.37000000 0.37000000 0.10220000
0.50000000 0.36610000 0.09830000
0.63000000 0.36220000 0.09440000
0.76000000 0.35830000 0.09050000
0.89000000 0.35440000 0.08660000
1.00000000 0.35110000 0.08330000
0.00000000 0.50000000 0.11000000
0.09830000 0.50000000 0.09830000
0.23220000 0.50000000 0.09830000
0.36610000 0.50000000 0.09830000
0.50000000 0.50000000 0.09830000
0.63000000 0.49610000 0.09440000
0.76000000 0.49220000 0.09050000
0.89000000 0.48830000 0.08660000
1.00000000 0.48500000 0.08330000
0.00000000 0.63000000 0.11000000
0.09440000 0.63000000 0.09440000
0.22830000 0.63000000 0.09440000
0.36220000 0.63000000 0.09440000
0.49610000 0.63000000 0.09440000
0.63000000 0.63000000 0.09440000
0.76000000 0.62610000 0.09050000
0.89000000 0.62220000 0.08660000
1.00000000 0.61890000 0.08330000
0.00000000 0.76000000 0.11000000
0.09050000 0.76000000 0.09050000
0.22440000 0.76000000 0.09050000
0.35830000 0.76000000 0.09050000
0.49220000 0.76000000 0.09050000
0.62610000 0.76000000 0.09050000
0.76000000 0.76000000 0.09050000
0.89000000 0.75610000 0.08660000
1.00000000 0.75280000 0.08330000
0.00000000 0.89000000 0.11000000
0.08660000 0.89000000 0.08660000
0.22050000 0.89000000 0.08660000
0.35440000 0.89000000 0.08660000
0.48830000 0.89000000 0.08660000
0.62220000 0.89000000 0.08660000
0.75610000 0.89000000 0.08660000
0.89000000 0.89000000 0.08660000
1.00000000 0.88670000 0.08330000
0.00000000 1.00000000 0.11000000
0.08330000 1.00000000 0.08330000
0.21720000 1.00000000 0.08330000
0.35110000 1.00000000 0.08330000
0.48500000 1.00000000 0.08330000
0.61890000 1.00000000 0.08330000
0.75280000 1.00000000 0.08330000
0.88670000 1.00000000 0.08330000
1.00000000 1.00000000 0.08330000
0.00000000 0.00000000 0.24000000
0.11000000 0.00000000 0.24000000
0.24000000 0.00000000 0.24000000
0.37000000 0.00000000 0.24000000
0.50000000 0.00000000 0.24000000
0.63000000 0.00000000 0.24000000
0.76000000 0.00000000 0.24000000
0.89000000 0.00000000 0.24000000
1.00000000 0.00000000 0.24000000
0.00000000 0.11000000 0.24000000
0.10610000 0.10610000 0.24000000
0.24000000 0.10610000 0.24000000
0.37000000 0.10220000 0.23610000
0.50000000 0.09830000 0.23220000
0.63000000 0.09440000 0.22830000
0.76000000 0.09050000 0.22440000
0.89000000 0.08660000 0.22050000
1.00000000 0.08330000 0.21720000
0.00000000 0.24000000 0.24000000
0.10610000 0.24000000 0.24000000
0.24000000 0.24000000 0.24000000
0.37000000 0.23610000 0.23610000
0.50000000 0.23220000 0.23220000
0.63000000 0.22830000 0.22830000
0.76000000 0.22440000 0.22440000
0.89000000 0.22050000 0.22050000
1.00000000 0.21720000 0.21720000
0.00000000 0.37000000 0.24000000
0.10220000 0.37000000 0.23610000
0.23610000 0.37000000 0.23610000
0.37000000 0.37000000 0.23610000
0.50000000 0.36610000 0.23220000
0.63000000 0.36220000 0.22830000
0.76000000 0.35830000 0.22440000
0.89000000 0.35440000 0.22050000
1.00000000 0.35110000 0.21720000
0.00000000 0.50000000 0.24000000
0.09830000 0.50000000 0.23220000
0.23220000 0.50000000 0.23220000
0.36610000 0.50000000 0.23220000
0.50000000 0.50000000 0.23220000
0.63000000 0.49610000 0.22830000
0.76000000 0.49220000 0.22440000
0.89000000 0.48830000 0.22050000
1.00000000 0.48500000 0.21720000
0.00000000 0.63000000 0.24000000
0.09440000 0.63000000 0.22830000
0.22830000 0.63000000 0.22830000
0.36220000 0.63000000 0.22830000
0.49610000 0.63000000 0.22830000
0.63000000 0.63000000 0.22830000
0.76000000 0.62610000 0.22440000
0.89000000 0.62220000 0.22050000
1.00000000 0.61890000 0.21720000
0.00000000 0.76000000 0.24000000
0.09050000 0.76000000 0.22440000
0.22440000 0.76000000 0.22440000
0.35830000 0.76000000 0.22440000
0.49220000 0.76000000 0.22440000
0.62610000 0.76000000 0.22440000
0.76000000 0.76000000 0.22440000
0.89000000 0.75610000 0.22050000
1.00000000 0.75280000 0.21720000
0.00000000 0.89000000 0.24000000
0.08660000 0.89000000 0.22050000
0.22050000 0.89000000 0.22050000
0.35440000 0.89000000 0.22050000
0.48830000 0.89000000 0.22050000
0.62220000 0.89000000 0.22050000
0.75610000 0.89000000 0.22050000
0.89000000 0.89000000 0.22050000
1.00000000 0.88670000 0.21720000
0.00000000 1.00000000 0.24000000
0.08330000 1.00000000 0.21720000
0.21720000 1.00000000 0.21720000
0.35110000 1.00000000 0.21720000
0.48500000 1.00000000 0.21720000
0.61890000 1.00000000 0.21720000
0.75280000 1.00000000 0.21720000
0.88670000 1.00000000 0.21720000
1.00000000 1.00000000 0.21720000
0.00000000 0.00000000 0.37000000
0.11000000 0.00000000 0.37000000
0.24000000 0.00000000 0.37000000
0.37000000 0.00000000 0.37000000
0.50000000 0.00000000 0.37000000
0.63000000 0.00000000 0.37000000
0.76000000 0.00000000 0.37000000
0.89000000 0.00000000 0.37000000
1.00000000 0.00000000 0.37000000
0.00000000 0.11000000 0.37000000
0.10220000 0.10220000 0.37000000
0.23610000 0.10220000 0.37000000
0.37000000 0.10220000 0.37000000
0.50000000 0.09830000 0.36610000
0.63000000 0.09440000 0.36220000
0.76000000 0.09050000 0.35830000
0.89000000 0.08660000 0.35440000
1.00000000 0.08330000 0.35110000
0.00000000 0.24000000 0.37000000
0.10220000 0.23610000 0.37000000
0.23610000 0.23610000 0.37000000
0.37000000 0.23610000 0.37000000
0.50000000 0.23220000 0.36610000
0.63000000 0.22830000 0.36220000
0.76000000 0.22440000 0.35830000
0.89000000 0.22050000 0.35440000
1.00000000 0.21720000 0.35110000
0.00000000 0.37000000 0.37000000
0.10220000 0.37000000 0.37000000
0.23610000 0.37000000 0.37000000
0.37000000 0.37000000 0.37000000
0.50000000 0.36610000 0.36610000
0.63000000 0.36220000 0.36220000
0.76000000 0.35830000 0.35830000
0.89000000 0.35440000 0.35440000
1.00000000 0.35110000 0.35110000
0.00000000 0.50000000 0.37000000
0.09830000 0.50000000 0.36610000
0.23220000 0.50000000 0.36610000
0.36610000 0.50000000 0.36610000
0.50000000 0.50000000 0.36610000
0.63000000 0.49610000 0.36220000
0.76000000 0.49220000 0.35830000
0.89000000 0.48830000 0.35440000
1.00000000 0.48500000 0.35110000
0.00000000 0.63000000 0.37000000
0.09440000 0.63000000 0.36220000
0.22830000 0.63000000 0.36220000
0.36220000 0.63000000 0.36220000
0.49610000 0.63000000 0.36220000
0.63000000 0.63000000 0.36220000
0.76000000 0.62610000 0.35830000
0.89000000 0.62220000 0.35440000
1.00000000 0.61890000 0.35110000
0.00000000 0.76000000 0.37000000
0.09050000 0.76000000 0.35830000
0.22440000 0.76000000 0.35830000
0.35830000 0.76000000 0.35830000
0.49220000 0.76000000 0.35830000
0.62610000 0.76000000 0.35830000
0.76000000 0.76000000 0.35830000
0.89000000 0.75610000 0.35440000
1.00000000 0.75280000 0.35110000
0.00000000 0.89000000 0.37000000
0.08660000 0.89000000 0.35440000
0.22050000 0.89000000 0.35440000
0.35440000 0.89000000 0.35440000
0.48830000 0.89000000 0.35440000
0.62220000 0.89000000 0.35440000
0.75610000 0.89000000 0.35440000
0.89000000 0.89000000 0.35440000
1.00000000 0.88670000 0.35110000
0.00000000 1.00000000 0.37000000
0.08330000 1.00000000 0.35110000
0.21720000 1.00000000 0.35110000
0.35110000 1.00000000 0.35110000
0.48500000 1.00000000 0.35110000
0.61890000 1.00000000 0.35110000
0.75280000 1.00000000 0.35110000
0.88670000 1.00000000 0.35110000
1.00000000 1.00000000 0.35110000
0.00000000 0.00000000 0.50000000
0.11000000 0.00000000 0.50000000
0.24000000 0.00000000 0.50000000
0.37000000 0.00000000 0.50000000
0.50000000 0.00000000 0.50000000
0.63000000 0.00000000 0.50000000
0.76000000 0.00000000 0.50000000
0.89000000 0.00000000 0.50000000
1.00000000 0.00000000 0.50000000
0.00000000 0.11000000 0.50000000
0.09830000 0.09830000 0.50000000
0.23220000 0.09830000 0.50000000
0.36610000 0.09830000 0.50000000
0.50000000 0.09830000 0.50000000
0.63000000 0.09440000 0.49610000
0.76000000 0.09050000 0.49220000
0.89000000 0.08660000 0.48830000
1.00000000 0.08330000 0.48500000
0.00000000 0.24000000 0.50000000
0.09830000 0.23220000 0.50000000
0.23220000 0.23220000 0.50000000
0.36610000 0.23220000 0.50000000
0.50000000 0.23220000 0.50000000
0.63000000 0.22830000 0.49610000
0.76000000 0.22440000 0.49220000
0.89000000 0.22050000 0.48830000
1.00000000 0.21720000 0.48500000
0.00000000 0.37000000 0.50000000
0.09830000 0.36610000 0.50000000
0.23220000 0.36610000 0.50000000
0.36610000 0.36610000 0.50000000
0.50000000 0.36610000 0.50000000
0.63000000 0.36220000 0.49610000
0.76000000 0.35830000 0.49220000
0.89000000 0.35440000 0.48830000
1.00000000 0.35110000 0.48500000
0.00000000 0.50000000 0.50000000
0.09830000 0.50000000 0.50000000
0.23220000 0.50000000 0.50000000
0.36610000 0.50000000 0.50000000
0.50000000 0.50000000 0.50000000
0.63000000 0.49610000 0.49610000
0.76000000 0.49220000 0.49220000
0.89000000 0.48830000 0.48830000
1.00000000 0.48500000 0.48500000
0.00000000 0.63000000 0.50000000
0.09440000 0.63000000 0.49610000
0.22830000 0.63000000 0.49610000
0.36220000 0.63000000 0.49610000
0.49610000 0.63000000 0.49610000
0.63000000 0.63000000 0.49610000
0.76000000 0.62610000 0.49220000
0.89000000 0.62220000 0.48830000
1.00000000 0.61890000 0.48500000
0.00000000 0.76000000 0.50000000
0.09050000 0.76000000 0.49220000
0.22440000 0.76000000 0.49220000
0.35830000 0.76000000 0.49220000
0.49220000 0.76000000 0.49220000
0.62610000 0.76000000 0.49220000
0.76000000 0.76000000 0.49220000
0.89000000 0.75610000 0.48830000
1.00000000 0.75280000 0.48500000
0.00000000 0.89000000 0.50000000
0.08660000 0.89000000 0.48830000
0.22050000 0.89000000 0.48830000
0.35440000 0.89000000 0.48830000
0.48830000 0.89000000 0.48830000
0.62220000 0.89000000 0.48830000
0.75610000 0.89000000 0.48830000
0.89000000 0.89000000 0.48830000
1.00000000 0.88670000 0.48500000
0.00000000 1.00000000 0.50000000
0.08330000 1.00000000 0.48500000
0.21720000 1.00000000 0.48500000
0.35110000 1.00000000 0.48500000
0.48500000 1.00000000 0.48500000
0.61890000 1.00000000 0.48500000
0.75280000 1.00000000 0.48500000
0.88670000 1.00000000 0.48500000
1.00000000 1.00000000 0.48500000
0.00000000 0.00000000 0.63000000
0.11000000 0.00000000 0.63000000
0.24000000 0.00000000 0.63000000
0.37000000 0.00000000 0.63000000
0.50000000 0.00000000 0.63000000
0.63000000 0.00000000 0.63000000
0.76000000 0.00000000 0.63000000
0.89000000 0.00000000 0.63000000
1.00000000 0.00000000 0.63000000
0.00000000 0.11000000 0.63000000
0.09440000 0.09440000 0.63000000
0.22830000 0.09440000 0.63000000
0.36220000 0.09440000 0.63000000
0.49610000 0.09440000 0.63000000
0.63000000 0.09440000 0.63000000
0.76000000 0.09050000 0.62610000
0.89000000 0.08660000 0.62220000
1.00000000 0.08330000 0.61890000
0.00000000 0.24000000 0.63000000
0.09440000 0.22830000 0.63000000
0.22830000 0.22830000 0.63000000
0.36220000 0.22830000 0.63000000
0.49610000 0.22830000 0.63000000
0.63000000 0.22830000 0.63000000
0.76000000 0.22440000 0.62610000
0.89000000 0.22050000 0.62220000
1.00000000 0.21720000 0.61890000
0.00000000 0.37000000 0.63000000
0.09440000 0.36220000 0.63000000
0.22830000 0.36220000 0.63000000
0.36220000 0.36220000 0.63000000
0.49610000 0.36220000 0.63000000
0.63000000 0.36220000 0.63000000
0.76000000 0.35830000 0.62610000
0.89000000 0.35440000 0.62220000
1.00000000 0.35110000 0.61890000
0.00000000 0.50000000 0.63000000
0.09440000 0.49610000 0.63000000
0.22830000 0.49610000 0.63000000
0.36220000 0.49610000 0.63000000
0.49610000 0.49610000 0.63000000
0.63000000 0.49610000 0.63000000
0.76000000 0.49220000 0.62610000
0.89000000 0.48830000 0.62220000
1.00000000 0.48500000 0.61890000
0.00000000 0.63000000 0.63000000
0.09440000 0.63000000 0.63000000
0.22830000 0.63000000 0.63000000
0.36220000 0.63000000 0.63000000
0.49610000 0.63000000 0.63000000
0.63000000 0.63000000 0.63000000
0.76000000 0.62610000 0.62610000
0.89000000 0.62220000 0.62220000
1.00000000 0.61890000 0.61890000
0.00000000 0.76000000 0.63000000
0.09050000 0.76000000 0.62610000
0.22440000 0.76000000 0.62610000
0.35830000 0.76000000 0.62610000
0.49220000 0.76000000 0.62610000
0.62610000 0.76000000 0.62610000
0.76000000 0.76000000 0.62610000
0.89000000 0.75610000 0.62220000
1.00000000 0.75280000 0.61890000
0.00000000 0.89000000 0.63000000
0.08660000 0.89000000 0.62220000
0.22050000 0.89000000 0.62220000
0.35440000 0.89000000 0.62220000
0.48830000 0.89000000 0.62220000
0.62220000 0.89000000 0.62220000
0.75610000 0.89000000 0.62220000
0.89000000 0.89000000 0.62220000
1.00000000 0.88670000 0.61890000
0.00000000 1.00000000 0.63000000
0.08330000 1.00000000 0.61890000
0.21720000 1.00000000 0.61890000
0.35110000 1.00000000 0.61890000
0.48500000 1.00000000 0.61890000
0.61890000 1.00000000 0.61890000
0.75280000 1.00000000 0.61890000
0.88670000 1.00000000 0.61890000
1.00000000 1.00000000 0.61890000
0.00000000 0.00000000 0.76000000
0.11000000 0.00000000 0.76000000
0.24000000 0.00000000 0.76000000
0.37000000 0.00000000 0.76000000
0.50000000 0.00000000 0.76000000
0.63000000 0.00000000 0.76000000
0.76000000 0.00000000 0.76000000
0.89000000 0.00000000 0.76000000
1.00000000 0.00000000 0.76000000
0.00000000 0.11000000 0.76000000
0.09050000 0.09050000 0.76000000
0.22440000 0.09050000 0.76000000
0.35830000 0.09050000 0.76000000
0.49220000 0.09050000 0.76000000
0.62610000 0.09050000 0.76000000
0.76000000 0.09050000 0.76000000
0.89000000 0.08660000 0.75610000
1.00000000 0.08330000 0.75280000
0.00000000 0.24000000 0.76000000
0.09050000 0.22440000 0.76000000
0.22440000 0.22440000 0.76000000
0.35830000 0.22440000 0.76000000
0.49220000 0.22440000 0.76000000
0.62610000 0.22440000 0.76000000
0.76000000 0.22440000 0.76000000
0.89000000 0.22050000 0.75610000
1.00000000 0.21720000 0.75280000
0.00000000 0.37000000 0.76000000
0.09050000 0.35830000 0.76000000
0.22440000 0.35830000 0.76000000
0.35830000 0.35830000 0.76000000
0.49220000 0.35830000 0.76000000
0.62610000 0.35830000 0.76000000
0.76000000 0.35830000 0.76000000
0.89000000 0.35440000 0.75610000
1.00000000 0.35110000 0.75280000
0.00000000 0.50000000 0.76000000
0.09050000 0.49220000 0.76000000
0.22440000 0.49220000 0.76000000
0.35830000 0.49220000 0.76000000
0.49220000 0.49220000 0.76000000
0.62610000 0.49220000 0.76000000
0.76000000 0.49220000 0.76000000
0.89000000 0.48830000 0.75610000
1.00000000 0.48500000 0.75280000
0.00000000 0.63000000 0.76000000
0.09050000 0.62610000 0.76000000
0.22440000 0.62610000 0.76000000
0.35830000 0.62610000 0.76000000
0.49220000 0.62610000 0.76000000
0.62610000 0.62610000 0.76000000
0.76000000 0.62610000 0.76000000
0.89000000 0.62220000 0.75610000
1.00000000 0.61890000 0.75280000
0.00000000 0.76000000 0.76000000
0.09050000 0.76000000 0.76000000
0.22440000 0.76000000 0.76000000
0.35830000 0.76000000 0.76000000
0.49220000 0.76000000 0.76000000
0.62610000 0.76000000 0.76000000
0.76000000 0.76000000 0.76000000
0.89000000 0.75610000 0.75610000
1.00000000 0.75280000 0.75280000
0.00000000 0.89000000 0.76000000
0.08660000 0.89000000 0.75610000
0.22050000 0.89000000 0.75610000
0.35440000 0.89000000 0.75610000
0.48830000 0.89000000 0.75610000
0.62220000 0.89000000 0.75610000
0.75610000 0.89000000 0.75610000
0.89000000 0.89000000 0.75610000
1.00000000 0.88670000 0.75280000
0.00000000 1.00000000 0.76000000
0.08330000 1.00000000 0.75280000
0.21720000 1.00000000 0.75280000
0.35110000 1.00000000 0.75280000
0.48500000 1.00000000 0.75280000
0.61890000 1.00000000 0.75280000
0.75280000 1.00000000 0.75280000
0.88670000 1.00000000 0.75280000
1.00000000 1.00000000 0.75280000
0.00000000 0.00000000 0.89000000
0.11000000 0.00000000 0.89000000
0.24000000 0.00000000 0.89000000
0.37000000 0.00000000 0.89000000
0.50000000 0.00000000 0.89000000
0.63000000 0.00000000 0.89000000
0.76000000 0.00000000 0.89000000
0.89000000 0.00000000 0.89000000
1.00000000 0.00000000 0.89000000
0.00000000 0.11000000 0.89000000
0.08660000 0.08660000 0.89000000
0.22050000 0.08660000 0.89000000
0.35440000 0.08660000 0.89000000
0.48830000 0.08660000 0.89000000
0.62220000 0.08660000 0.89000000
0.75610000 0.08660000 0.89000000
0.89000000 0.08660000 0.89000000
1.00000000 0.08330000 0.88670000
0.00000000 0.24000000 0.89000000
0.08660000 0.22050000 0.89000000
0.22050000 0.22050000 0.89000000
0.35440000 0.22050000 0.89000000
0.48830000 0.22050000 0.89000000
0.62220000 0.22050000 0.89000000
0.75610000 0.22050000 0.89000000
0.89000000 0.22050000 0.89000000
1.00000000 0.21720000 0.88670000
0.00000000 0.37000000 0.89000000
0.08660000 0.35440000 0.89000000
0.22050000 0.35440000 0.89000000
0.35440000 0.35440000 0.89000000
0.48830000 0.35440000 0.89000000
0.62220000 0.35440000 0.89000000
0.75610000 0.35440000 0.89000000
0.89000000 0.35440000 0.89000000
1.00000000 0.35110000 0.88670000
0.00000000 0.50000000 0.89000000
0.08660000 0.48830000 0.89000000
0.22050000 0.48830000 0.89000000
0.35440000 0.48830000 0.89000000
0.48830000 0.48830000 0.89000000
0.62220000 0.48830000 0.89000000
0.75610000 0.48830000 0.89000000
0.89000000 0.48830000 0.89000000
1.00000000 0.48500000 0.88670000
0.00000000 0.63000000 0.89000000
0.08660000 0.62220000 0.89000000
0.22050000 0.62220000 0.89000000
0.35440000 0.62220000 0.89000000
0.48830000 0.62220000 0.89000000
0.62220000 0.62220000 0.89000000
0.75610000 0.62220000 0.89000000
0.89000000 0.62220000 0.89000000
1.00000000 0.61890000 0.88670000
0.00000000 0.76000000 0.89000000
0.08660000 0.75610000 0.89000000
0.22050000 0.75610000 0.89000000
0.35440000 0.75610000 0.89000000
0.48830000 0.75610000 0.89000000
0.62220000 0.75610000 0.89000000
0.75610000 0.75610000 0.89000000
0.89000000 0.75610000 0.89000000
1.00000000 0.75280000 0.88670000
0.00000000 0.89000000 0.89000000
0.08660000 0.89000000 0.89000000
0.22050000 0.89000000 0.89000000
0.35440000 0.89000000 0.89000000
0.48830000 0.89000000 0.89000000
0.62220000 0.89000000 0.89000000
0.75610000 0.89000000 0.89000000
0.89000000 0.89000000 0.89000000
1.00000000 0.88670000 0.88670000
0.00000000 1.00000000 0.89000000
0.08330000 1.00000000 0.88670000
0.21720000 1.00000000 0.88670000
0.35110000 1.00000000 0.88670000
0.48500000 1.00000000 0.88670000
0.61890000 1.00000000 0.88670000
0.75280000 1.00000000 0.88670000
0.88670000 1.00000000 0.88670000
1.00000000 1.00000000 0.88670000
0.00000000 0.00000000 1.00000000
0.11000000 0.00000000 1.00000000
0.24000000 0.00000000 1.00000000
0.37000000 0.00000000 1.00000000
0.50000000 0.00000000 1.00000000
0.63000000 0.00000000 1.00000000
0.76000000 0.00000000 1.00000000
0.89000000 0.00000000 1.00000000
1.00000000 0.00000000 1.00000000
0.00000000 0.11000000 1.00000000
0.08330000 0.08330000 1.00000000
0.21720000 0.08330000 1.00000000
0.35110000 0.08330000 1.00000000
0.48500000 0.08330000 1.00000000
0.61890000 0.08330000 1.00000000
0.75280000 0.08330000 1.00000000
0.88670000 0.08330000 1.00000000
1.00000000 0.08330000 1.00000000
0.00000000 0.24000000 1.00000000
0.08330000 0.21720000 1.00000000
0.21720000 0.21720000 1.00000000
0.35110000 0.21720000 1.00000000
0.48500000 0.21720000 1.00000000
0.61890000 0.21720000 1.00000000
0.75280000 0.21720000 1.00000000
0.88670000 0.21720000 1.00000000
1.00000000 0.21720000 1.00000000
0.00000000 0.37000000 1.00000000
0.08330000 0.35110000 1.00000000
0.21720000 0.35110000 1.00000000
0.35110000 0.35110000 1.00000000
0.48500000 0.35110000 1.00000000
0.61890000 0.35110000 1.00000000
0.75280000 0.35110000 1.00000000
0.88670000 0.35110000 1.00000000
1.00000000 0.35110000 1.00000000
0.00000000 0.50000000 1.00000000
0.08330000 0.48500000 1.00000000
0.21720000 0.48500000 1.00000000
0.35110000 0.48500000 1.00000000
0.48500000 0.48500000 1.00000000
0.61890000 0.48500000 1.00000000
0.75280000 0.48500000 1.00000000
0.88670000 0.48500000 1.00000000
1.00000000 0.48500000 1.00000000
0.00000000 0.63000000 1.00000000
0.08330000 0.61890000 1.00000000
0.21720000 0.61890000 1.00000000
0.35110000 0.61890000 1.00000000
0.48500000 0.61890000 1.00000000
0.61890000 0.61890000 1.00000000
0.75280000 0.61890000 1.00000000
0.88670000 0.61890000 1.00000000
1.00000000 0.61890000 1.00000000
0.00000000 0.76000000 1.00000000
0.08330000 0.75280000 1.00000000
0.21720000 0.75280000 1.00000000
0.35110000 0.75280000 1.00000000
0.48500000 0.75280000 1.00000000
0.61890000 0.75280000 1.00000000
0.75280000 0.75280000 1.00000000
0.88670000 0.75280000 1.00000000
1.00000000 0.75280000 1.00000000
0.00000000 0.89000000 1.00000000
0.08330000 0.88670000 1.00000000
0.21720000 0.88670000 1.00000000
0.35110000 0.88670000 1.00000000
0.48500000 0.88670000 1.00000000
0.61890000 0.88670000 1.00000000
0.75280000 0.88670000 1.00000000
0.88670000 0.88670000 1.00000000
1.00000000 0.88670000 1.00000000
0.00000000 1.00000000 1.00000000
0.08330000 1.00000000 1.00000000
0.21720000 1.00000000 1.00000000
0.35110000 1.00000000 1.00000000
0.48500000 1.00000000 1.00000000
0.61890000 1.00000000 1.00000000
0.75280000 1.00000000 1.00000000
0.88670000 1.00000000 1.00000000
1.00000000 1.00000000 1.00000000
