recipes/color/anime_clean_v1/anime_clean_v1.cube
TITLE "anime_clean_v1"
LUT_3D_SIZE 5
DOMAIN_MIN 0.0 0.0 0.0
DOMAIN_MAX 1.0 1.0 1.0
0.00000000 0.00000000 0.00000000
0.24000000 0.00000000 0.00000000
0.50000000 0.00000000 0.00000000
0.76000000 0.00000000 0.00000000
1.00000000 0.00000000 0.00000000
0.00000000 0.24000000 0.00000000
0.24000000 0.24000000 0.00000000
0.50000000 0.24000000 0.00000000
0.76000000 0.24000000 0.00000000
1.00000000 0.24000000 0.00000000
0.00000000 0.50000000 0.00000000
0.24000000 0.50000000 0.00000000
0.50000000 0.50000000 0.00000000
0.76000000 0.50000000 0.00000000
1.00000000 0.50000000 0.00000000
0.00000000 0.76000000 0.00000000
0.24000000 0.76000000 0.00000000
0.50000000 0.76000000 0.00000000
0.76000000 0.76000000 0.00000000
1.00000000 0.76000000 0.00000000
0.00000000 1.00000000 0.00000000
0.24000000 1.00000000 0.00000000
0.50000000 1.00000000 0.00000000
0.76000000 1.00000000 0.00000000
1.00000000 1.00000000 0.00000000
0.00000000 0.00000000 0.24000000
0.24000000 0.00000000 0.24000000
0.50000000 0.00000000 0.24000000
0.76000000 0.00000000 0.24000000
1.00000000 0.00000000 0.24000000
0.00000000 0.24000000 0.24000000
0.24000000 0.24000000 0.24000000
0.50000000 0.23220000 0.23220000
0.76000000 0.22440000 0.22440000
1.00000000 0.21720000 0.21720000
0.00000000 0.50000000 0.24000000
0.23220000 0.50000000 0.23220000
0.50000000 0.50000000 0.23220000
0.76000000 0.49220000 0.22440000
1.00000000 0.48500000 0.21720000
0.00000000 0.76000000 0.24000000
0.22440000 0.76000000 0.22440000
0.49220000 0.76000000 0.22440000
0.76000000 0.76000000 0.22440000
1.00000000 0.75280000 0.21720000
0.00000000 1.00000000 0.24000000
0.21720000 1.00000000 0.21720000
0.48500000 1.00000000 0.21720000
0.75280000 1.00000000 0.21720000
1.00000000 1.00000000 0.21720000
0.00000000 0.00000000 0.50000000
0.24000000 0.00000000 0.50000000
0.50000000 0.00000000 0.50000000
0.76000000 0.00000000 0.50000000
1.00000000 0.00000000 0.50000000
0.00000000 0.24000000 0.50000000
0.23220000 0.23220000 0.50000000
0.50000000 0.23220000 0.50000000
0.76000000 0.22440000 0.49220000
1.00000000 0.21720000 0.48500000
0.00000000 0.50000000 0.50000000
0.23220000 0.50000000 0.50000000
0.50000000 0.50000000 0.50000000
0.76000000 0.49220000 0.49220000
1.00000000 0.48500000 0.48500000
0.00000000 0.76000000 0.50000000
0.22440000 0.76000000 0.49220000
0.49220000 0.76000000 0.49220000
0.76000000 0.76000000 0.49220000
1.00000000 0.75280000 0.48500000
0.00000000 1.00000000 0.50000000
0.21720000 1.00000000 0.48500000
0.48500000 1.00000000 0.48500000
0.75280000 1.00000000 0.48500000
1.00000000 1.00000000 0.48500000
0.00000000 0.00000000 0.76000000
0.24000000 0.00000000 0.76000000
0.50000000 0.00000000 0.76000000
0.76000000 0.00000000 0.76000000
1.00000000 0.00000000 0.76000000
0.00000000 0.24000000 0.76000000
0.22440000 0.22440000 0.76000000
0.49220000 0.22440000 0.76000000
0.76000000 0.22440000 0.76000000
1.00000000 0.21720000 0.75280000
0.00000000 0.50000000 0.76000000
0.22440000 0.49220000 0.76000000
0.49220000 0.49220000 0.76000000
0.76000000 0.49220000 0.76000000
1.00000000 0.48500000 0.75280000
0.00000000 0.76000000 0.76000000
0.22440000 0.76000000 0.76000000
0.49220000 0.76000000 0.76000000
0.76000000 0.76000000 0.76000000
1.00000000 0.75280000 0.75280000
0.00000000 1.00000000 0.76000000
0.21720000 1.00000000 0.75280000
0.48500000 1.00000000 0.75280000
0.75280000 1.00000000 0.75280000
1.00000000 1.00000000 0.75280000
0.00000000 0.00000000 1.00000000
0.24000000 0.00000000 1.00000000
0.50000000 0.00000000 1.00000000
0.76000000 0.00000000 1.00000000
1.00000000 0.00000000 1.00000000
0.00000000 0.24000000 1.00000000
0.21720000 0.21720000 1.00000000
0.48500000 0.21720000 1.00000000
0.75280000 0.21720000 1.00000000
1.00000000 0.21720000 1.00000000
0.00000000 0.50000000 1.00000000
0.21720000 0.48500000 1.00000000
0.48500000 0.48500000 1.00000000
0.75280000 0.48500000 1.00000000
1.00000000 0.48500000 1.00000000
0.00000000 0.76000000 1.00000000
0.21720000 0.75280000 1.00000000
0.48500000 0.75280000 1.00000000
0.75280000 0.75280000 1.00000000
1.00000000 0.75280000 1.00000000
0.00000000 1.00000000 1.00000000
0.21720000 1.00000000 1.00000000
0.48500000 1.00000000 1.00000000
0.75280000 1.00000000 1.00000000
1.00000000 1.00000000 1.00000000
