recipes/color/anime_night_blue_v1/anime_night_blue_v1.cube
TITLE "anime_night_blue_v1"
LUT_3D_SIZE 17
DOMAIN_MIN 0.0 0.0 0.0
DOMAIN_MAX 1.0 1.0 1.0
0.00000000 0.00000000 0.00000000
0.00000000 0.00000000 0.00000000
0.03230000 0.00193800 0.00193800
0.08265000 0.00495900 0.00495900
0.13300000 0.00798000 0.00798000
0.18335000 0.01100100 0.01100100
0.23370000 0.01402200 0.01402200
0.28405000 0.01704300 0.01704300
0.33440000 0.02006400 0.02006400
0.38475000 0.02308500 0.02308500
0.43510000 0.02610600 0.02610600
0.48545000 0.02912700 0.02912700
0.53580000 0.03214800 0.03214800
0.58615000 0.03516900 0.03516900
0.63650000 0.03819000 0.03819000
0.68685000 0.04121100 0.04121100
0.73720000 0.04423200 0.04423200
0.00006600 0.00110000 0.00006600
0.00006600 0.00110000 0.00006600
0.03230000 0.00297200 0.00193800
0.08265000 0.00599300 0.00495900
0.13300000 0.00901400 0.00798000
0.18335000 0.01203500 0.01100100
0.23370000 0.01505600 0.01402200
0.28405000 0.01807700 0.01704300
0.33440000 0.02109800 0.02006400
0.38475000 0.02411900 0.02308500
0.43510000 0.02714000 0.02610600
0.48545000 0.03016100 0.02912700
0.53580000 0.03318200 0.03214800
0.58615000 0.03620300 0.03516900
0.63650000 0.03922400 0.03819000
0.68685000 0.04224500 0.04121100
0.73720000 0.04526600 0.04423200
0.00356400 0.05940000 0.00356400
0.00356400 0.05940000 0.00356400
0.03392600 0.05940000 0.00356400
0.08265000 0.06079500 0.00495900
0.13300000 0.06381600 0.00798000
0.18335000 0.06683700 0.01100100
0.23370000 0.06985800 0.01402200
0.28405000 0.07287900 0.01704300
0.33440000 0.07590000 0.02006400
0.38475000 0.07892100 0.02308500
0.43510000 0.08194200 0.02610600
0.48545000 0.08496300 0.02912700
0.53580000 0.08798400 0.03214800
0.58615000 0.09100500 0.03516900
0.63650000 0.09402600 0.03819000
0.68685000 0.09704700 0.04121100
0.73720000 0.10006800 0.04423200
0.00706200 0.11770000 0.00706200
0.00706200 0.11770000 0.00706200
0.03742400 0.11770000 0.00706200
0.08475300 0.11770000 0.00706200
0.13300000 0.11861800 0.00798000
0.18335000 0.12163900 0.01100100
0.23370000 0.12466000 0.01402200
0.28405000 0.12768100 0.01704300
0.33440000 0.13070200 0.02006400
0.38475000 0.13372300 0.02308500
0.43510000 0.13674400 0.02610600
0.48545000 0.13976500 0.02912700
0.53580000 0.14278600 0.03214800
0.58615000 0.14580700 0.03516900
0.63650000 0.14882800 0.03819000
0.68685000 0.15184900 0.04121100
0.73720000 0.15487000 0.04423200
0.01056000 0.17600000 0.01056000
0.01056000 0.17600000 0.01056000
0.04092200 0.17600000 0.01056000
0.08825100 0.17600000 0.01056000
0.13558000 0.17600000 0.01056000
0.18335000 0.17644100 0.01100100
0.23370000 0.17946200 0.01402200
0.28405000 0.18248300 0.01704300
0.33440000 0.18550400 0.02006400
0.38475000 0.18852500 0.02308500
0.43510000 0.19154600 0.02610600
0.48545000 0.19456700 0.02912700
0.53580000 0.19758800 0.03214800
0.58615000 0.20060900 0.03516900
0.63650000 0.20363000 0.03819000
0.68685000 0.20665100 0.04121100
0.73720000 0.20967200 0.04423200
0.01405800 0.23430000 0.01405800
0.01405800 0.23430000 0.01405800
0.04442000 0.23430000 0.01405800
0.09174900 0.23430000 0.01405800
0.13907800 0.23430000 0.01405800
0.18640700 0.23430000 0.01405800
0.23373600 0.23430000 0.01405800
0.28405000 0.23728500 0.01704300
0.33440000 0.24030600 0.02006400
0.38475000 0.24332700 0.02308500
0.43510000 0.24634800 0.02610600
0.48545000 0.24936900 0.02912700
0.53580000 0.25239000 0.03214800
0.58615000 0.25541100 0.03516900
0.63650000 0.25843200 0.03819000
0.68685000 0.26145300 0.04121100
0.73720000 0.26447400 0.04423200
0.01755600 0.29260000 0.01755600
0.01755600 0.29260000 0.01755600
0.04791800 0.29260000 0.01755600
0.09524700 0.29260000 0.01755600
0.14257600 0.29260000 0.01755600
0.18990500 0.29260000 0.01755600
0.23723400 0.29260000 0.01755600
0.28456300 0.29260000 0.01755600
0.33440000 0.29510800 0.02006400
0.38475000 0.29812900 0.02308500
0.43510000 0.30115000 0.02610600
0.48545000 0.30417100 0.02912700
0.53580000 0.30719200 0.03214800
0.58615000 0.31021300 0.03516900
0.63650000 0.31323400 0.03819000
0.68685000 0.31625500 0.04121100
0.73720000 0.31927600 0.04423200
0.02105400 0.35090000 0.02105400
0.02105400 0.35090000 0.02105400
0.05141600 0.35090000 0.02105400
0.09874500 0.35090000 0.02105400
0.14607400 0.35090000 0.02105400
0.19340300 0.35090000 0.02105400
0.24073200 0.35090000 0.02105400
0.28806100 0.35090000 0.02105400
0.33539000 0.35090000 0.02105400
0.38475000 0.35293100 0.02308500
0.43510000 0.35595200 0.02610600
0.48545000 0.35897300 0.02912700
0.53580000 0.36199400 0.03214800
0.58615000 0.36501500 0.03516900
0.63650000 0.36803600 0.03819000
0.68685000 0.37105700 0.04121100
0.73720000 0.37407800 0.04423200
0.02455200 0.40920000 0.02455200
0.02455200 0.40920000 0.02455200
0.05491400 0.40920000 0.02455200
0.10224300 0.40920000 0.02455200
0.14957200 0.40920000 0.02455200
0.19690100 0.40920000 0.02455200
0.24423000 0.40920000 0.02455200
0.29155900 0.40920000 0.02455200
0.33888800 0.40920000 0.02455200
0.38621700 0.40920000 0.02455200
0.43510000 0.41075400 0.02610600
0.48545000 0.41377500 0.02912700
0.53580000 0.41679600 0.03214800
0.58615000 0.41981700 0.03516900
0.63650000 0.42283800 0.03819000
0.68685000 0.42585900 0.04121100
0.73720000 0.42888000 0.04423200
0.02805000 0.46750000 0.02805000
0.02805000 0.46750000 0.02805000
0.05841200 0.46750000 0.02805000
0.10574100 0.46750000 0.02805000
0.15307000 0.46750000 0.02805000
0.20039900 0.46750000 0.02805000
0.24772800 0.46750000 0.02805000
0.29505700 0.46750000 0.02805000
0.34238600 0.46750000 0.02805000
0.38971500 0.46750000 0.02805000
0.43704400 0.46750000 0.02805000
0.48545000 0.46857700 0.02912700
0.53580000 0.47159800 0.03214800
0.58615000 0.47461900 0.03516900
0.63650000 0.47764000 0.03819000
0.68685000 0.48066100 0.04121100
0.73720000 0.48368200 0.04423200
0.03154800 0.52580000 0.03154800
0.03154800 0.52580000 0.03154800
0.06191000 0.52580000 0.03154800
0.10923900 0.52580000 0.03154800
0.15656800 0.52580000 0.03154800
0.20389700 0.52580000 0.03154800
0.25122600 0.52580000 0.03154800
0.29855500 0.52580000 0.03154800
0.34588400 0.52580000 0.03154800
0.39321300 0.52580000 0.03154800
0.44054200 0.52580000 0.03154800
0.48787100 0.52580000 0.03154800
0.53580000 0.52640000 0.03214800
0.58615000 0.52942100 0.03516900
0.63650000 0.53244200 0.03819000
0.68685000 0.53546300 0.04121100
0.73720000 0.53848400 0.04423200
0.03504600 0.58410000 0.03504600
0.03504600 0.58410000 0.03504600
0.06540800 0.58410000 0.03504600
0.11273700 0.58410000 0.03504600
0.16006600 0.58410000 0.03504600
0.20739500 0.58410000 0.03504600
0.25472400 0.58410000 0.03504600
0.30205300 0.58410000 0.03504600
0.34938200 0.58410000 0.03504600
0.39671100 0.58410000 0.03504600
0.44404000 0.58410000 0.03504600
0.49136900 0.58410000 0.03504600
0.53869800 0.58410000 0.03504600
0.58615000 0.58422300 0.03516900
0.63650000 0.58724400 0.03819000
0.68685000 0.59026500 0.04121100
0.73720000 0.59328600 0.04423200
0.03854400 0.64240000 0.03854400
0.03854400 0.64240000 0.03854400
0.06890600 0.64240000 0.03854400
0.11623500 0.64240000 0.03854400
0.16356400 0.64240000 0.03854400
0.21089300 0.64240000 0.03854400
0.25822200 0.64240000 0.03854400
0.30555100 0.64240000 0.03854400
0.35288000 0.64240000 0.03854400
0.40020900 0.64240000 0.03854400
0.44753800 0.64240000 0.03854400
0.49486700 0.64240000 0.03854400
0.54219600 0.64240000 0.03854400
0.58952500 0.64240000 0.03854400
0.63685400 0.64240000 0.03854400
0.68685000 0.64506700 0.04121100
0.73720000 0.64808800 0.04423200
0.04204200 0.70070000 0.04204200
0.04204200 0.70070000 0.04204200
0.07240400 0.70070000 0.04204200
0.11973300 0.70070000 0.04204200
0.16706200 0.70070000 0.04204200
0.21439100 0.70070000 0.04204200
0.26172000 0.70070000 0.04204200
0.30904900 0.70070000 0.04204200
0.35637800 0.70070000 0.04204200
0.40370700 0.70070000 0.04204200
0.45103600 0.70070000 0.04204200
0.49836500 0.70070000 0.04204200
0.54569400 0.70070000 0.04204200
0.59302300 0.70070000 0.04204200
0.64035200 0.70070000 0.04204200
0.68768100 0.70070000 0.04204200
0.73720000 0.70289000 0.04423200
0.04554000 0.75900000 0.04554000
0.04554000 0.75900000 0.04554000
0.07590200 0.75900000 0.04554000
0.12323100 0.75900000 0.04554000
0.17056000 0.75900000 0.04554000
0.21788900 0.75900000 0.04554000
0.26521800 0.75900000 0.04554000
0.31254700 0.75900000 0.04554000
0.35987600 0.75900000 0.04554000
0.40720500 0.75900000 0.04554000
0.45453400 0.75900000 0.04554000
0.50186300 0.75900000 0.04554000
0.54919200 0.75900000 0.04554000
0.59652100 0.75900000 0.04554000
0.64385000 0.75900000 0.04554000
0.69117900 0.75900000 0.04554000
0.73850800 0.75900000 0.04554000
0.04903800 0.81730000 0.04903800
0.04903800 0.81730000 0.04903800
0.07940000 0.81730000 0.04903800
0.12672900 0.81730000 0.04903800
0.17405800 0.81730000 0.04903800
0.22138700 0.81730000 0.04903800
0.26871600 0.81730000 0.04903800
0.31604500 0.81730000 0.04903800
0.36337400 0.81730000 0.04903800
0.41070300 0.81730000 0.04903800
0.45803200 0.81730000 0.04903800
0.50536100 0.81730000 0.04903800
0.55269000 0.81730000 0.04903800
0.60001900 0.81730000 0.04903800
0.64734800 0.81730000 0.04903800
0.69467700 0.81730000 0.04903800
0.74200600 0.81730000 0.04903800
0.05253600 0.87560000 0.05253600
0.05253600 0.87560000 0.05253600
0.08289800 0.87560000 0.05253600
0.13022700 0.87560000 0.05253600
0.17755600 0.87560000 0.05253600
0.22488500 0.87560000 0.05253600
0.27221400 0.87560000 0.05253600
0.31954300 0.87560000 0.05253600
0.36687200 0.87560000 0.05253600
0.41420100 0.87560000 0.05253600
0.46153000 0.87560000 0.05253600
0.50885900 0.87560000 0.05253600
0.55618800 0.87560000 0.05253600
0.60351700 0.87560000 0.05253600
0.65084600 0.87560000 0.05253600
0.69817500 0.87560000 0.05253600
0.74550400 0.87560000 0.05253600
0.00382200 0.00382200 0.06370000
0.00382200 0.00382200 0.06370000
0.03418400 0.00382200 0.06370000
0.08265000 0.00495900 0.06483700
0.13300000 0.00798000 0.06785800
0.18335000 0.01100100 0.07087900
0.23370000 0.01402200 0.07390000
0.28405000 0.01704300 0.07692100
0.33440000 0.02006400 0.07994200
0.38475000 0.02308500 0.08296300
0.43510000 0.02610600 0.08598400
0.48545000 0.02912700 0.08900500
0.53580000 0.03214800 0.09202600
0.58615000 0.03516900 0.09504700
0.63650000 0.03819000 0.09806800
0.68685000 0.04121100 0.10108900
0.73720000 0.04423200 0.10411000
0.00382200 0.00485600 0.06370000
0.00382200 0.00485600 0.06370000
0.03418400 0.00485600 0.06370000
0.08265000 0.00599300 0.06483700
0.13300000 0.00901400 0.06785800
0.18335000 0.01203500 0.07087900
0.23370000 0.01505600 0.07390000
0.28405000 0.01807700 0.07692100
0.33440000 0.02109800 0.07994200
0.38475000 0.02411900 0.08296300
0.43510000 0.02714000 0.08598400
0.48545000 0.03016100 0.08900500
0.53580000 0.03318200 0.09202600
0.58615000 0.03620300 0.09504700
0.63650000 0.03922400 0.09806800
0.68685000 0.04224500 0.10108900
0.73720000 0.04526600 0.10411000
0.00382200 0.05965800 0.06370000
0.00382200 0.05965800 0.06370000
0.03418400 0.05965800 0.06370000
0.08265000 0.06079500 0.06483700
0.13300000 0.06381600 0.06785800
0.18335000 0.06683700 0.07087900
0.23370000 0.06985800 0.07390000
0.28405000 0.07287900 0.07692100
0.33440000 0.07590000 0.07994200
0.38475000 0.07892100 0.08296300
0.43510000 0.08194200 0.08598400
0.48545000 0.08496300 0.08900500
0.53580000 0.08798400 0.09202600
0.58615000 0.09100500 0.09504700
0.63650000 0.09402600 0.09806800
0.68685000 0.09704700 0.10108900
0.73720000 0.10006800 0.10411000
0.00706200 0.11770000 0.06694000
0.00706200 0.11770000 0.06694000
0.03742400 0.11770000 0.06694000
0.08475300 0.11770000 0.06694000
0.13300000 0.11861800 0.06785800
0.18335000 0.12163900 0.07087900
0.23370000 0.12466000 0.07390000
0.28405000 0.12768100 0.07692100
0.33440000 0.13070200 0.07994200
0.38475000 0.13372300 0.08296300
0.43510000 0.13674400 0.08598400
0.48545000 0.13976500 0.08900500
0.53580000 0.14278600 0.09202600
0.58615000 0.14580700 0.09504700
0.63650000 0.14882800 0.09806800
0.68685000 0.15184900 0.10108900
0.73720000 0.15487000 0.10411000
0.01056000 0.17600000 0.07043800
0.01056000 0.17600000 0.07043800
0.04092200 0.17600000 0.07043800
0.08825100 0.17600000 0.07043800
0.13558000 0.17600000 0.07043800
0.18335000 0.17644100 0.07087900
0.23370000 0.17946200 0.07390000
0.28405000 0.18248300 0.07692100
0.33440000 0.18550400 0.07994200
0.38475000 0.18852500 0.08296300
0.43510000 0.19154600 0.08598400
0.48545000 0.19456700 0.08900500
0.53580000 0.19758800 0.09202600
0.58615000 0.20060900 0.09504700
0.63650000 0.20363000 0.09806800
0.68685000 0.20665100 0.10108900
0.73720000 0.20967200 0.10411000
0.01405800 0.23430000 0.07393600
0.01405800 0.23430000 0.07393600
0.04442000 0.23430000 0.07393600
0.09174900 0.23430000 0.07393600
0.13907800 0.23430000 0.07393600
0.18640700 0.23430000 0.07393600
0.23373600 0.23430000 0.07393600
0.28405000 0.23728500 0.07692100
0.33440000 0.24030600 0.07994200
0.38475000 0.24332700 0.08296300
0.43510000 0.24634800 0.08598400
0.48545000 0.24936900 0.08900500
0.53580000 0.25239000 0.09202600
0.58615000 0.25541100 0.09504700
0.63650000 0.25843200 0.09806800
0.68685000 0.26145300 0.10108900
0.73720000 0.26447400 0.10411000
0.01755600 0.29260000 0.07743400
0.01755600 0.29260000 0.07743400
0.04791800 0.29260000 0.07743400
0.09524700 0.29260000 0.07743400
0.14257600 0.29260000 0.07743400
0.18990500 0.29260000 0.07743400
0.23723400 0.29260000 0.07743400
0.28456300 0.29260000 0.07743400
0.33440000 0.29510800 0.07994200
0.38475000 0.29812900 0.08296300
0.43510000 0.30115000 0.08598400
0.48545000 0.30417100 0.08900500
0.53580000 0.30719200 0.09202600
0.58615000 0.31021300 0.09504700
0.63650000 0.31323400 0.09806800
0.68685000 0.31625500 0.10108900
0.73720000 0.31927600 0.10411000
0.02105400 0.35090000 0.08093200
0.02105400 0.35090000 0.08093200
0.05141600 0.35090000 0.08093200
0.09874500 0.35090000 0.08093200
0.14607400 0.35090000 0.08093200
0.19340300 0.35090000 0.08093200
0.24073200 0.35090000 0.08093200
0.28806100 0.35090000 0.08093200
0.33539000 0.35090000 0.08093200
0.38475000 0.35293100 0.08296300
0.43510000 0.35595200 0.08598400
0.48545000 0.35897300 0.08900500
0.53580000 0.36199400 0.09202600
0.58615000 0.36501500 0.09504700
0.63650000 0.36803600 0.09806800
0.68685000 0.37105700 0.10108900
0.73720000 0.37407800 0.10411000
0.02455200 0.40920000 0.08443000
0.02455200 0.40920000 0.08443000
0.05491400 0.40920000 0.08443000
0.10224300 0.40920000 0.08443000
0.14957200 0.40920000 0.08443000
0.19690100 0.40920000 0.08443000
0.24423000 0.40920000 0.08443000
0.29155900 0.40920000 0.08443000
0.33888800 0.40920000 0.08443000
0.38621700 0.40920000 0.08443000
0.43510000 0.41075400 0.08598400
0.48545000 0.41377500 0.08900500
0.53580000 0.41679600 0.09202600
0.58615000 0.41981700 0.09504700
0.63650000 0.42283800 0.09806800
0.68685000 0.42585900 0.10108900
0.73720000 0.42888000 0.10411000
0.02805000 0.46750000 0.08792800
0.02805000 0.46750000 0.08792800
0.05841200 0.46750000 0.08792800
0.10574100 0.46750000 0.08792800
0.15307000 0.46750000 0.08792800
0.20039900 0.46750000 0.08792800
0.24772800 0.46750000 0.08792800
0.29505700 0.46750000 0.08792800
0.34238600 0.46750000 0.08792800
0.38971500 0.46750000 0.08792800
0.43704400 0.46750000 0.08792800
0.48545000 0.46857700 0.08900500
0.53580000 0.47159800 0.09202600
0.58615000 0.47461900 0.09504700
0.63650000 0.47764000 0.09806800
0.68685000 0.48066100 0.10108900
0.73720000 0.48368200 0.10411000
0.03154800 0.52580000 0.09142600
0.03154800 0.52580000 0.09142600
0.06191000 0.52580000 0.09142600
0.10923900 0.52580000 0.09142600
0.15656800 0.52580000 0.09142600
0.20389700 0.52580000 0.09142600
0.25122600 0.52580000 0.09142600
0.29855500 0.52580000 0.09142600
0.34588400 0.52580000 0.09142600
0.39321300 0.52580000 0.09142600
0.44054200 0.52580000 0.09142600
0.48787100 0.52580000 0.09142600
0.53580000 0.52640000 0.09202600
0.58615000 0.52942100 0.09504700
0.63650000 0.53244200 0.09806800
0.68685000 0.53546300 0.10108900
0.73720000 0.53848400 0.10411000
0.03504600 0.58410000 0.09492400
0.03504600 0.58410000 0.09492400
0.06540800 0.58410000 0.09492400
0.11273700 0.58410000 0.09492400
0.16006600 0.58410000 0.09492400
0.20739500 0.58410000 0.09492400
0.25472400 0.58410000 0.09492400
0.30205300 0.58410000 0.09492400
0.34938200 0.58410000 0.09492400
0.39671100 0.58410000 0.09492400
0.44404000 0.58410000 0.09492400
0.49136900 0.58410000 0.09492400
0.53869800 0.58410000 0.09492400
0.58615000 0.58422300 0.09504700
0.63650000 0.58724400 0.09806800
0.68685000 0.59026500 0.10108900
0.73720000 0.59328600 0.10411000
0.03854400 0.64240000 0.09842200
0.03854400 0.64240000 0.09842200
0.06890600 0.64240000 0.09842200
0.11623500 0.64240000 0.09842200
0.16356400 0.64240000 0.09842200
0.21089300 0.64240000 0.09842200
0.25822200 0.64240000 0.09842200
0.30555100 0.64240000 0.09842200
0.35288000 0.64240000 0.09842200
0.40020900 0.64240000 0.09842200
0.44753800 0.64240000 0.09842200
0.49486700 0.64240000 0.09842200
0.54219600 0.64240000 0.09842200
0.58952500 0.64240000 0.09842200
0.63685400 0.64240000 0.09842200
0.68685000 0.64506700 0.10108900
0.73720000 0.64808800 0.10411000
0.04204200 0.70070000 0.10192000
0.04204200 0.70070000 0.10192000
0.07240400 0.70070000 0.10192000
0.11973300 0.70070000 0.10192000
0.16706200 0.70070000 0.10192000
0.21439100 0.70070000 0.10192000
0.26172000 0.70070000 0.10192000
0.30904900 0.70070000 0.10192000
0.35637800 0.70070000 0.10192000
0.40370700 0.70070000 0.10192000
0.45103600 0.70070000 0.10192000
0.49836500 0.70070000 0.10192000
0.54569400 0.70070000 0.10192000
0.59302300 0.70070000 0.10192000
0.64035200 0.70070000 0.10192000
0.68768100 0.70070000 0.10192000
0.73720000 0.70289000 0.10411000
0.04554000 0.75900000 0.10541800
0.04554000 0.75900000 0.10541800
0.07590200 0.75900000 0.10541800
0.12323100 0.75900000 0.10541800
0.17056000 0.75900000 0.10541800
0.21788900 0.75900000 0.10541800
0.26521800 0.75900000 0.10541800
0.31254700 0.75900000 0.10541800
0.35987600 0.75900000 0.10541800
0.40720500 0.75900000 0.10541800
0.45453400 0.75900000 0.10541800
0.50186300 0.75900000 0.10541800
0.54919200 0.75900000 0.10541800
0.59652100 0.75900000 0.10541800
0.64385000 0.75900000 0.10541800
0.69117900 0.75900000 0.10541800
0.73850800 0.75900000 0.10541800
0.04903800 0.81730000 0.10891600
0.04903800 0.81730000 0.10891600
0.07940000 0.81730000 0.10891600
0.12672900 0.81730000 0.10891600
0.17405800 0.81730000 0.10891600
0.22138700 0.81730000 0.10891600
0.26871600 0.81730000 0.10891600
0.31604500 0.81730000 0.10891600
0.36337400 0.81730000 0.10891600
0.41070300 0.81730000 0.10891600
0.45803200 0.81730000 0.10891600
0.50536100 0.81730000 0.10891600
0.55269000 0.81730000 0.10891600
0.60001900 0.81730000 0.10891600
0.64734800 0.81730000 0.10891600
0.69467700 0.81730000 0.10891600
0.74200600 0.81730000 0.10891600
0.05253600 0.87560000 0.11241400
0.05253600 0.87560000 0.11241400
0.08289800 0.87560000 0.11241400
0.13022700 0.87560000 0.11241400
0.17755600 0.87560000 0.11241400
0.22488500 0.87560000 0.11241400
0.27221400 0.87560000 0.11241400
0.31954300 0.87560000 0.11241400
0.36687200 0.87560000 0.11241400
0.41420100 0.87560000 0.11241400
0.46153000 0.87560000 0.11241400
0.50885900 0.87560000 0.11241400
0.55618800 0.87560000 0.11241400
0.60351700 0.87560000 0.11241400
0.65084600 0.87560000 0.11241400
0.69817500 0.87560000 0.11241400
0.74550400 0.87560000 0.11241400
0.00795600 0.00795600 0.13260000
0.00795600 0.00795600 0.13260000
0.03831800 0.00795600 0.13260000
0.08564700 0.00795600 0.13260000
0.13300000 0.00798000 0.13262400
0.18335000 0.01100100 0.13564500
0.23370000 0.01402200 0.13866600
0.28405000 0.01704300 0.14168700
0.33440000 0.02006400 0.14470800
0.38475000 0.02308500 0.14772900
0.43510000 0.02610600 0.15075000
0.48545000 0.02912700 0.15377100
0.53580000 0.03214800 0.15679200
0.58615000 0.03516900 0.15981300
0.63650000 0.03819000 0.16283400
0.68685000 0.04121100 0.16585500
0.73720000 0.04423200 0.16887600
0.00795600 0.00899000 0.13260000
0.00795600 0.00899000 0.13260000
0.03831800 0.00899000 0.13260000
0.08564700 0.00899000 0.13260000
0.13300000 0.00901400 0.13262400
0.18335000 0.01203500 0.13564500
0.23370000 0.01505600 0.13866600
0.28405000 0.01807700 0.14168700
0.33440000 0.02109800 0.14470800
0.38475000 0.02411900 0.14772900
0.43510000 0.02714000 0.15075000
0.48545000 0.03016100 0.15377100
0.53580000 0.03318200 0.15679200
0.58615000 0.03620300 0.15981300
0.63650000 0.03922400 0.16283400
0.68685000 0.04224500 0.16585500
0.73720000 0.04526600 0.16887600
0.00795600 0.06379200 0.13260000
0.00795600 0.06379200 0.13260000
0.03831800 0.06379200 0.13260000
0.08564700 0.06379200 0.13260000
0.13300000 0.06381600 0.13262400
0.18335000 0.06683700 0.13564500
0.23370000 0.06985800 0.13866600
0.28405000 0.07287900 0.14168700
0.33440000 0.07590000 0.14470800
0.38475000 0.07892100 0.14772900
0.43510000 0.08194200 0.15075000
0.48545000 0.08496300 0.15377100
0.53580000 0.08798400 0.15679200
0.58615000 0.09100500 0.15981300
0.63650000 0.09402600 0.16283400
0.68685000 0.09704700 0.16585500
0.73720000 0.10006800 0.16887600
0.00795600 0.11859400 0.13260000
0.00795600 0.11859400 0.13260000
0.03831800 0.11859400 0.13260000
0.08564700 0.11859400 0.13260000
0.13300000 0.11861800 0.13262400
0.18335000 0.12163900 0.13564500
0.23370000 0.12466000 0.13866600
0.28405000 0.12768100 0.14168700
0.33440000 0.13070200 0.14470800
0.38475000 0.13372300 0.14772900
0.43510000 0.13674400 0.15075000
0.48545000 0.13976500 0.15377100
0.53580000 0.14278600 0.15679200
0.58615000 0.14580700 0.15981300
0.63650000 0.14882800 0.16283400
0.68685000 0.15184900 0.16585500
0.73720000 0.15487000 0.16887600
0.01056000 0.17600000 0.13520400
0.01056000 0.17600000 0.13520400
0.04092200 0.17600000 0.13520400
0.08825100 0.17600000 0.13520400
0.13558000 0.17600000 0.13520400
0.18335000 0.17644100 0.13564500
0.23370000 0.17946200 0.13866600
0.28405000 0.18248300 0.14168700
0.33440000 0.18550400 0.14470800
0.38475000 0.18852500 0.14772900
0.43510000 0.19154600 0.15075000
0.48545000 0.19456700 0.15377100
0.53580000 0.19758800 0.15679200
0.58615000 0.20060900 0.15981300
0.63650000 0.20363000 0.16283400
0.68685000 0.20665100 0.16585500
0.73720000 0.20967200 0.16887600
0.01405800 0.23430000 0.13870200
0.01405800 0.23430000 0.13870200
0.04442000 0.23430000 0.13870200
0.09174900 0.23430000 0.13870200
0.13907800 0.23430000 0.13870200
0.18640700 0.23430000 0.13870200
0.23373600 0.23430000 0.13870200
0.28405000 0.23728500 0.14168700
0.33440000 0.24030600 0.14470800
0.38475000 0.24332700 0.14772900
0.43510000 0.24634800 0.15075000
0.48545000 0.24936900 0.15377100
0.53580000 0.25239000 0.15679200
0.58615000 0.25541100 0.15981300
0.63650000 0.25843200 0.16283400
0.68685000 0.26145300 0.16585500
0.73720000 0.26447400 0.16887600
0.01755600 0.29260000 0.14220000
0.01755600 0.29260000 0.14220000
0.04791800 0.29260000 0.14220000
0.09524700 0.29260000 0.14220000
0.14257600 0.29260000 0.14220000
0.18990500 0.29260000 0.14220000
0.23723400 0.29260000 0.14220000
0.28456300 0.29260000 0.14220000
0.33440000 0.29510800 0.14470800
0.38475000 0.29812900 0.14772900
0.43510000 0.30115000 0.15075000
0.48545000 0.30417100 0.15377100
0.53580000 0.30719200 0.15679200
0.58615000 0.31021300 0.15981300
0.63650000 0.31323400 0.16283400
0.68685000 0.31625500 0.16585500
0.73720000 0.31927600 0.16887600
0.02105400 0.35090000 0.14569800
0.02105400 0.35090000 0.14569800
0.05141600 0.35090000 0.14569800
0.09874500 0.35090000 0.14569800
0.14607400 0.35090000 0.14569800
0.19340300 0.35090000 0.14569800
0.24073200 0.35090000 0.14569800
0.28806100 0.35090000 0.14569800
0.33539000 0.35090000 0.14569800
0.38475000 0.35293100 0.14772900
0.43510000 0.35595200 0.15075000
0.48545000 0.35897300 0.15377100
0.53580000 0.36199400 0.15679200
0.58615000 0.36501500 0.15981300
0.63650000 0.36803600 0.16283400
0.68685000 0.37105700 0.16585500
0.73720000 0.37407800 0.16887600
0.02455200 0.40920000 0.14919600
0.02455200 0.40920000 0.14919600
0.05491400 0.40920000 0.14919600
0.10224300 0.40920000 0.14919600
0.14957200 0.40920000 0.14919600
0.19690100 0.40920000 0.14919600
0.24423000 0.40920000 0.14919600
0.29155900 0.40920000 0.14919600
0.33888800 0.40920000 0.14919600
0.38621700 0.40920000 0.14919600
