recipes/color/anime_night_blue_v1/anime_night_blue_v1.cube
TITLE "anime_night_blue_v1"
LUT_3D_SIZE 9
DOMAIN_MIN 0.0 0.0 0.0
DOMAIN_MAX 1.0 1.0 1.0
0.00000000 0.00000000 0.00000000
0.03230000 0.00193800 0.00193800
0.13300000 0.00798000 0.00798000
0.23370000 0.01402200 0.01402200
0.33440000 0.02006400 0.02006400
0.43510000 0.02610600 0.02610600
0.53580000 0.03214800 0.03214800
0.63650000 0.03819000 0.03819000
0.73720000 0.04423200 0.04423200
0.00356400 0.05940000 0.00356400
0.03392600 0.05940000 0.00356400
0.13300000 0.06381600 0.00798000
0.23370000 0.06985800 0.01402200
0.33440000 0.07590000 0.02006400
0.43510000 0.08194200 0.02610600
0.53580000 0.08798400 0.03214800
0.63650000 0.09402600 0.03819000
0.73720000 0.10006800 0.04423200
0.01056000 0.17600000 0.01056000
0.04092200 0.17600000 0.01056000
0.13558000 0.17600000 0.01056000
0.23370000 0.17946200 0.01402200
0.33440000 0.18550400 0.02006400
0.43510000 0.19154600 0.02610600
0.53580000 0.19758800 0.03214800
0.63650000 0.20363000 0.03819000
0.73720000 0.20967200 0.04423200
0.01755600 0.29260000 0.01755600
0.04791800 0.29260000 0.01755600
0.14257600 0.29260000 0.01755600
0.23723400 0.29260000 0.01755600
0.33440000 0.29510800 0.02006400
0.43510000 0.30115000 0.02610600
0.53580000 0.30719200 0.03214800
0.63650000 0.31323400 0.03819000
0.73720000 0.31927600 0.04423200
0.02455200 0.40920000 0.02455200
0.05491400 0.40920000 0.02455200
0.14957200 0.40920000 0.02455200
0.24423000 0.40920000 0.02455200
0.33888800 0.40920000 0.02455200
0.43510000 0.41075400 0.02610600
0.53580000 0.41679600 0.03214800
0.63650000 0.42283800 0.03819000
0.73720000 0.42888000 0.04423200
0.03154800 0.52580000 0.03154800
0.06191000 0.52580000 0.03154800
0.15656800 0.52580000 0.03154800
0.25122600 0.52580000 0.03154800
0.34588400 0.52580000 0.03154800
0.44054200 0.52580000 0.03154800
0.53580000 0.52640000 0.03214800
0.63650000 0.53244200 0.03819000
0.73720000 0.53848400 0.04423200
0.03854400 0.64240000 0.03854400
0.06890600 0.64240000 0.03854400
0.16356400 0.64240000 0.03854400
0.25822200 0.64240000 0.03854400
0.35288000 0.64240000 0.03854400
0.44753800 0.64240000 0.03854400
0.54219600 0.64240000 0.03854400
0.63685400 0.64240000 0.03854400
0.73720000 0.64808800 0.04423200
0.04554000 0.75900000 0.04554000
0.07590200 0.75900000 0.04554000
0.17056000 0.75900000 0.04554000
0.26521800 0.75900000 0.04554000
0.35987600 0.75900000 0.04554000
0.45453400 0.75900000 0.04554000
0.54919200 0.75900000 0.04554000
0.64385000 0.75900000 0.04554000
0.73850800 0.75900000 0.04554000
0.05253600 0.87560000 0.05253600
0.08289800 0.87560000 0.05253600
0.17755600 0.87560000 0.05253600
0.27221400 0.87560000 0.05253600
0.36687200 0.87560000 0.05253600
0.46153000 0.87560000 0.05253600
0.55618800 0.87560000 0.05253600
0.65084600 0.87560000 0.05253600
0.74550400 0.87560000 0.05253600
0.00795600 0.00795600 0.13260000
0.03831800 0.00795600 0.13260000
0.13300000 0.00798000 0.13262400
0.23370000 0.01402200 0.13866600
0.33440000 0.02006400 0.14470800
0.43510000 0.02610600 0.15075000
0.53580000 0.03214800 0.15679200
0.63650000 0.03819000 0.16283400
0.73720000 0.04423200 0.16887600
0.00795600 0.06379200 0.13260000
0.03831800 0.06379200 0.13260000
0.13300000 0.06381600 0.13262400
0.23370000 0.06985800 0.13866600
0.33440000 0.07590000 0.14470800
0.43510000 0.08194200 0.15075000
0.53580000 0.08798400 0.15679200
0.63650000 0.09402600 0.16283400
0.73720000 0.10006800 0.16887600
0.01056000 0.17600000 0.13520400
0.04092200 0.17600000 0.13520400
0.13558000 0.17600000 0.13520400
0.23370000 0.17946200 0.13866600
0.33440000 0.18550400 0.14470800
0.43510000 0.19154600 0.15075000
0.53580000 0.19758800 0.15679200
0.63650000 0.20363000 0.16283400
0.73720000 0.20967200 0.16887600
0.01755600 0.29260000 0.14220000
0.04791800 0.29260000 0.14220000
0.14257600 0.29260000 0.14220000
0.23723400 0.29260000 0.14220000
0.33440000 0.29510800 0.14470800
0.43510000 0.30115000 0.15075000
0.53580000 0.30719200 0.15679200
0.63650000 0.31323400 0.16283400
0.73720000 0.31927600 0.16887600
0.02455200 0.40920000 0.14919600
0.05491400 0.40920000 0.14919600
0.14957200 0.40920000 0.14919600
0.24423000 0.40920000 0.14919600
0.33888800 0.40920000 0.14919600
0.43510000 0.41075400 0.15075000
0.53580000 0.41679600 0.15679200
0.63650000 0.42283800 0.16283400
0.73720000 0.42888000 0.16887600
0.03154800 0.52580000 0.15619200
0.06191000 0.52580000 0.15619200
0.15656800 0.52580000 0.15619200
0.25122600 0.52580000 0.15619200
0.34588400 0.52580000 0.15619200
0.44054200 0.52580000 0.15619200
0.53580000 0.52640000 0.15679200
0.63650000 0.53244200 0.16283400
0.73720000 0.53848400 0.16887600
0.03854400 0.64240000 0.16318800
0.06890600 0.64240000 0.16318800
0.16356400 0.64240000 0.16318800
0.25822200 0.64240000 0.16318800
0.35288000 0.64240000 0.16318800
0.44753800 0.64240000 0.16318800
0.54219600 0.64240000 0.16318800
0.63685400 0.64240000 0.16318800
0.73720000 0.64808800 0.16887600
0.04554000 0.75900000 0.17018400
0.07590200 0.75900000 0.17018400
0.17056000 0.75900000 0.17018400
0.26521800 0.75900000 0.17018400
0.35987600 0.75900000 0.17018400
0.45453400 0.75900000 0.17018400
0.54919200 0.75900000 0.17018400
0.64385000 0.75900000 0.17018400
0.73850800 0.75900000 0.17018400
0.05253600 0.87560000 0.17718000
0.08289800 0.87560000 0.17718000
0.17755600 0.87560000 0.17718000
0.27221400 0.87560000 0.17718000
0.36687200 0.87560000 0.17718000
0.46153000 0.87560000 0.17718000
0.55618800 0.87560000 0.17718000
0.65084600 0.87560000 0.17718000
0.74550400 0.87560000 0.17718000
0.01622400 0.01622400 0.27040000
0.04658600 0.01622400 0.27040000
0.14124400 0.01622400 0.27040000
0.23590200 0.01622400 0.27040000
0.33440000 0.02006400 0.27424000
0.43510000 0.02610600 0.28028200
0.53580000 0.03214800 0.28632400
0.63650000 0.03819000 0.29236600
0.73720000 0.04423200 0.29840800
0.01622400 0.07206000 0.27040000
0.04658600 0.07206000 0.27040000
0.14124400 0.07206000 0.27040000
0.23590200 0.07206000 0.27040000
0.33440000 0.07590000 0.27424000
0.43510000 0.08194200 0.28028200
0.53580000 0.08798400 0.28632400
0.63650000 0.09402600 0.29236600
0.73720000 0.10006800 0.29840800
0.01622400 0.18166400 0.27040000
0.04658600 0.18166400 0.27040000
0.14124400 0.18166400 0.27040000
0.23590200 0.18166400 0.27040000
0.33440000 0.18550400 0.27424000
0.43510000 0.19154600 0.28028200
0.53580000 0.19758800 0.28632400
0.63650000 0.20363000 0.29236600
0.73720000 0.20967200 0.29840800
0.01755600 0.29260000 0.27173200
0.04791800 0.29260000 0.27173200
0.14257600 0.29260000 0.27173200
0.23723400 0.29260000 0.27173200
0.33440000 0.29510800 0.27424000
0.43510000 0.30115000 0.28028200
0.53580000 0.30719200 0.28632400
0.63650000 0.31323400 0.29236600
0.73720000 0.31927600 0.29840800
0.02455200 0.40920000 0.27872800
0.05491400 0.40920000 0.27872800
0.14957200 0.40920000 0.27872800
0.24423000 0.40920000 0.27872800
0.33888800 0.40920000 0.27872800
0.43510000 0.41075400 0.28028200
0.53580000 0.41679600 0.28632400
0.63650000 0.42283800 0.29236600
0.73720000 0.42888000 0.29840800
0.03154800 0.52580000 0.28572400
0.06191000 0.52580000 0.28572400
0.15656800 0.52580000 0.28572400
0.25122600 0.52580000 0.28572400
0.34588400 0.52580000 0.28572400
0.44054200 0.52580000 0.28572400
0.53580000 0.52640000 0.28632400
0.63650000 0.53244200 0.29236600
0.73720000 0.53848400 0.29840800
0.03854400 0.64240000 0.29272000
0.06890600 0.64240000 0.29272000
0.16356400 0.64240000 0.29272000
0.25822200 0.64240000 0.29272000
0.35288000 0.64240000 0.29272000
0.44753800 0.64240000 0.29272000
0.54219600 0.64240000 0.29272000
0.63685400 0.64240000 0.29272000
0.73720000 0.64808800 0.29840800
0.04554000 0.75900000 0.29971600
0.07590200 0.75900000 0.29971600
0.17056000 0.75900000 0.29971600
0.26521800 0.75900000 0.29971600
0.35987600 0.75900000 0.29971600
0.45453400 0.75900000 0.29971600
0.54919200 0.75900000 0.29971600
0.64385000 0.75900000 0.29971600
0.73850800 0.75900000 0.29971600
0.05253600 0.87560000 0.30671200
0.08289800 0.87560000 0.30671200
0.17755600 0.87560000 0.30671200
0.27221400 0.87560000 0.30671200
0.36687200 0.87560000 0.30671200
0.46153000 0.87560000 0.30671200
0.55618800 0.87560000 0.30671200
0.65084600 0.87560000 0.30671200
0.74550400 0.87560000 0.30671200
0.02449200 0.02449200 0.40820000
0.05485400 0.02449200 0.40820000
0.14951200 0.02449200 0.40820000
0.24417000 0.02449200 0.40820000
0.33882800 0.02449200 0.40820000
0.43510000 0.02610600 0.40981400
0.53580000 0.03214800 0.41585600
0.63650000 0.03819000 0.42189800
0.73720000 0.04423200 0.42794000
0.02449200 0.08032800 0.40820000
0.05485400 0.08032800 0.40820000
0.14951200 0.08032800 0.40820000
0.24417000 0.08032800 0.40820000
0.33882800 0.08032800 0.40820000
0.43510000 0.08194200 0.40981400
0.53580000 0.08798400 0.41585600
0.63650000 0.09402600 0.42189800
0.73720000 0.10006800 0.42794000
0.02449200 0.18993200 0.40820000
0.05485400 0.18993200 0.40820000
0.14951200 0.18993200 0.40820000
0.24417000 0.18993200 0.40820000
0.33882800 0.18993200 0.40820000
0.43510000 0.19154600 0.40981400
0.53580000 0.19758800 0.41585600
0.63650000 0.20363000 0.42189800
0.73720000 0.20967200 0.42794000
0.02449200 0.29953600 0.40820000
0.05485400 0.29953600 0.40820000
0.14951200 0.29953600 0.40820000
0.24417000 0.29953600 0.40820000
0.33882800 0.29953600 0.40820000
0.43510000 0.30115000 0.40981400
0.53580000 0.30719200 0.41585600
0.63650000 0.31323400 0.42189800
0.73720000 0.31927600 0.42794000
0.02455200 0.40920000 0.40826000
0.05491400 0.40920000 0.40826000
0.14957200 0.40920000 0.40826000
0.24423000 0.40920000 0.40826000
0.33888800 0.40920000 0.40826000
0.43510000 0.41075400 0.40981400
0.53580000 0.41679600 0.41585600
0.63650000 0.42283800 0.42189800
0.73720000 0.42888000 0.42794000
0.03154800 0.52580000 0.41525600
0.06191000 0.52580000 0.41525600
0.15656800 0.52580000 0.41525600
0.25122600 0.52580000 0.41525600
0.34588400 0.52580000 0.41525600
0.44054200 0.52580000 0.41525600
0.53580000 0.52640000 0.41585600
0.63650000 0.53244200 0.42189800
0.73720000 0.53848400 0.42794000
0.03854400 0.64240000 0.42225200
0.06890600 0.64240000 0.42225200
0.16356400 0.64240000 0.42225200
0.25822200 0.64240000 0.42225200
0.35288000 0.64240000 0.42225200
0.44753800 0.64240000 0.42225200
0.54219600 0.64240000 0.42225200
0.63685400 0.64240000 0.42225200
0.73720000 0.64808800 0.42794000
0.04554000 0.75900000 0.42924800
0.07590200 0.75900000 0.42924800
0.17056000 0.75900000 0.42924800
0.26521800 0.75900000 0.42924800
0.35987600 0.75900000 0.42924800
0.45453400 0.75900000 0.42924800
0.54919200 0.75900000 0.42924800
0.64385000 0.75900000 0.42924800
0.73850800 0.75900000 0.42924800
0.05253600 0.87560000 0.43624400
0.08289800 0.87560000 0.43624400
0.17755600 0.87560000 0.43624400
0.27221400 0.87560000 0.43624400
0.36687200 0.87560000 0.43624400
0.46153000 0.87560000 0.43624400
0.55618800 0.87560000 0.43624400
0.65084600 0.87560000 0.43624400
0.74550400 0.87560000 0.43624400
0.03276000 0.03276000 0.54600000
0.06312200 0.03276000 0.54600000
0.15778000 0.03276000 0.54600000
0.25243800 0.03276000 0.54600000
0.34709600 0.03276000 0.54600000
0.44175400 0.03276000 0.54600000
0.53641200 0.03276000 0.54600000
0.63650000 0.03819000 0.55143000
0.73720000 0.04423200 0.55747200
0.03276000 0.08859600 0.54600000
0.06312200 0.08859600 0.54600000
0.15778000 0.08859600 0.54600000
0.25243800 0.08859600 0.54600000
0.34709600 0.08859600 0.54600000
0.44175400 0.08859600 0.54600000
0.53641200 0.08859600 0.54600000
0.63650000 0.09402600 0.55143000
0.73720000 0.10006800 0.55747200
0.03276000 0.19820000 0.54600000
0.06312200 0.19820000 0.54600000
0.15778000 0.19820000 0.54600000
0.25243800 0.19820000 0.54600000
0.34709600 0.19820000 0.54600000
0.44175400 0.19820000 0.54600000
0.53641200 0.19820000 0.54600000
0.63650000 0.20363000 0.55143000
0.73720000 0.20967200 0.55747200
0.03276000 0.30780400 0.54600000
0.06312200 0.30780400 0.54600000
0.15778000 0.30780400 0.54600000
0.25243800 0.30780400 0.54600000
0.34709600 0.30780400 0.54600000
0.44175400 0.30780400 0.54600000
0.53641200 0.30780400 0.54600000
0.63650000 0.31323400 0.55143000
0.73720000 0.31927600 0.55747200
0.03276000 0.41740800 0.54600000
0.06312200 0.41740800 0.54600000
0.15778000 0.41740800 0.54600000
0.25243800 0.41740800 0.54600000
0.34709600 0.41740800 0.54600000
0.44175400 0.41740800 0.54600000
0.53641200 0.41740800 0.54600000
0.63650000 0.42283800 0.55143000
0.73720000 0.42888000 0.55747200
0.03276000 0.52701200 0.54600000
0.06312200 0.52701200 0.54600000
0.15778000 0.52701200 0.54600000
0.25243800 0.52701200 0.54600000
0.34709600 0.52701200 0.54600000
0.44175400 0.52701200 0.54600000
0.53641200 0.52701200 0.54600000
0.63650000 0.53244200 0.55143000
0.73720000 0.53848400 0.55747200
0.03854400 0.64240000 0.55178400
0.06890600 0.64240000 0.55178400
0.16356400 0.64240000 0.55178400
0.25822200 0.64240000 0.55178400
0.35288000 0.64240000 0.55178400
0.44753800 0.64240000 0.55178400
0.54219600 0.64240000 0.55178400
0.63685400 0.64240000 0.55178400
0.73720000 0.64808800 0.55747200
0.04554000 0.75900000 0.55878000
0.07590200 0.75900000 0.55878000
0.17056000 0.75900000 0.55878000
0.26521800 0.75900000 0.55878000
0.35987600 0.75900000 0.55878000
0.45453400 0.75900000 0.55878000
0.54919200 0.75900000 0.55878000
0.64385000 0.75900000 0.55878000
0.73850800 0.75900000 0.55878000
0.05253600 0.87560000 0.56577600
0.08289800 0.87560000 0.56577600
0.17755600 0.87560000 0.56577600
0.27221400 0.87560000 0.56577600
0.36687200 0.87560000 0.56577600
0.46153000 0.87560000 0.56577600
0.55618800 0.87560000 0.56577600
0.65084600 0.87560000 0.56577600
0.74550400 0.87560000 0.56577600
0.04102800 0.04102800 0.68380000
0.07139000 0.04102800 0.68380000
0.16604800 0.04102800 0.68380000
0.26070600 0.04102800 0.68380000
0.35536400 0.04102800 0.68380000
0.45002200 0.04102800 0.68380000
0.54468000 0.04102800 0.68380000
0.63933800 0.04102800 0.68380000
0.73720000 0.04423200 0.68700400
0.04102800 0.09686400 0.68380000
0.07139000 0.09686400 0.68380000
0.16604800 0.09686400 0.68380000
0.26070600 0.09686400 0.68380000
0.35536400 0.09686400 0.68380000
0.45002200 0.09686400 0.68380000
0.54468000 0.09686400 0.68380000
0.63933800 0.09686400 0.68380000
0.73720000 0.10006800 0.68700400
0.04102800 0.20646800 0.68380000
0.07139000 0.20646800 0.68380000
0.16604800 0.20646800 0.68380000
0.26070600 0.20646800 0.68380000
0.35536400 0.20646800 0.68380000
0.45002200 0.20646800 0.68380000
0.54468000 0.20646800 0.68380000
0.63933800 0.20646800 0.68380000
0.73720000 0.20967200 0.68700400
0.04102800 0.31607200 0.68380000
0.07139000 0.31607200 0.68380000
0.16604800 0.31607200 0.68380000
0.26070600 0.31607200 0.68380000
0.35536400 0.31607200 0.68380000
0.45002200 0.31607200 0.68380000
0.54468000 0.31607200 0.68380000
0.63933800 0.31607200 0.68380000
0.73720000 0.31927600 0.68700400
0.04102800 0.42567600 0.68380000
0.07139000 0.42567600 0.68380000
0.16604800 0.42567600 0.68380000
0.26070600 0.42567600 0.68380000
0.35536400 0.42567600 0.68380000
0.45002200 0.42567600 0.68380000
0.54468000 0.42567600 0.68380000
0.63933800 0.42567600 0.68380000
0.73720000 0.42888000 0.68700400
0.04102800 0.53528000 0.68380000
0.07139000 0.53528000 0.68380000
0.16604800 0.53528000 0.68380000
0.26070600 0.53528000 0.68380000
0.35536400 0.53528000 0.68380000
0.45002200 0.53528000 0.68380000
0.54468000 0.53528000 0.68380000
0.63933800 0.53528000 0.68380000
0.73720000 0.53848400 0.68700400
0.04102800 0.64488400 0.68380000
0.07139000 0.64488400 0.68380000
0.16604800 0.64488400 0.68380000
0.26070600 0.64488400 0.68380000
0.35536400 0.64488400 0.68380000
0.45002200 0.64488400 0.68380000
0.54468000 0.64488400 0.68380000
0.63933800 0.64488400 0.68380000
0.73720000 0.64808800 0.68700400
0.04554000 0.75900000 0.68831200
0.07590200 0.75900000 0.68831200
0.17056000 0.75900000 0.68831200
0.26521800 0.75900000 0.68831200
0.35987600 0.75900000 0.68831200
0.45453400 0.75900000 0.68831200
0.54919200 0.75900000 0.68831200
0.64385000 0.75900000 0.68831200
0.73850800 0.75900000 0.68831200
0.05253600 0.87560000 0.69530800
0.08289800 0.87560000 0.69530800
0.17755600 0.87560000 0.69530800
0.27221400 0.87560000 0.69530800
0.36687200 0.87560000 0.69530800
0.46153000 0.87560000 0.69530800
0.55618800 0.87560000 0.69530800
0.65084600 0.87560000 0.69530800
0.74550400 0.87560000 0.69530800
0.04929600 0.04929600 0.82160000
0.07965800 0.04929600 0.82160000
0.17431600 0.04929600 0.82160000
0.26897400 0.04929600 0.82160000
0.36363200 0.04929600 0.82160000
0.45829000 0.04929600 0.82160000
0.55294800 0.04929600 0.82160000
0.64760600 0.04929600 0.82160000
0.74226400 0.04929600 0.82160000
0.04929600 0.10513200 0.82160000
0.07965800 0.10513200 0.82160000
0.17431600 0.10513200 0.82160000
0.26897400 0.10513200 0.82160000
0.36363200 0.10513200 0.82160000
0.45829000 0.10513200 0.82160000
0.55294800 0.10513200 0.82160000
0.64760600 0.10513200 0.82160000
0.74226400 0.10513200 0.82160000
0.04929600 0.21473600 0.82160000
0.07965800 0.21473600 0.82160000
0.17431600 0.21473600 0.82160000
0.26897400 0.21473600 0.82160000
0.36363200 0.21473600 0.82160000
0.45829000 0.21473600 0.82160000
0.55294800 0.21473600 0.82160000
0.64760600 0.21473600 0.82160000
0.74226400 0.21473600 0.82160000
0.04929600 0.32434000 0.82160000
0.07965800 0.32434000 0.82160000
0.17431600 0.32434000 0.82160000
0.26897400 0.32434000 0.82160000
0.36363200 0.32434000 0.82160000
0.45829000 0.32434000 0.82160000
0.55294800 0.32434000 0.82160000
0.64760600 0.32434000 0.82160000
0.74226400 0.32434000 0.82160000
0.04929600 0.43394400 0.82160000
0.07965800 0.43394400 0.82160000
0.17431600 0.43394400 0.82160000
0.26897400 0.43394400 0.82160000
0.36363200 0.43394400 0.82160000
0.45829000 0.43394400 0.82160000
0.55294800 0.43394400 0.82160000
0.64760600 0.43394400 0.82160000
0.74226400 0.43394400 0.82160000
0.04929600 0.54354800 0.82160000
0.07965800 0.54354800 0.82160000
0.17431600 0.54354800 0.82160000
0.26897400 0.54354800 0.82160000
0.36363200 0.54354800 0.82160000
0.45829000 0.54354800 0.82160000
0.55294800 0.54354800 0.82160000
0.64760600 0.54354800 0.82160000
0.74226400 0.54354800 0.82160000
0.04929600 0.65315200 0.82160000
0.07965800 0.65315200 0.82160000
0.17431600 0.65315200 0.82160000
0.26897400 0.65315200 0.82160000
0.36363200 0.65315200 0.82160000
0.45829000 0.65315200 0.82160000
0.55294800 0.65315200 0.82160000
0.64760600 0.65315200 0.82160000
0.74226400 0.65315200 0.82160000
0.04929600 0.76275600 0.82160000
0.07965800 0.76275600 0.82160000
0.17431600 0.76275600 0.82160000
0.26897400 0.76275600 0.82160000
0.36363200 0.76275600 0.82160000
0.45829000 0.76275600 0.82160000
0.55294800 0.76275600 0.82160000
0.64760600 0.76275600 0.82160000
0.74226400 0.76275600 0.82160000
0.05253600 0.87560000 0.82484000
0.08289800 0.87560000 0.82484000
0.17755600 0.87560000 0.82484000
0.27221400 0.87560000 0.82484000
0.36687200 0.87560000 0.82484000
0.46153000 0.87560000 0.82484000
0.55618800 0.87560000 0.82484000
0.65084600 0.87560000 0.82484000
0.74550400 0.87560000 0.82484000
0.05756400 0.05756400 0.95940000
0.08792600 0.05756400 0.95940000
0.18258400 0.05756400 0.95940000
0.27724200 0.05756400 0.95940000
0.37190000 0.05756400 0.95940000
0.46655800 0.05756400 0.95940000
0.56121600 0.05756400 0.95940000
0.65587400 0.05756400 0.95940000
0.75053200 0.05756400 0.95940000
0.05756400 0.11340000 0.95940000
0.08792600 0.11340000 0.95940000
0.18258400 0.11340000 0.95940000
0.27724200 0.11340000 0.95940000
0.37190000 0.11340000 0.95940000
0.46655800 0.11340000 0.95940000
0.56121600 0.11340000 0.95940000
0.65587400 0.11340000 0.95940000
0.75053200 0.11340000 0.95940000
0.05756400 0.22300400 0.95940000
0.08792600 0.22300400 0.95940000
0.18258400 0.22300400 0.95940000
0.27724200 0.22300400 0.95940000
0.37190000 0.22300400 0.95940000
0.46655800 0.22300400 0.95940000
0.56121600 0.22300400 0.95940000
0.65587400 0.22300400 0.95940000
0.75053200 0.22300400 0.95940000
0.05756400 0.33260800 0.95940000
0.08792600 0.33260800 0.95940000
0.18258400 0.33260800 0.95940000
0.27724200 0.33260800 0.95940000
0.37190000 0.33260800 0.95940000
0.46655800 0.33260800 0.95940000
0.56121600 0.33260800 0.95940000
0.65587400 0.33260800 0.95940000
0.75053200 0.33260800 0.95940000
0.05756400 0.44221200 0.95940000
0.08792600 0.44221200 0.95940000
0.18258400 0.44221200 0.95940000
0.27724200 0.44221200 0.95940000
0.37190000 0.44221200 0.95940000
0.46655800 0.44221200 0.95940000
0.56121600 0.44221200 0.95940000
0.65587400 0.44221200 0.95940000
0.75053200 0.44221200 0.95940000
0.05756400 0.55181600 0.95940000
0.08792600 0.55181600 0.95940000
0.18258400 0.55181600 0.95940000
0.27724200 0.55181600 0.95940000
0.37190000 0.55181600 0.95940000
0.46655800 0.55181600 0.95940000
0.56121600 0.55181600 0.95940000
0.65587400 0.55181600 0.95940000
0.75053200 0.55181600 0.95940000
0.05756400 0.66142000 0.95940000
0.08792600 0.66142000 0.95940000
0.18258400 0.66142000 0.95940000
0.27724200 0.66142000 0.95940000
0.37190000 0.66142000 0.95940000
0.46655800 0.66142000 0.95940000
0.56121600 0.66142000 0.95940000
0.65587400 0.66142000 0.95940000
0.75053200 0.66142000 0.95940000
0.05756400 0.77102400 0.95940000
0.08792600 0.77102400 0.95940000
0.18258400 0.77102400 0.95940000
0.27724200 0.77102400 0.95940000
0.37190000 0.77102400 0.95940000
0.46655800 0.77102400 0.95940000
0.56121600 0.77102400 0.95940000
0.65587400 0.77102400 0.95940000
0.75053200 0.77102400 0.95940000
0.05756400 0.88062800 0.95940000
0.08792600 0.88062800 0.95940000
0.18258400 0.88062800 0.95940000
0.27724200 0.88062800 0.95940000
0.37190000 0.88062800 0.95940000
0.46655800 0.88062800 0.95940000
0.56121600 0.88062800 0.95940000
0.65587400 0.88062800 0.95940000
0.75053200 0.88062800 0.95940000
0.06000000 0.06000000 1.00000000
0.09036200 0.06000000 1.00000000
0.18502000 0.06000000 1.00000000
0.27967800 0.06000000 1.00000000
0.37433600 0.06000000 1.00000000
0.46899400 0.06000000 1.00000000
0.56365200 0.06000000 1.00000000
0.65831000 0.06000000 1.00000000
0.75296800 0.06000000 1.00000000
0.06000000 0.11583600 1.00000000
0.09036200 0.11583600 1.00000000
0.18502000 0.11583600 1.00000000
0.27967800 0.11583600 1.00000000
0.37433600 0.11583600 1.00000000
0.46899400 0.11583600 1.00000000
0.56365200 0.11583600 1.00000000
0.65831000 0.11583600 1.00000000
0.75296800 0.11583600 1.00000000
0.06000000 0.22544000 1.00000000
0.09036200 0.22544000 1.00000000
0.18502000 0.22544000 1.00000000
0.27967800 0.22544000 1.00000000
0.37433600 0.22544000 1.00000000
0.46899400 0.22544000 1.00000000
0.56365200 0.22544000 1.00000000
0.65831000 0.22544000 1.00000000
0.75296800 0.22544000 1.00000000
0.06000000 0.33504400 1.00000000
0.09036200 0.33504400 1.00000000
0.18502000 0.33504400 1.00000000
0.27967800 0.33504400 1.00000000
0.37433600 0.33504400 1.00000000
0.46899400 0.33504400 1.00000000
0.56365200 0.33504400 1.00000000
0.65831000 0.33504400 1.00000000
0.75296800 0.33504400 1.00000000
0.06000000 0.44464800 1.00000000
0.09036200 0.44464800 1.00000000
0.18502000 0.44464800 1.00000000
0.27967800 0.44464800 1.00000000
0.37433600 0.44464800 1.00000000
0.46899400 0.44464800 1.00000000
0.56365200 0.44464800 1.00000000
0.65831000 0.44464800 1.00000000
0.75296800 0.44464800 1.00000000
0.06000000 0.55425200 1.00000000
0.09036200 0.55425200 1.00000000
0.18502000 0.55425200 1.00000000
0.27967800 0.55425200 1.00000000
0.37433600 0.55425200 1.00000000
0.46899400 0.55425200 1.00000000
0.56365200 0.55425200 1.00000000
0.65831000 0.55425200 1.00000000
0.75296800 0.55425200 1.00000000
0.06000000 0.66385600 1.00000000
0.09036200 0.66385600 1.00000000
0.18502000 0.66385600 1.00000000
0.27967800 0.66385600 1.00000000
0.37433600 0.66385600 1.00000000
0.46899400 0.66385600 1.00000000
0.56365200 0.66385600 1.00000000
0.65831000 0.66385600 1.00000000
0.75296800 0.66385600 1.00000000
0.06000000 0.77346000 1.00000000
0.09036200 0.77346000 1.00000000
0.18502000 0.77346000 1.00000000
0.27967800 0.77346000 1.00000000
0.37433600 0.77346000 1.00000000
0.46899400 0.77346000 1.00000000
0.56365200 0.77346000 1.00000000
0.65831000 0.77346000 1.00000000
0.75296800 0.77346000 1.00000000
0.06000000 0.88306400 1.00000000
0.09036200 0.88306400 1.00000000
0.18502000 0.88306400 1.00000000
0.27967800 0.88306400 1.00000000
0.37433600 0.88306400 1.00000000
0.46899400 0.88306400 1.00000000
0.56365200 0.88306400 1.00000000
0.65831000 0.88306400 1.00000000
0.75296800 0.88306400 1.00000000
