recipes/color/anime_night_blue_v1/anime_night_blue_v1.cube
TITLE "anime_night_blue_v1"
LUT_3D_SIZE 5
DOMAIN_MIN 0.0 0.0 0.0
DOMAIN_MAX 1.0 1.0 1.0
0.00000000 0.00000000 0.00000000
0.13300000 0.00798000 0.00798000
0.33440000 0.02006400 0.02006400
0.53580000 0.03214800 0.03214800
0.73720000 0.04423200 0.04423200
0.01056000 0.17600000 0.01056000
0.13558000 0.17600000 0.01056000
0.33440000 0.18550400 0.02006400
0.53580000 0.19758800 0.03214800
0.73720000 0.20967200 0.04423200
0.02455200 0.40920000 0.02455200
0.14957200 0.40920000 0.02455200
0.33888800 0.40920000 0.02455200
0.53580000 0.41679600 0.03214800
0.73720000 0.42888000 0.04423200
0.03854400 0.64240000 0.03854400
0.16356400 0.64240000 0.03854400
0.35288000 0.64240000 0.03854400
0.54219600 0.64240000 0.03854400
0.73720000 0.64808800 0.04423200
0.05253600 0.87560000 0.05253600
0.17755600 0.87560000 0.05253600
0.36687200 0.87560000 0.05253600
0.55618800 0.87560000 0.05253600
0.74550400 0.87560000 0.05253600
0.01622400 0.01622400 0.27040000
0.14124400 0.01622400 0.27040000
0.33440000 0.02006400 0.27424000
0.53580000 0.03214800 0.28632400
0.73720000 0.04423200 0.29840800
0.01622400 0.18166400 0.27040000
0.14124400 0.18166400 0.27040000
0.33440000 0.18550400 0.27424000
0.53580000 0.19758800 0.28632400
0.73720000 0.20967200 0.29840800
0.02455200 0.40920000 0.27872800
0.14957200 0.40920000 0.27872800
0.33888800 0.40920000 0.27872800
0.53580000 0.41679600 0.28632400
0.73720000 0.42888000 0.29840800
0.03854400 0.64240000 0.29272000
0.16356400 0.64240000 0.29272000
0.35288000 0.64240000 0.29272000
0.54219600 0.64240000 0.29272000
0.73720000 0.64808800 0.29840800
0.05253600 0.87560000 0.30671200
0.17755600 0.87560000 0.30671200
0.36687200 0.87560000 0.30671200
0.55618800 0.87560000 0.30671200
0.74550400 0.87560000 0.30671200
0.03276000 0.03276000 0.54600000
0.15778000 0.03276000 0.54600000
0.34709600 0.03276000 0.54600000
0.53641200 0.03276000 0.54600000
0.73720000 0.04423200 0.55747200
0.03276000 0.19820000 0.54600000
0.15778000 0.19820000 0.54600000
0.34709600 0.19820000 0.54600000
0.53641200 0.19820000 0.54600000
0.73720000 0.20967200 0.55747200
0.03276000 0.41740800 0.54600000
0.15778000 0.41740800 0.54600000
0.34709600 0.41740800 0.54600000
0.53641200 0.41740800 0.54600000
0.73720000 0.42888000 0.55747200
0.03854400 0.64240000 0.55178400
0.16356400 0.64240000 0.55178400
0.35288000 0.64240000 0.55178400
0.54219600 0.64240000 0.55178400
0.73720000 0.64808800 0.55747200
0.05253600 0.87560000 0.56577600
0.17755600 0.87560000 0.56577600
0.36687200 0.87560000 0.56577600
0.55618800 0.87560000 0.56577600
0.74550400 0.87560000 0.56577600
0.04929600 0.04929600 0.82160000
0.17431600 0.04929600 0.82160000
0.36363200 0.04929600 0.82160000
0.55294800 0.04929600 0.82160000
0.74226400 0.04929600 0.82160000
0.04929600 0.21473600 0.82160000
0.17431600 0.21473600 0.82160000
0.36363200 0.21473600 0.82160000
0.55294800 0.21473600 0.82160000
0.74226400 0.21473600 0.82160000
0.04929600 0.43394400 0.82160000
0.17431600 0.43394400 0.82160000
0.36363200 0.43394400 0.82160000
0.55294800 0.43394400 0.82160000
0.74226400 0.43394400 0.82160000
0.04929600 0.65315200 0.82160000
0.17431600 0.65315200 0.82160000
0.36363200 0.65315200 0.82160000
0.55294800 0.65315200 0.82160000
0.74226400 0.65315200 0.82160000
0.05253600 0.87560000 0.82484000
0.17755600 0.87560000 0.82484000
0.36687200 0.87560000 0.82484000
0.55618800 0.87560000 0.82484000
0.74550400 0.87560000 0.82484000
0.06000000 0.06000000 1.00000000
0.18502000 0.06000000 1.00000000
0.37433600 0.06000000 1.00000000
0.56365200 0.06000000 1.00000000
0.75296800 0.06000000 1.00000000
0.06000000 0.22544000 1.00000000
0.18502000 0.22544000 1.00000000
0.37433600 0.22544000 1.00000000
0.56365200 0.22544000 1.00000000
0.75296800 0.22544000 1.00000000
0.06000000 0.44464800 1.00000000
0.18502000 0.44464800 1.00000000
0.37433600 0.44464800 1.00000000
0.56365200 0.44464800 1.00000000
0.75296800 0.44464800 1.00000000
0.06000000 0.66385600 1.00000000
0.18502000 0.66385600 1.00000000
0.37433600 0.66385600 1.00000000
0.56365200 0.66385600 1.00000000
0.75296800 0.66385600 1.00000000
0.06000000 0.88306400 1.00000000
0.18502000 0.88306400 1.00000000
0.37433600 0.88306400 1.00000000
0.56365200 0.88306400 1.00000000
0.75296800 0.88306400 1.00000000
