recipes/color/anime_high_contrast_v1/anime_high_contrast_v1.cube
TITLE "anime_high_contrast_v1"
LUT_3D_SIZE 9
DOMAIN_MIN 0.0 0.0 0.0
DOMAIN_MAX 1.0 1.0 1.0
0.00000000 0.00000000 0.00000000
0.06950000 0.00000000 0.00000000
0.21700000 0.00000000 0.00000000
0.36450000 0.00000000 0.00000000
0.51200000 0.00000000 0.00000000
0.65950000 0.00000000 0.00000000
0.80700000 0.00000000 0.00000000
0.95450000 0.00000000 0.00000000
1.00000000 0.00000000 0.00000000
0.00000000 0.06950000 0.00000000
0.06950000 0.06950000 0.00000000
0.21700000 0.06950000 0.00000000
0.36450000 0.06950000 0.00000000
0.51200000 0.06950000 0.00000000
0.65950000 0.06950000 0.00000000
0.80700000 0.06950000 0.00000000
0.95450000 0.06950000 0.00000000
1.00000000 0.06950000 0.00000000
0.00000000 0.21700000 0.00000000
0.06950000 0.21700000 0.00000000
0.21700000 0.21700000 0.00000000
0.36450000 0.21700000 0.00000000
0.51200000 0.21700000 0.00000000
0.65950000 0.21700000 0.00000000
0.80700000 0.21700000 0.00000000
0.95450000 0.21700000 0.00000000
1.00000000 0.21700000 0.00000000
0.00000000 0.36450000 0.00000000
0.06950000 0.36450000 0.00000000
0.21700000 0.36450000 0.00000000
0.36450000 0.36450000 0.00000000
0.51200000 0.36450000 0.00000000
0.65950000 0.36450000 0.00000000
0.80700000 0.36450000 0.00000000
0.95450000 0.36450000 0.00000000
1.00000000 0.36450000 0.00000000
0.00000000 0.51200000 0.00000000
0.06950000 0.51200000 0.00000000
0.21700000 0.51200000 0.00000000
0.36450000 0.51200000 0.00000000
0.51200000 0.51200000 0.00000000
0.65950000 0.51200000 0.00000000
0.80700000 0.51200000 0.00000000
0.95450000 0.51200000 0.00000000
1.00000000 0.51200000 0.00000000
0.00000000 0.65950000 0.00000000
0.06950000 0.65950000 0.00000000
0.21700000 0.65950000 0.00000000
0.36450000 0.65950000 0.00000000
0.51200000 0.65950000 0.00000000
0.65950000 0.65950000 0.00000000
0.80700000 0.65950000 0.00000000
0.95450000 0.65950000 0.00000000
1.00000000 0.65950000 0.00000000
0.00000000 0.80700000 0.00000000
0.06950000 0.80700000 0.00000000
0.21700000 0.80700000 0.00000000
0.36450000 0.80700000 0.00000000
0.51200000 0.80700000 0.00000000
0.65950000 0.80700000 0.00000000
0.80700000 0.80700000 0.00000000
0.95450000 0.80700000 0.00000000
1.00000000 0.80700000 0.00000000
0.00000000 0.95450000 0.00000000
0.06950000 0.95450000 0.00000000
0.21700000 0.95450000 0.00000000
0.36450000 0.95450000 0.00000000
0.51200000 0.95450000 0.00000000
0.65950000 0.95450000 0.00000000
0.80700000 0.95450000 0.00000000
0.95450000 0.95450000 0.00000000
1.00000000 0.95450000 0.00000000
0.00000000 1.00000000 0.00000000
0.06950000 1.00000000 0.00000000
0.21700000 1.00000000 0.00000000
0.36450000 1.00000000 0.00000000
0.51200000 1.00000000 0.00000000
0.65950000 1.00000000 0.00000000
0.80700000 1.00000000 0.00000000
0.95450000 1.00000000 0.00000000
1.00000000 1.00000000 0.00000000
0.00000000 0.00000000 0.06950000
0.06950000 0.00000000 0.06950000
0.21700000 0.00000000 0.06950000
0.36450000 0.00000000 0.06950000
0.51200000 0.00000000 0.06950000
0.65950000 0.00000000 0.06950000
0.80700000 0.00000000 0.06950000
0.95450000 0.00000000 0.06950000
1.00000000 0.00000000 0.06950000
0.00000000 0.06950000 0.06950000
0.06950000 0.06950000 0.06950000
0.21700000 0.05770000 0.05770000
0.36450000 0.04590000 0.04590000
0.51200000 0.03410000 0.03410000
0.65950000 0.02230000 0.02230000
0.80700000 0.01050000 0.01050000
0.95450000 0.00000000 0.00000000
1.00000000 0.00000000 0.00000000
0.00000000 0.21700000 0.06950000
0.05770000 0.21700000 0.05770000
0.21700000 0.21700000 0.05770000
0.36450000 0.20520000 0.04590000
0.51200000 0.19340000 0.03410000
0.65950000 0.18160000 0.02230000
0.80700000 0.16980000 0.01050000
0.95450000 0.15908333 0.00000000
1.00000000 0.15851693 0.00000000
0.00000000 0.36450000 0.06950000
0.04590000 0.36450000 0.04590000
0.20520000 0.36450000 0.04590000
0.36450000 0.36450000 0.04590000
0.51200000 0.35270000 0.03410000
0.65950000 0.34090000 0.02230000
0.80700000 0.32910000 0.01050000
0.95450000 0.31816667 0.00000000
1.00000000 0.31703385 0.00000000
0.00000000 0.51200000 0.06950000
0.03410000 0.51200000 0.03410000
0.19340000 0.51200000 0.03410000
0.35270000 0.51200000 0.03410000
0.51200000 0.51200000 0.03410000
0.65950000 0.50020000 0.02230000
0.80700000 0.48840000 0.01050000
0.95450000 0.47725000 0.00000000
1.00000000 0.47555078 0.00000000
0.00000000 0.65950000 0.06950000
0.02230000 0.65950000 0.02230000
0.18160000 0.65950000 0.02230000
0.34090000 0.65950000 0.02230000
0.50020000 0.65950000 0.02230000
0.65950000 0.65950000 0.02230000
0.80700000 0.64770000 0.01050000
0.95450000 0.63633333 0.00000000
1.00000000 0.63406771 0.00000000
0.00000000 0.80700000 0.06950000
0.01050000 0.80700000 0.01050000
0.16980000 0.80700000 0.01050000
0.32910000 0.80700000 0.01050000
0.48840000 0.80700000 0.01050000
0.64770000 0.80700000 0.01050000
0.80700000 0.80700000 0.01050000
0.95450000 0.79541667 0.00000000
1.00000000 0.79258463 0.00000000
0.00000000 0.95450000 0.06950000
0.00000000 0.95450000 0.00000000
0.15908333 0.95450000 0.00000000
0.31816667 0.95450000 0.00000000
0.47725000 0.95450000 0.00000000
0.63633333 0.95450000 0.00000000
0.79541667 0.95450000 0.00000000
0.95450000 0.95450000 0.00000000
1.00000000 0.95110156 0.00000000
0.00000000 1.00000000 0.06950000
0.00000000 1.00000000 0.00000000
0.15851693 1.00000000 0.00000000
0.31703385 1.00000000 0.00000000
0.47555078 1.00000000 0.00000000
0.63406771 1.00000000 0.00000000
0.79258463 1.00000000 0.00000000
0.95110156 1.00000000 0.00000000
1.00000000 1.00000000 0.00000000
0.00000000 0.00000000 0.21700000
0.06950000 0.00000000 0.21700000
0.21700000 0.00000000 0.21700000
0.36450000 0.00000000 0.21700000
0.51200000 0.00000000 0.21700000
0.65950000 0.00000000 0.21700000
0.80700000 0.00000000 0.21700000
0.95450000 0.00000000 0.21700000
1.00000000 0.00000000 0.21700000
0.00000000 0.06950000 0.21700000
0.05770000 0.05770000 0.21700000
0.21700000 0.05770000 0.21700000
0.36450000 0.04590000 0.20520000
0.51200000 0.03410000 0.19340000
0.65950000 0.02230000 0.18160000
0.80700000 0.01050000 0.16980000
0.95450000 0.00000000 0.15908333
1.00000000 0.00000000 0.15851693
0.00000000 0.21700000 0.21700000
0.05770000 0.21700000 0.21700000
0.21700000 0.21700000 0.21700000
0.36450000 0.20520000 0.20520000
0.51200000 0.19340000 0.19340000
0.65950000 0.18160000 0.18160000
0.80700000 0.16980000 0.16980000
0.95450000 0.15800000 0.15800000
1.00000000 0.15436000 0.15436000
0.00000000 0.36450000 0.21700000
0.04590000 0.36450000 0.20520000
0.20520000 0.36450000 0.20520000
0.36450000 0.36450000 0.20520000
0.51200000 0.35270000 0.19340000
0.65950000 0.34090000 0.18160000
0.80700000 0.32910000 0.16980000
0.95450000 0.31730000 0.15800000
1.00000000 0.31366000 0.15436000
0.00000000 0.51200000 0.21700000
0.03410000 0.51200000 0.19340000
0.19340000 0.51200000 0.19340000
0.35270000 0.51200000 0.19340000
0.51200000 0.51200000 0.19340000
0.65950000 0.50020000 0.18160000
0.80700000 0.48840000 0.16980000
0.95450000 0.47660000 0.15800000
1.00000000 0.47296000 0.15436000
0.00000000 0.65950000 0.21700000
0.02230000 0.65950000 0.18160000
0.18160000 0.65950000 0.18160000
0.34090000 0.65950000 0.18160000
0.50020000 0.65950000 0.18160000
0.65950000 0.65950000 0.18160000
0.80700000 0.64770000 0.16980000
0.95450000 0.63590000 0.15800000
1.00000000 0.63226000 0.15436000
0.00000000 0.80700000 0.21700000
0.01050000 0.80700000 0.16980000
0.16980000 0.80700000 0.16980000
0.32910000 0.80700000 0.16980000
0.48840000 0.80700000 0.16980000
0.64770000 0.80700000 0.16980000
0.80700000 0.80700000 0.16980000
0.95450000 0.79520000 0.15800000
1.00000000 0.79156000 0.15436000
0.00000000 0.95450000 0.21700000
0.00000000 0.95450000 0.15908333
0.15800000 0.95450000 0.15800000
0.31730000 0.95450000 0.15800000
0.47660000 0.95450000 0.15800000
0.63590000 0.95450000 0.15800000
0.79520000 0.95450000 0.15800000
0.95450000 0.95450000 0.15800000
1.00000000 0.95086000 0.15436000
0.00000000 1.00000000 0.21700000
0.00000000 1.00000000 0.15851693
0.15436000 1.00000000 0.15436000
0.31366000 1.00000000 0.15436000
0.47296000 1.00000000 0.15436000
0.63226000 1.00000000 0.15436000
0.79156000 1.00000000 0.15436000
0.95086000 1.00000000 0.15436000
1.00000000 1.00000000 0.15436000
0.00000000 0.00000000 0.36450000
0.06950000 0.00000000 0.36450000
0.21700000 0.00000000 0.36450000
0.36450000 0.00000000 0.36450000
0.51200000 0.00000000 0.36450000
0.65950000 0.00000000 0.36450000
0.80700000 0.00000000 0.36450000
0.95450000 0.00000000 0.36450000
1.00000000 0.00000000 0.36450000
0.00000000 0.06950000 0.36450000
0.04590000 0.04590000 0.36450000
0.20520000 0.04590000 0.36450000
0.36450000 0.04590000 0.36450000
0.51200000 0.03410000 0.35270000
0.65950000 0.02230000 0.34090000
0.80700000 0.01050000 0.32910000
0.95450000 0.00000000 0.31816667
1.00000000 0.00000000 0.31703385
0.00000000 0.21700000 0.36450000
0.04590000 0.20520000 0.36450000
0.20520000 0.20520000 0.36450000
0.36450000 0.20520000 0.36450000
0.51200000 0.19340000 0.35270000
0.65950000 0.18160000 0.34090000
0.80700000 0.16980000 0.32910000
0.95450000 0.15800000 0.31730000
1.00000000 0.15436000 0.31366000
0.00000000 0.36450000 0.36450000
0.04590000 0.36450000 0.36450000
0.20520000 0.36450000 0.36450000
0.36450000 0.36450000 0.36450000
0.51200000 0.35270000 0.35270000
0.65950000 0.34090000 0.34090000
0.80700000 0.32910000 0.32910000
0.95450000 0.31730000 0.31730000
1.00000000 0.31366000 0.31366000
0.00000000 0.51200000 0.36450000
0.03410000 0.51200000 0.35270000
0.19340000 0.51200000 0.35270000
0.35270000 0.51200000 0.35270000
0.51200000 0.51200000 0.35270000
0.65950000 0.50020000 0.34090000
0.80700000 0.48840000 0.32910000
0.95450000 0.47660000 0.31730000
1.00000000 0.47296000 0.31366000
0.00000000 0.65950000 0.36450000
0.02230000 0.65950000 0.34090000
0.18160000 0.65950000 0.34090000
0.34090000 0.65950000 0.34090000
0.50020000 0.65950000 0.34090000
0.65950000 0.65950000 0.34090000
0.80700000 0.64770000 0.32910000
0.95450000 0.63590000 0.31730000
1.00000000 0.63226000 0.31366000
0.00000000 0.80700000 0.36450000
0.01050000 0.80700000 0.32910000
0.16980000 0.80700000 0.32910000
0.32910000 0.80700000 0.32910000
0.48840000 0.80700000 0.32910000
0.64770000 0.80700000 0.32910000
0.80700000 0.80700000 0.32910000
0.95450000 0.79520000 0.31730000
1.00000000 0.79156000 0.31366000
0.00000000 0.95450000 0.36450000
0.00000000 0.95450000 0.31816667
0.15800000 0.95450000 0.31730000
0.31730000 0.95450000 0.31730000
0.47660000 0.95450000 0.31730000
0.63590000 0.95450000 0.31730000
0.79520000 0.95450000 0.31730000
0.95450000 0.95450000 0.31730000
1.00000000 0.95086000 0.31366000
0.00000000 1.00000000 0.36450000
0.00000000 1.00000000 0.31703385
0.15436000 1.00000000 0.31366000
0.31366000 1.00000000 0.31366000
0.47296000 1.00000000 0.31366000
0.63226000 1.00000000 0.31366000
0.79156000 1.00000000 0.31366000
0.95086000 1.00000000 0.31366000
1.00000000 1.00000000 0.31366000
0.00000000 0.00000000 0.51200000
0.06950000 0.00000000 0.51200000
0.21700000 0.00000000 0.51200000
0.36450000 0.00000000 0.51200000
0.51200000 0.00000000 0.51200000
0.65950000 0.00000000 0.51200000
0.80700000 0.00000000 0.51200000
0.95450000 0.00000000 0.51200000
1.00000000 0.00000000 0.51200000
0.00000000 0.06950000 0.51200000
0.03410000 0.03410000 0.51200000
0.19340000 0.03410000 0.51200000
0.35270000 0.03410000 0.51200000
0.51200000 0.03410000 0.51200000
0.65950000 0.02230000 0.50020000
0.80700000 0.01050000 0.48840000
0.95450000 0.00000000 0.47725000
1.00000000 0.00000000 0.47555078
0.00000000 0.21700000 0.51200000
0.03410000 0.19340000 0.51200000
0.19340000 0.19340000 0.51200000
0.35270000 0.19340000 0.51200000
0.51200000 0.19340000 0.51200000
0.65950000 0.18160000 0.50020000
0.80700000 0.16980000 0.48840000
0.95450000 0.15800000 0.47660000
1.00000000 0.15436000 0.47296000
0.00000000 0.36450000 0.51200000
0.03410000 0.35270000 0.51200000
0.19340000 0.35270000 0.51200000
0.35270000 0.35270000 0.51200000
0.51200000 0.35270000 0.51200000
0.65950000 0.34090000 0.50020000
0.80700000 0.32910000 0.48840000
0.95450000 0.31730000 0.47660000
1.00000000 0.31366000 0.47296000
0.00000000 0.51200000 0.51200000
0.03410000 0.51200000 0.51200000
0.19340000 0.51200000 0.51200000
0.35270000 0.51200000 0.51200000
0.51200000 0.51200000 0.51200000
0.65950000 0.50020000 0.50020000
0.80700000 0.48840000 0.48840000
0.95450000 0.47660000 0.47660000
1.00000000 0.47296000 0.47296000
0.00000000 0.65950000 0.51200000
0.02230000 0.65950000 0.50020000
0.18160000 0.65950000 0.50020000
0.34090000 0.65950000 0.50020000
0.50020000 0.65950000 0.50020000
0.65950000 0.65950000 0.50020000
0.80700000 0.64770000 0.48840000
0.95450000 0.63590000 0.47660000
1.00000000 0.63226000 0.47296000
0.00000000 0.80700000 0.51200000
0.01050000 0.80700000 0.48840000
0.16980000 0.80700000 0.48840000
0.32910000 0.80700000 0.48840000
0.48840000 0.80700000 0.48840000
0.64770000 0.80700000 0.48840000
0.80700000 0.80700000 0.48840000
0.95450000 0.79520000 0.47660000
1.00000000 0.79156000 0.47296000
0.00000000 0.95450000 0.51200000
0.00000000 0.95450000 0.47725000
0.15800000 0.95450000 0.47660000
0.31730000 0.95450000 0.47660000
0.47660000 0.95450000 0.47660000
0.63590000 0.95450000 0.47660000
0.79520000 0.95450000 0.47660000
0.95450000 0.95450000 0.47660000
1.00000000 0.95086000 0.47296000
0.00000000 1.00000000 0.51200000
0.00000000 1.00000000 0.47555078
0.15436000 1.00000000 0.47296000
0.31366000 1.00000000 0.47296000
0.47296000 1.00000000 0.47296000
0.63226000 1.00000000 0.47296000
0.79156000 1.00000000 0.47296000
0.95086000 1.00000000 0.47296000
1.00000000 1.00000000 0.47296000
0.00000000 0.00000000 0.65950000
0.06950000 0.00000000 0.65950000
0.21700000 0.00000000 0.65950000
0.36450000 0.00000000 0.65950000
0.51200000 0.00000000 0.65950000
0.65950000 0.00000000 0.65950000
0.80700000 0.00000000 0.65950000
0.95450000 0.00000000 0.65950000
1.00000000 0.00000000 0.65950000
0.00000000 0.06950000 0.65950000
0.02230000 0.02230000 0.65950000
0.18160000 0.02230000 0.65950000
0.34090000 0.02230000 0.65950000
0.50020000 0.02230000 0.65950000
0.65950000 0.02230000 0.65950000
0.80700000 0.01050000 0.64770000
0.95450000 0.00000000 0.63633333
1.00000000 0.00000000 0.63406771
0.00000000 0.21700000 0.65950000
0.02230000 0.18160000 0.65950000
0.18160000 0.18160000 0.65950000
0.34090000 0.18160000 0.65950000
0.50020000 0.18160000 0.65950000
0.65950000 0.18160000 0.65950000
0.80700000 0.16980000 0.64770000
0.95450000 0.15800000 0.63590000
1.00000000 0.15436000 0.63226000
0.00000000 0.36450000 0.65950000
0.02230000 0.34090000 0.65950000
0.18160000 0.34090000 0.65950000
0.34090000 0.34090000 0.65950000
0.50020000 0.34090000 0.65950000
0.65950000 0.34090000 0.65950000
0.80700000 0.32910000 0.64770000
0.95450000 0.31730000 0.63590000
1.00000000 0.31366000 0.63226000
0.00000000 0.51200000 0.65950000
0.02230000 0.50020000 0.65950000
0.18160000 0.50020000 0.65950000
0.34090000 0.50020000 0.65950000
0.50020000 0.50020000 0.65950000
0.65950000 0.50020000 0.65950000
0.80700000 0.48840000 0.64770000
0.95450000 0.47660000 0.63590000
1.00000000 0.47296000 0.63226000
0.00000000 0.65950000 0.65950000
0.02230000 0.65950000 0.65950000
0.18160000 0.65950000 0.65950000
0.34090000 0.65950000 0.65950000
0.50020000 0.65950000 0.65950000
0.65950000 0.65950000 0.65950000
0.80700000 0.64770000 0.64770000
0.95450000 0.63590000 0.63590000
1.00000000 0.63226000 0.63226000
0.00000000 0.80700000 0.65950000
0.01050000 0.80700000 0.64770000
0.16980000 0.80700000 0.64770000
0.32910000 0.80700000 0.64770000
0.48840000 0.80700000 0.64770000
0.64770000 0.80700000 0.64770000
0.80700000 0.80700000 0.64770000
0.95450000 0.79520000 0.63590000
1.00000000 0.79156000 0.63226000
0.00000000 0.95450000 0.65950000
0.00000000 0.95450000 0.63633333
0.15800000 0.95450000 0.63590000
0.31730000 0.95450000 0.63590000
0.47660000 0.95450000 0.63590000
0.63590000 0.95450000 0.63590000
0.79520000 0.95450000 0.63590000
0.95450000 0.95450000 0.63590000
1.00000000 0.95086000 0.63226000
0.00000000 1.00000000 0.65950000
0.00000000 1.00000000 0.63406771
0.15436000 1.00000000 0.63226000
0.31366000 1.00000000 0.63226000
0.47296000 1.00000000 0.63226000
0.63226000 1.00000000 0.63226000
0.79156000 1.00000000 0.63226000
0.95086000 1.00000000 0.63226000
1.00000000 1.00000000 0.63226000
0.00000000 0.00000000 0.80700000
0.06950000 0.00000000 0.80700000
0.21700000 0.00000000 0.80700000
0.36450000 0.00000000 0.80700000
0.51200000 0.00000000 0.80700000
0.65950000 0.00000000 0.80700000
0.80700000 0.00000000 0.80700000
0.95450000 0.00000000 0.80700000
1.00000000 0.00000000 0.80700000
0.00000000 0.06950000 0.80700000
0.01050000 0.01050000 0.80700000
0.16980000 0.01050000 0.80700000
0.32910000 0.01050000 0.80700000
0.48840000 0.01050000 0.80700000
0.64770000 0.01050000 0.80700000
0.80700000 0.01050000 0.80700000
0.95450000 0.00000000 0.79541667
1.00000000 0.00000000 0.79258463
0.00000000 0.21700000 0.80700000
0.01050000 0.16980000 0.80700000
0.16980000 0.16980000 0.80700000
0.32910000 0.16980000 0.80700000
0.48840000 0.16980000 0.80700000
0.64770000 0.16980000 0.80700000
0.80700000 0.16980000 0.80700000
0.95450000 0.15800000 0.79520000
1.00000000 0.15436000 0.79156000
0.00000000 0.36450000 0.80700000
0.01050000 0.32910000 0.80700000
0.16980000 0.32910000 0.80700000
0.32910000 0.32910000 0.80700000
0.48840000 0.32910000 0.80700000
0.64770000 0.32910000 0.80700000
0.80700000 0.32910000 0.80700000
0.95450000 0.31730000 0.79520000
1.00000000 0.31366000 0.79156000
0.00000000 0.51200000 0.80700000
0.01050000 0.48840000 0.80700000
0.16980000 0.48840000 0.80700000
0.32910000 0.48840000 0.80700000
0.48840000 0.48840000 0.80700000
0.64770000 0.48840000 0.80700000
0.80700000 0.48840000 0.80700000
0.95450000 0.47660000 0.79520000
1.00000000 0.47296000 0.79156000
0.00000000 0.65950000 0.80700000
0.01050000 0.64770000 0.80700000
0.16980000 0.64770000 0.80700000
0.32910000 0.64770000 0.80700000
0.48840000 0.64770000 0.80700000
0.64770000 0.64770000 0.80700000
0.80700000 0.64770000 0.80700000
0.95450000 0.63590000 0.79520000
1.00000000 0.63226000 0.79156000
0.00000000 0.80700000 0.80700000
0.01050000 0.80700000 0.80700000
0.16980000 0.80700000 0.80700000
0.32910000 0.80700000 0.80700000
0.48840000 0.80700000 0.80700000
0.64770000 0.80700000 0.80700000
0.80700000 0.80700000 0.80700000
0.95450000 0.79520000 0.79520000
1.00000000 0.79156000 0.79156000
0.00000000 0.95450000 0.80700000
0.00000000 0.95450000 0.79541667
0.15800000 0.95450000 0.79520000
0.31730000 0.95450000 0.79520000
0.47660000 0.95450000 0.79520000
0.63590000 0.95450000 0.79520000
0.79520000 0.95450000 0.79520000
0.95450000 0.95450000 0.79520000
1.00000000 0.95086000 0.79156000
0.00000000 1.00000000 0.80700000
0.00000000 1.00000000 0.79258463
0.15436000 1.00000000 0.79156000
0.31366000 1.00000000 0.79156000
0.47296000 1.00000000 0.79156000
0.63226000 1.00000000 0.79156000
0.79156000 1.00000000 0.79156000
0.95086000 1.00000000 0.79156000
1.00000000 1.00000000 0.79156000
0.00000000 0.00000000 0.95450000
0.06950000 0.00000000 0.95450000
0.21700000 0.00000000 0.95450000
0.36450000 0.00000000 0.95450000
0.51200000 0.00000000 0.95450000
0.65950000 0.00000000 0.95450000
0.80700000 0.00000000 0.95450000
0.95450000 0.00000000 0.95450000
1.00000000 0.00000000 0.95450000
0.00000000 0.06950000 0.95450000
0.00000000 0.00000000 0.95450000
0.15908333 0.00000000 0.95450000
0.31816667 0.00000000 0.95450000
0.47725000 0.00000000 0.95450000
0.63633333 0.00000000 0.95450000
0.79541667 0.00000000 0.95450000
0.95450000 0.00000000 0.95450000
1.00000000 0.00000000 0.95110156
0.00000000 0.21700000 0.95450000
0.00000000 0.15908333 0.95450000
0.15800000 0.15800000 0.95450000
0.31730000 0.15800000 0.95450000
0.47660000 0.15800000 0.95450000
0.63590000 0.15800000 0.95450000
0.79520000 0.15800000 0.95450000
0.95450000 0.15800000 0.95450000
1.00000000 0.15436000 0.95086000
0.00000000 0.36450000 0.95450000
0.00000000 0.31816667 0.95450000
0.15800000 0.31730000 0.95450000
0.31730000 0.31730000 0.95450000
0.47660000 0.31730000 0.95450000
0.63590000 0.31730000 0.95450000
0.79520000 0.31730000 0.95450000
0.95450000 0.31730000 0.95450000
1.00000000 0.31366000 0.95086000
0.00000000 0.51200000 0.95450000
0.00000000 0.47725000 0.95450000
0.15800000 0.47660000 0.95450000
0.31730000 0.47660000 0.95450000
0.47660000 0.47660000 0.95450000
0.63590000 0.47660000 0.95450000
0.79520000 0.47660000 0.95450000
0.95450000 0.47660000 0.95450000
1.00000000 0.47296000 0.95086000
0.00000000 0.65950000 0.95450000
0.00000000 0.63633333 0.95450000
0.15800000 0.63590000 0.95450000
0.31730000 0.63590000 0.95450000
0.47660000 0.63590000 0.95450000
0.63590000 0.63590000 0.95450000
0.79520000 0.63590000 0.95450000
0.95450000 0.63590000 0.95450000
1.00000000 0.63226000 0.95086000
0.00000000 0.80700000 0.95450000
0.00000000 0.79541667 0.95450000
0.15800000 0.79520000 0.95450000
0.31730000 0.79520000 0.95450000
0.47660000 0.79520000 0.95450000
0.63590000 0.79520000 0.95450000
0.79520000 0.79520000 0.95450000
0.95450000 0.79520000 0.95450000
1.00000000 0.79156000 0.95086000
0.00000000 0.95450000 0.95450000
0.00000000 0.95450000 0.95450000
0.15800000 0.95450000 0.95450000
0.31730000 0.95450000 0.95450000
0.47660000 0.95450000 0.95450000
0.63590000 0.95450000 0.95450000
0.79520000 0.95450000 0.95450000
0.95450000 0.95450000 0.95450000
1.00000000 0.95086000 0.95086000
0.00000000 1.00000000 0.95450000
0.00000000 1.00000000 0.95110156
0.15436000 1.00000000 0.95086000
0.31366000 1.00000000 0.95086000
0.47296000 1.00000000 0.95086000
0.63226000 1.00000000 0.95086000
0.79156000 1.00000000 0.95086000
0.95086000 1.00000000 0.95086000
1.00000000 1.00000000 0.95086000
0.00000000 0.00000000 1.00000000
0.06950000 0.00000000 1.00000000
0.21700000 0.00000000 1.00000000
0.36450000 0.00000000 1.00000000
0.51200000 0.00000000 1.00000000
0.65950000 0.00000000 1.00000000
0.80700000 0.00000000 1.00000000
0.95450000 0.00000000 1.00000000
1.00000000 0.00000000 1.00000000
0.00000000 0.06950000 1.00000000
0.00000000 0.00000000 1.00000000
0.15851693 0.00000000 1.00000000
0.31703385 0.00000000 1.00000000
0.47555078 0.00000000 1.00000000
0.63406771 0.00000000 1.00000000
0.79258463 0.00000000 1.00000000
0.95110156 0.00000000 1.00000000
1.00000000 0.00000000 1.00000000
0.00000000 0.21700000 1.00000000
0.00000000 0.15851693 1.00000000
0.15436000 0.15436000 1.00000000
0.31366000 0.15436000 1.00000000
0.47296000 0.15436000 1.00000000
0.63226000 0.15436000 1.00000000
0.79156000 0.15436000 1.00000000
0.95086000 0.15436000 1.00000000
1.00000000 0.15436000 1.00000000
0.00000000 0.36450000 1.00000000
0.00000000 0.31703385 1.00000000
0.15436000 0.31366000 1.00000000
0.31366000 0.31366000 1.00000000
0.47296000 0.31366000 1.00000000
0.63226000 0.31366000 1.00000000
0.79156000 0.31366000 1.00000000
0.95086000 0.31366000 1.00000000
1.00000000 0.31366000 1.00000000
0.00000000 0.51200000 1.00000000
0.00000000 0.47555078 1.00000000
0.15436000 0.47296000 1.00000000
0.31366000 0.47296000 1.00000000
0.47296000 0.47296000 1.00000000
0.63226000 0.47296000 1.00000000
0.79156000 0.47296000 1.00000000
0.95086000 0.47296000 1.00000000
1.00000000 0.47296000 1.00000000
0.00000000 0.65950000 1.00000000
0.00000000 0.63406771 1.00000000
0.15436000 0.63226000 1.00000000
0.31366000 0.63226000 1.00000000
0.47296000 0.63226000 1.00000000
0.63226000 0.63226000 1.00000000
0.79156000 0.63226000 1.00000000
0.95086000 0.63226000 1.00000000
1.00000000 0.63226000 1.00000000
0.00000000 0.80700000 1.00000000
0.00000000 0.79258463 1.00000000
0.15436000 0.79156000 1.00000000
0.31366000 0.79156000 1.00000000
0.47296000 0.79156000 1.00000000
0.63226000 0.79156000 1.00000000
0.79156000 0.79156000 1.00000000
0.95086000 0.79156000 1.00000000
1.00000000 0.79156000 1.00000000
0.00000000 0.95450000 1.00000000
0.00000000 0.95110156 1.00000000
0.15436000 0.95086000 1.00000000
0.31366000 0.95086000 1.00000000
0.47296000 0.95086000 1.00000000
0.63226000 0.95086000 1.00000000
0.79156000 0.95086000 1.00000000
0.95086000 0.95086000 1.00000000
1.00000000 0.95086000 1.00000000
0.00000000 1.00000000 1.00000000
0.00000000 1.00000000 1.00000000
0.15436000 1.00000000 1.00000000
0.31366000 1.00000000 1.00000000
0.47296000 1.00000000 1.00000000
0.63226000 1.00000000 1.00000000
0.79156000 1.00000000 1.00000000
0.95086000 1.00000000 1.00000000
1.00000000 1.00000000 1.00000000
