recipes/color/anime_high_contrast_v1/anime_high_contrast_v1.cube
TITLE "anime_high_contrast_v1"
LUT_3D_SIZE 5
DOMAIN_MIN 0.0 0.0 0.0
DOMAIN_MAX 1.0 1.0 1.0
0.00000000 0.00000000 0.00000000
0.21700000 0.00000000 0.00000000
0.51200000 0.00000000 0.00000000
0.80700000 0.00000000 0.00000000
1.00000000 0.00000000 0.00000000
0.00000000 0.21700000 0.00000000
0.21700000 0.21700000 0.00000000
0.51200000 0.21700000 0.00000000
0.80700000 0.21700000 0.00000000
1.00000000 0.21700000 0.00000000
0.00000000 0.51200000 0.00000000
0.21700000 0.51200000 0.00000000
0.51200000 0.51200000 0.00000000
0.80700000 0.51200000 0.00000000
1.00000000 0.51200000 0.00000000
0.00000000 0.80700000 0.00000000
0.21700000 0.80700000 0.00000000
0.51200000 0.80700000 0.00000000
0.80700000 0.80700000 0.00000000
1.00000000 0.80700000 0.00000000
0.00000000 1.00000000 0.00000000
0.21700000 1.00000000 0.00000000
0.51200000 1.00000000 0.00000000
0.80700000 1.00000000 0.00000000
1.00000000 1.00000000 0.00000000
0.00000000 0.00000000 0.21700000
0.21700000 0.00000000 0.21700000
0.51200000 0.00000000 0.21700000
0.80700000 0.00000000 0.21700000
1.00000000 0.00000000 0.21700000
0.00000000 0.21700000 0.21700000
0.21700000 0.21700000 0.21700000
0.51200000 0.19340000 0.19340000
0.80700000 0.16980000 0.16980000
1.00000000 0.15436000 0.15436000
0.00000000 0.51200000 0.21700000
0.19340000 0.51200000 0.19340000
0.51200000 0.51200000 0.19340000
0.80700000 0.48840000 0.16980000
1.00000000 0.47296000 0.15436000
0.00000000 0.80700000 0.21700000
0.16980000 0.80700000 0.16980000
0.48840000 0.80700000 0.16980000
0.80700000 0.80700000 0.16980000
1.00000000 0.79156000 0.15436000
0.00000000 1.00000000 0.21700000
0.15436000 1.00000000 0.15436000
0.47296000 1.00000000 0.15436000
0.79156000 1.00000000 0.15436000
1.00000000 1.00000000 0.15436000
0.00000000 0.00000000 0.51200000
0.21700000 0.00000000 0.51200000
0.51200000 0.00000000 0.51200000
0.80700000 0.00000000 0.51200000
1.00000000 0.00000000 0.51200000
0.00000000 0.21700000 0.51200000
0.19340000 0.19340000 0.51200000
0.51200000 0.19340000 0.51200000
0.80700000 0.16980000 0.48840000
1.00000000 0.15436000 0.47296000
0.00000000 0.51200000 0.51200000
0.19340000 0.51200000 0.51200000
0.51200000 0.51200000 0.51200000
0.80700000 0.48840000 0.48840000
1.00000000 0.47296000 0.47296000
0.00000000 0.80700000 0.51200000
0.16980000 0.80700000 0.48840000
0.48840000 0.80700000 0.48840000
0.80700000 0.80700000 0.48840000
1.00000000 0.79156000 0.47296000
0.00000000 1.00000000 0.51200000
0.15436000 1.00000000 0.47296000
0.47296000 1.00000000 0.47296000
0.79156000 1.00000000 0.47296000
1.00000000 1.00000000 0.47296000
0.00000000 0.00000000 0.80700000
0.21700000 0.00000000 0.80700000
0.51200000 0.00000000 0.80700000
0.80700000 0.00000000 0.80700000
1.00000000 0.00000000 0.80700000
0.00000000 0.21700000 0.80700000
0.16980000 0.16980000 0.80700000
0.48840000 0.16980000 0.80700000
0.80700000 0.16980000 0.80700000
1.00000000 0.15436000 0.79156000
0.00000000 0.51200000 0.80700000
0.16980000 0.48840000 0.80700000
0.48840000 0.48840000 0.80700000
0.80700000 0.48840000 0.80700000
1.00000000 0.47296000 0.79156000
0.00000000 0.80700000 0.80700000
0.16980000 0.80700000 0.80700000
0.48840000 0.80700000 0.80700000
0.80700000 0.80700000 0.80700000
1.00000000 0.79156000 0.79156000
0.00000000 1.00000000 0.80700000
0.15436000 1.00000000 0.79156000
0.47296000 1.00000000 0.79156000
0.79156000 1.00000000 0.79156000
1.00000000 1.00000000 0.79156000
0.00000000 0.00000000 1.00000000
0.21700000 0.00000000 1.00000000
0.51200000 0.00000000 1.00000000
0.80700000 0.00000000 1.00000000
1.00000000 0.00000000 1.00000000
0.00000000 0.21700000 1.00000000
0.15436000 0.15436000 1.00000000
0.47296000 0.15436000 1.00000000
0.79156000 0.15436000 1.00000000
1.00000000 0.15436000 1.00000000
0.00000000 0.51200000 1.00000000
0.15436000 0.47296000 1.00000000
0.47296000 0.47296000 1.00000000
0.79156000 0.47296000 1.00000000
1.00000000 0.47296000 1.00000000
0.00000000 0.80700000 1.00000000
0.15436000 0.79156000 1.00000000
0.47296000 0.79156000 1.00000000
0.79156000 0.79156000 1.00000000
1.00000000 0.79156000 1.00000000
0.00000000 1.00000000 1.00000000
0.15436000 1.00000000 1.00000000
0.47296000 1.00000000 1.00000000
0.79156000 1.00000000 1.00000000
1.00000000 1.00000000 1.00000000
