recipes/color/anime_high_contrast_v1/anime_high_contrast_v1.cube
TITLE "anime_high_contrast_v1"
LUT_3D_SIZE 17
DOMAIN_MIN 0.0 0.0 0.0
DOMAIN_MAX 1.0 1.0 1.0
0.00000000 0.00000000 0.00000000
0.00000000 0.00000000 0.00000000
0.06950000 0.00000000 0.00000000
0.14325000 0.00000000 0.00000000
0.21700000 0.00000000 0.00000000
0.29075000 0.00000000 0.00000000
0.36450000 0.00000000 0.00000000
0.43825000 0.00000000 0.00000000
0.51200000 0.00000000 0.00000000
0.58575000 0.00000000 0.00000000
0.65950000 0.00000000 0.00000000
0.73325000 0.00000000 0.00000000
0.80700000 0.00000000 0.00000000
0.88075000 0.00000000 0.00000000
0.95450000 0.00000000 0.00000000
1.00000000 0.00000000 0.00000000
1.00000000 0.00000000 0.00000000
0.00000000 0.00000000 0.00000000
0.00000000 0.00000000 0.00000000
0.06950000 0.00000000 0.00000000
0.14325000 0.00000000 0.00000000
0.21700000 0.00000000 0.00000000
0.29075000 0.00000000 0.00000000
0.36450000 0.00000000 0.00000000
0.43825000 0.00000000 0.00000000
0.51200000 0.00000000 0.00000000
0.58575000 0.00000000 0.00000000
0.65950000 0.00000000 0.00000000
0.73325000 0.00000000 0.00000000
0.80700000 0.00000000 0.00000000
0.88075000 0.00000000 0.00000000
0.95450000 0.00000000 0.00000000
1.00000000 0.00000000 0.00000000
1.00000000 0.00000000 0.00000000
0.00000000 0.06950000 0.00000000
0.00000000 0.06950000 0.00000000
0.06950000 0.06950000 0.00000000
0.14325000 0.06950000 0.00000000
0.21700000 0.06950000 0.00000000
0.29075000 0.06950000 0.00000000
0.36450000 0.06950000 0.00000000
0.43825000 0.06950000 0.00000000
0.51200000 0.06950000 0.00000000
0.58575000 0.06950000 0.00000000
0.65950000 0.06950000 0.00000000
0.73325000 0.06950000 0.00000000
0.80700000 0.06950000 0.00000000
0.88075000 0.06950000 0.00000000
0.95450000 0.06950000 0.00000000
1.00000000 0.06950000 0.00000000
1.00000000 0.06950000 0.00000000
0.00000000 0.14325000 0.00000000
0.00000000 0.14325000 0.00000000
0.06950000 0.14325000 0.00000000
0.14325000 0.14325000 0.00000000
0.21700000 0.14325000 0.00000000
0.29075000 0.14325000 0.00000000
0.36450000 0.14325000 0.00000000
0.43825000 0.14325000 0.00000000
0.51200000 0.14325000 0.00000000
0.58575000 0.14325000 0.00000000
0.65950000 0.14325000 0.00000000
0.73325000 0.14325000 0.00000000
0.80700000 0.14325000 0.00000000
0.88075000 0.14325000 0.00000000
0.95450000 0.14325000 0.00000000
1.00000000 0.14325000 0.00000000
1.00000000 0.14325000 0.00000000
0.00000000 0.21700000 0.00000000
0.00000000 0.21700000 0.00000000
0.06950000 0.21700000 0.00000000
0.14325000 0.21700000 0.00000000
0.21700000 0.21700000 0.00000000
0.29075000 0.21700000 0.00000000
0.36450000 0.21700000 0.00000000
0.43825000 0.21700000 0.00000000
0.51200000 0.21700000 0.00000000
0.58575000 0.21700000 0.00000000
0.65950000 0.21700000 0.00000000
0.73325000 0.21700000 0.00000000
0.80700000 0.21700000 0.00000000
0.88075000 0.21700000 0.00000000
0.95450000 0.21700000 0.00000000
1.00000000 0.21700000 0.00000000
1.00000000 0.21700000 0.00000000
0.00000000 0.29075000 0.00000000
0.00000000 0.29075000 0.00000000
0.06950000 0.29075000 0.00000000
0.14325000 0.29075000 0.00000000
0.21700000 0.29075000 0.00000000
0.29075000 0.29075000 0.00000000
0.36450000 0.29075000 0.00000000
0.43825000 0.29075000 0.00000000
0.51200000 0.29075000 0.00000000
0.58575000 0.29075000 0.00000000
0.65950000 0.29075000 0.00000000
0.73325000 0.29075000 0.00000000
0.80700000 0.29075000 0.00000000
0.88075000 0.29075000 0.00000000
0.95450000 0.29075000 0.00000000
1.00000000 0.29075000 0.00000000
1.00000000 0.29075000 0.00000000
0.00000000 0.36450000 0.00000000
0.00000000 0.36450000 0.00000000
0.06950000 0.36450000 0.00000000
0.14325000 0.36450000 0.00000000
0.21700000 0.36450000 0.00000000
0.29075000 0.36450000 0.00000000
0.36450000 0.36450000 0.00000000
0.43825000 0.36450000 0.00000000
0.51200000 0.36450000 0.00000000
0.58575000 0.36450000 0.00000000
0.65950000 0.36450000 0.00000000
0.73325000 0.36450000 0.00000000
0.80700000 0.36450000 0.00000000
0.88075000 0.36450000 0.00000000
0.95450000 0.36450000 0.00000000
1.00000000 0.36450000 0.00000000
1.00000000 0.36450000 0.00000000
0.00000000 0.43825000 0.00000000
0.00000000 0.43825000 0.00000000
0.06950000 0.43825000 0.00000000
0.14325000 0.43825000 0.00000000
0.21700000 0.43825000 0.00000000
0.29075000 0.43825000 0.00000000
0.36450000 0.43825000 0.00000000
0.43825000 0.43825000 0.00000000
0.51200000 0.43825000 0.00000000
0.58575000 0.43825000 0.00000000
0.65950000 0.43825000 0.00000000
0.73325000 0.43825000 0.00000000
0.80700000 0.43825000 0.00000000
0.88075000 0.43825000 0.00000000
0.95450000 0.43825000 0.00000000
1.00000000 0.43825000 0.00000000
1.00000000 0.43825000 0.00000000
0.00000000 0.51200000 0.00000000
0.00000000 0.51200000 0.00000000
0.06950000 0.51200000 0.00000000
0.14325000 0.51200000 0.00000000
0.21700000 0.51200000 0.00000000
0.29075000 0.51200000 0.00000000
0.36450000 0.51200000 0.00000000
0.43825000 0.51200000 0.00000000
0.51200000 0.51200000 0.00000000
0.58575000 0.51200000 0.00000000
0.65950000 0.51200000 0.00000000
0.73325000 0.51200000 0.00000000
0.80700000 0.51200000 0.00000000
0.88075000 0.51200000 0.00000000
0.95450000 0.51200000 0.00000000
1.00000000 0.51200000 0.00000000
1.00000000 0.51200000 0.00000000
0.00000000 0.58575000 0.00000000
0.00000000 0.58575000 0.00000000
0.06950000 0.58575000 0.00000000
0.14325000 0.58575000 0.00000000
0.21700000 0.58575000 0.00000000
0.29075000 0.58575000 0.00000000
0.36450000 0.58575000 0.00000000
0.43825000 0.58575000 0.00000000
0.51200000 0.58575000 0.00000000
0.58575000 0.58575000 0.00000000
0.65950000 0.58575000 0.00000000
0.73325000 0.58575000 0.00000000
0.80700000 0.58575000 0.00000000
0.88075000 0.58575000 0.00000000
0.95450000 0.58575000 0.00000000
1.00000000 0.58575000 0.00000000
1.00000000 0.58575000 0.00000000
0.00000000 0.65950000 0.00000000
0.00000000 0.65950000 0.00000000
0.06950000 0.65950000 0.00000000
0.14325000 0.65950000 0.00000000
0.21700000 0.65950000 0.00000000
0.29075000 0.65950000 0.00000000
0.36450000 0.65950000 0.00000000
0.43825000 0.65950000 0.00000000
0.51200000 0.65950000 0.00000000
0.58575000 0.65950000 0.00000000
0.65950000 0.65950000 0.00000000
0.73325000 0.65950000 0.00000000
0.80700000 0.65950000 0.00000000
0.88075000 0.65950000 0.00000000
0.95450000 0.65950000 0.00000000
1.00000000 0.65950000 0.00000000
1.00000000 0.65950000 0.00000000
0.00000000 0.73325000 0.00000000
0.00000000 0.73325000 0.00000000
0.06950000 0.73325000 0.00000000
0.14325000 0.73325000 0.00000000
0.21700000 0.73325000 0.00000000
0.29075000 0.73325000 0.00000000
0.36450000 0.73325000 0.00000000
0.43825000 0.73325000 0.00000000
0.51200000 0.73325000 0.00000000
0.58575000 0.73325000 0.00000000
0.65950000 0.73325000 0.00000000
0.73325000 0.73325000 0.00000000
0.80700000 0.73325000 0.00000000
0.88075000 0.73325000 0.00000000
0.95450000 0.73325000 0.00000000
1.00000000 0.73325000 0.00000000
1.00000000 0.73325000 0.00000000
0.00000000 0.80700000 0.00000000
0.00000000 0.80700000 0.00000000
0.06950000 0.80700000 0.00000000
0.14325000 0.80700000 0.00000000
0.21700000 0.80700000 0.00000000
0.29075000 0.80700000 0.00000000
0.36450000 0.80700000 0.00000000
0.43825000 0.80700000 0.00000000
0.51200000 0.80700000 0.00000000
0.58575000 0.80700000 0.00000000
0.65950000 0.80700000 0.00000000
0.73325000 0.80700000 0.00000000
0.80700000 0.80700000 0.00000000
0.88075000 0.80700000 0.00000000
0.95450000 0.80700000 0.00000000
1.00000000 0.80700000 0.00000000
1.00000000 0.80700000 0.00000000
0.00000000 0.88075000 0.00000000
0.00000000 0.88075000 0.00000000
0.06950000 0.88075000 0.00000000
0.14325000 0.88075000 0.00000000
0.21700000 0.88075000 0.00000000
0.29075000 0.88075000 0.00000000
0.36450000 0.88075000 0.00000000
0.43825000 0.88075000 0.00000000
0.51200000 0.88075000 0.00000000
0.58575000 0.88075000 0.00000000
0.65950000 0.88075000 0.00000000
0.73325000 0.88075000 0.00000000
0.80700000 0.88075000 0.00000000
0.88075000 0.88075000 0.00000000
0.95450000 0.88075000 0.00000000
1.00000000 0.88075000 0.00000000
1.00000000 0.88075000 0.00000000
0.00000000 0.95450000 0.00000000
0.00000000 0.95450000 0.00000000
0.06950000 0.95450000 0.00000000
0.14325000 0.95450000 0.00000000
0.21700000 0.95450000 0.00000000
0.29075000 0.95450000 0.00000000
0.36450000 0.95450000 0.00000000
0.43825000 0.95450000 0.00000000
0.51200000 0.95450000 0.00000000
0.58575000 0.95450000 0.00000000
0.65950000 0.95450000 0.00000000
0.73325000 0.95450000 0.00000000
0.80700000 0.95450000 0.00000000
0.88075000 0.95450000 0.00000000
0.95450000 0.95450000 0.00000000
1.00000000 0.95450000 0.00000000
1.00000000 0.95450000 0.00000000
0.00000000 1.00000000 0.00000000
0.00000000 1.00000000 0.00000000
0.06950000 1.00000000 0.00000000
0.14325000 1.00000000 0.00000000
0.21700000 1.00000000 0.00000000
0.29075000 1.00000000 0.00000000
0.36450000 1.00000000 0.00000000
0.43825000 1.00000000 0.00000000
0.51200000 1.00000000 0.00000000
0.58575000 1.00000000 0.00000000
0.65950000 1.00000000 0.00000000
0.73325000 1.00000000 0.00000000
0.80700000 1.00000000 0.00000000
0.88075000 1.00000000 0.00000000
0.95450000 1.00000000 0.00000000
1.00000000 1.00000000 0.00000000
1.00000000 1.00000000 0.00000000
0.00000000 1.00000000 0.00000000
0.00000000 1.00000000 0.00000000
0.06950000 1.00000000 0.00000000
0.14325000 1.00000000 0.00000000
0.21700000 1.00000000 0.00000000
0.29075000 1.00000000 0.00000000
0.36450000 1.00000000 0.00000000
0.43825000 1.00000000 0.00000000
0.51200000 1.00000000 0.00000000
0.58575000 1.00000000 0.00000000
0.65950000 1.00000000 0.00000000
0.73325000 1.00000000 0.00000000
0.80700000 1.00000000 0.00000000
0.88075000 1.00000000 0.00000000
0.95450000 1.00000000 0.00000000
1.00000000 1.00000000 0.00000000
1.00000000 1.00000000 0.00000000
0.00000000 0.00000000 0.00000000
0.00000000 0.00000000 0.00000000
0.06950000 0.00000000 0.00000000
0.14325000 0.00000000 0.00000000
0.21700000 0.00000000 0.00000000
0.29075000 0.00000000 0.00000000
0.36450000 0.00000000 0.00000000
0.43825000 0.00000000 0.00000000
0.51200000 0.00000000 0.00000000
0.58575000 0.00000000 0.00000000
0.65950000 0.00000000 0.00000000
0.73325000 0.00000000 0.00000000
0.80700000 0.00000000 0.00000000
0.88075000 0.00000000 0.00000000
0.95450000 0.00000000 0.00000000
1.00000000 0.00000000 0.00000000
1.00000000 0.00000000 0.00000000
0.00000000 0.00000000 0.00000000
0.00000000 0.00000000 0.00000000
0.06950000 0.00000000 0.00000000
0.14325000 0.00000000 0.00000000
0.21700000 0.00000000 0.00000000
0.29075000 0.00000000 0.00000000
0.36450000 0.00000000 0.00000000
0.43825000 0.00000000 0.00000000
0.51200000 0.00000000 0.00000000
0.58575000 0.00000000 0.00000000
0.65950000 0.00000000 0.00000000
0.73325000 0.00000000 0.00000000
0.80700000 0.00000000 0.00000000
0.88075000 0.00000000 0.00000000
0.95450000 0.00000000 0.00000000
1.00000000 0.00000000 0.00000000
1.00000000 0.00000000 0.00000000
0.00000000 0.06950000 0.00000000
0.00000000 0.06950000 0.00000000
0.06950000 0.06950000 0.00000000
0.14325000 0.06950000 0.00000000
0.21700000 0.06950000 0.00000000
0.29075000 0.06950000 0.00000000
0.36450000 0.06950000 0.00000000
0.43825000 0.06950000 0.00000000
0.51200000 0.06950000 0.00000000
0.58575000 0.06950000 0.00000000
0.65950000 0.06950000 0.00000000
0.73325000 0.06950000 0.00000000
0.80700000 0.06950000 0.00000000
0.88075000 0.06950000 0.00000000
0.95450000 0.06950000 0.00000000
1.00000000 0.06950000 0.00000000
1.00000000 0.06950000 0.00000000
0.00000000 0.14325000 0.00000000
0.00000000 0.14325000 0.00000000
0.06950000 0.14325000 0.00000000
0.14325000 0.14325000 0.00000000
0.21700000 0.14325000 0.00000000
0.29075000 0.14325000 0.00000000
0.36450000 0.14325000 0.00000000
0.43825000 0.14325000 0.00000000
0.51200000 0.14325000 0.00000000
0.58575000 0.14325000 0.00000000
0.65950000 0.14325000 0.00000000
0.73325000 0.14325000 0.00000000
0.80700000 0.14325000 0.00000000
0.88075000 0.14325000 0.00000000
0.95450000 0.14325000 0.00000000
1.00000000 0.14325000 0.00000000
1.00000000 0.14325000 0.00000000
0.00000000 0.21700000 0.00000000
0.00000000 0.21700000 0.00000000
0.06950000 0.21700000 0.00000000
0.14325000 0.21700000 0.00000000
0.21700000 0.21700000 0.00000000
0.29075000 0.21700000 0.00000000
0.36450000 0.21700000 0.00000000
0.43825000 0.21700000 0.00000000
0.51200000 0.21700000 0.00000000
0.58575000 0.21700000 0.00000000
0.65950000 0.21700000 0.00000000
0.73325000 0.21700000 0.00000000
0.80700000 0.21700000 0.00000000
0.88075000 0.21700000 0.00000000
0.95450000 0.21700000 0.00000000
1.00000000 0.21700000 0.00000000
1.00000000 0.21700000 0.00000000
0.00000000 0.29075000 0.00000000
0.00000000 0.29075000 0.00000000
0.06950000 0.29075000 0.00000000
0.14325000 0.29075000 0.00000000
0.21700000 0.29075000 0.00000000
0.29075000 0.29075000 0.00000000
0.36450000 0.29075000 0.00000000
0.43825000 0.29075000 0.00000000
0.51200000 0.29075000 0.00000000
0.58575000 0.29075000 0.00000000
0.65950000 0.29075000 0.00000000
0.73325000 0.29075000 0.00000000
0.80700000 0.29075000 0.00000000
0.88075000 0.29075000 0.00000000
0.95450000 0.29075000 0.00000000
1.00000000 0.29075000 0.00000000
1.00000000 0.29075000 0.00000000
0.00000000 0.36450000 0.00000000
0.00000000 0.36450000 0.00000000
0.06950000 0.36450000 0.00000000
0.14325000 0.36450000 0.00000000
0.21700000 0.36450000 0.00000000
0.29075000 0.36450000 0.00000000
0.36450000 0.36450000 0.00000000
0.43825000 0.36450000 0.00000000
0.51200000 0.36450000 0.00000000
0.58575000 0.36450000 0.00000000
0.65950000 0.36450000 0.00000000
0.73325000 0.36450000 0.00000000
0.80700000 0.36450000 0.00000000
0.88075000 0.36450000 0.00000000
0.95450000 0.36450000 0.00000000
1.00000000 0.36450000 0.00000000
1.00000000 0.36450000 0.00000000
0.00000000 0.43825000 0.00000000
0.00000000 0.43825000 0.00000000
0.06950000 0.43825000 0.00000000
0.14325000 0.43825000 0.00000000
0.21700000 0.43825000 0.00000000
0.29075000 0.43825000 0.00000000
0.36450000 0.43825000 0.00000000
0.43825000 0.43825000 0.00000000
0.51200000 0.43825000 0.00000000
0.58575000 0.43825000 0.00000000
0.65950000 0.43825000 0.00000000
0.73325000 0.43825000 0.00000000
0.80700000 0.43825000 0.00000000
0.88075000 0.43825000 0.00000000
0.95450000 0.43825000 0.00000000
1.00000000 0.43825000 0.00000000
1.00000000 0.43825000 0.00000000
0.00000000 0.51200000 0.00000000
0.00000000 0.51200000 0.00000000
0.06950000 0.51200000 0.00000000
0.14325000 0.51200000 0.00000000
0.21700000 0.51200000 0.00000000
0.29075000 0.51200000 0.00000000
0.36450000 0.51200000 0.00000000
0.43825000 0.51200000 0.00000000
0.51200000 0.51200000 0.00000000
0.58575000 0.51200000 0.00000000
0.65950000 0.51200000 0.00000000
0.73325000 0.51200000 0.00000000
0.80700000 0.51200000 0.00000000
0.88075000 0.51200000 0.00000000
0.95450000 0.51200000 0.00000000
1.00000000 0.51200000 0.00000000
1.00000000 0.51200000 0.00000000
0.00000000 0.58575000 0.00000000
0.00000000 0.58575000 0.00000000
0.06950000 0.58575000 0.00000000
0.14325000 0.58575000 0.00000000
0.21700000 0.58575000 0.00000000
0.29075000 0.58575000 0.00000000
0.36450000 0.58575000 0.00000000
0.43825000 0.58575000 0.00000000
0.51200000 0.58575000 0.00000000
0.58575000 0.58575000 0.00000000
0.65950000 0.58575000 0.00000000
0.73325000 0.58575000 0.00000000
0.80700000 0.58575000 0.00000000
0.88075000 0.58575000 0.00000000
0.95450000 0.58575000 0.00000000
1.00000000 0.58575000 0.00000000
1.00000000 0.58575000 0.00000000
0.00000000 0.65950000 0.00000000
0.00000000 0.65950000 0.00000000
0.06950000 0.65950000 0.00000000
0.14325000 0.65950000 0.00000000
0.21700000 0.65950000 0.00000000
0.29075000 0.65950000 0.00000000
0.36450000 0.65950000 0.00000000
0.43825000 0.65950000 0.00000000
0.51200000 0.65950000 0.00000000
0.58575000 0.65950000 0.00000000
0.65950000 0.65950000 0.00000000
0.73325000 0.65950000 0.00000000
0.80700000 0.65950000 0.00000000
0.88075000 0.65950000 0.00000000
0.95450000 0.65950000 0.00000000
1.00000000 0.65950000 0.00000000
1.00000000 0.65950000 0.00000000
0.00000000 0.73325000 0.00000000
0.00000000 0.73325000 0.00000000
0.06950000 0.73325000 0.00000000
0.14325000 0.73325000 0.00000000
0.21700000 0.73325000 0.00000000
0.29075000 0.73325000 0.00000000
0.36450000 0.73325000 0.00000000
0.43825000 0.73325000 0.00000000
0.51200000 0.73325000 0.00000000
0.58575000 0.73325000 0.00000000
0.65950000 0.73325000 0.00000000
0.73325000 0.73325000 0.00000000
0.80700000 0.73325000 0.00000000
0.88075000 0.73325000 0.00000000
0.95450000 0.73325000 0.00000000
1.00000000 0.73325000 0.00000000
1.00000000 0.73325000 0.00000000
0.00000000 0.80700000 0.00000000
0.00000000 0.80700000 0.00000000
0.06950000 0.80700000 0.00000000
0.14325000 0.80700000 0.00000000
0.21700000 0.80700000 0.00000000
0.29075000 0.80700000 0.00000000
0.36450000 0.80700000 0.00000000
0.43825000 0.80700000 0.00000000
0.51200000 0.80700000 0.00000000
0.58575000 0.80700000 0.00000000
0.65950000 0.80700000 0.00000000
0.73325000 0.80700000 0.00000000
0.80700000 0.80700000 0.00000000
0.88075000 0.80700000 0.00000000
0.95450000 0.80700000 0.00000000
1.00000000 0.80700000 0.00000000
1.00000000 0.80700000 0.00000000
0.00000000 0.88075000 0.00000000
0.00000000 0.88075000 0.00000000
0.06950000 0.88075000 0.00000000
0.14325000 0.88075000 0.00000000
0.21700000 0.88075000 0.00000000
0.29075000 0.88075000 0.00000000
0.36450000 0.88075000 0.00000000
0.43825000 0.88075000 0.00000000
0.51200000 0.88075000 0.00000000
0.58575000 0.88075000 0.00000000
0.65950000 0.88075000 0.00000000
0.73325000 0.88075000 0.00000000
0.80700000 0.88075000 0.00000000
0.88075000 0.88075000 0.00000000
0.95450000 0.88075000 0.00000000
1.00000000 0.88075000 0.00000000
1.00000000 0.88075000 0.00000000
0.00000000 0.95450000 0.00000000
0.00000000 0.95450000 0.00000000
0.06950000 0.95450000 0.00000000
0.14325000 0.95450000 0.00000000
0.21700000 0.95450000 0.00000000
0.29075000 0.95450000 0.00000000
0.36450000 0.95450000 0.00000000
0.43825000 0.95450000 0.00000000
0.51200000 0.95450000 0.00000000
0.58575000 0.95450000 0.00000000
0.65950000 0.95450000 0.00000000
0.73325000 0.95450000 0.00000000
0.80700000 0.95450000 0.00000000
0.88075000 0.95450000 0.00000000
0.95450000 0.95450000 0.00000000
1.00000000 0.95450000 0.00000000
1.00000000 0.95450000 0.00000000
0.00000000 1.00000000 0.00000000
0.00000000 1.00000000 0.00000000
0.06950000 1.00000000 0.00000000
0.14325000 1.00000000 0.00000000
0.21700000 1.00000000 0.00000000
0.29075000 1.00000000 0.00000000
0.36450000 1.00000000 0.00000000
0.43825000 1.00000000 0.00000000
0.51200000 1.00000000 0.00000000
0.58575000 1.00000000 0.00000000
0.65950000 1.00000000 0.00000000
0.73325000 1.00000000 0.00000000
0.80700000 1.00000000 0.00000000
0.88075000 1.00000000 0.00000000
0.95450000 1.00000000 0.00000000
1.00000000 1.00000000 0.00000000
1.00000000 1.00000000 0.00000000
0.00000000 1.00000000 0.00000000
0.00000000 1.00000000 0.00000000
0.06950000 1.00000000 0.00000000
0.14325000 1.00000000 0.00000000
0.21700000 1.00000000 0.00000000
0.29075000 1.00000000 0.00000000
0.36450000 1.00000000 0.00000000
0.43825000 1.00000000 0.00000000
0.51200000 1.00000000 0.00000000
0.58575000 1.00000000 0.00000000
0.65950000 1.00000000 0.00000000
0.73325000 1.00000000 0.00000000
0.80700000 1.00000000 0.00000000
0.88075000 1.00000000 0.00000000
0.95450000 1.00000000 0.00000000
1.00000000 1.00000000 0.00000000
1.00000000 1.00000000 0.00000000
0.00000000 0.00000000 0.06950000
0.00000000 0.00000000 0.06950000
0.06950000 0.00000000 0.06950000
0.14325000 0.00000000 0.06950000
0.21700000 0.00000000 0.06950000
0.29075000 0.00000000 0.06950000
0.36450000 0.00000000 0.06950000
0.43825000 0.00000000 0.06950000
0.51200000 0.00000000 0.06950000
0.58575000 0.00000000 0.06950000
0.65950000 0.00000000 0.06950000
0.73325000 0.00000000 0.06950000
0.80700000 0.00000000 0.06950000
0.88075000 0.00000000 0.06950000
0.95450000 0.00000000 0.06950000
1.00000000 0.00000000 0.06950000
1.00000000 0.00000000 0.06950000
0.00000000 0.00000000 0.06950000
0.00000000 0.00000000 0.06950000
0.06950000 0.00000000 0.06950000
0.14325000 0.00000000 0.06950000
0.21700000 0.00000000 0.06950000
0.29075000 0.00000000 0.06950000
0.36450000 0.00000000 0.06950000
0.43825000 0.00000000 0.06950000
0.51200000 0.00000000 0.06950000
0.58575000 0.00000000 0.06950000
0.65950000 0.00000000 0.06950000
0.73325000 0.00000000 0.06950000
0.80700000 0.00000000 0.06950000
0.88075000 0.00000000 0.06950000
0.95450000 0.00000000 0.06950000
1.00000000 0.00000000 0.06950000
1.00000000 0.00000000 0.06950000
0.00000000 0.06950000 0.06950000
0.00000000 0.06950000 0.06950000
0.06950000 0.06950000 0.06950000
0.14325000 0.06360000 0.06360000
0.21700000 0.05770000 0.05770000
0.29075000 0.05180000 0.05180000
0.36450000 0.04590000 0.04590000
0.43825000 0.04000000 0.04000000
0.51200000 0.03410000 0.03410000
0.58575000 0.02820000 0.02820000
0.65950000 0.02230000 0.02230000
0.73325000 0.01640000 0.01640000
0.80700000 0.01050000 0.01050000
0.88075000 0.00460000 0.00460000
0.95450000 0.00000000 0.00000000
1.00000000 0.00000000 0.00000000
1.00000000 0.00000000 0.00000000
0.00000000 0.14325000 0.06950000
0.00000000 0.14325000 0.06950000
0.06360000 0.14325000 0.06360000
0.14325000 0.14325000 0.06360000
0.21700000 0.13735000 0.05770000
0.29075000 0.13145000 0.05180000
0.36450000 0.12555000 0.04590000
0.43825000 0.11965000 0.04000000
0.51200000 0.11375000 0.03410000
0.58575000 0.10785000 0.02820000
0.65950000 0.10195000 0.02230000
0.73325000 0.09605000 0.01640000
0.80700000 0.09015000 0.01050000
0.88075000 0.08425000 0.00460000
0.95450000 0.07954167 0.00000000
1.00000000 0.07925846 0.00000000
1.00000000 0.07925846 0.00000000
0.00000000 0.21700000 0.06950000
0.00000000 0.21700000 0.06950000
0.05770000 0.21700000 0.05770000
0.13735000 0.21700000 0.05770000
0.21700000 0.21700000 0.05770000
0.29075000 0.21110000 0.05180000
0.36450000 0.20520000 0.04590000
0.43825000 0.19930000 0.04000000
0.51200000 0.19340000 0.03410000
0.58575000 0.18750000 0.02820000
0.65950000 0.18160000 0.02230000
0.73325000 0.17570000 0.01640000
0.80700000 0.16980000 0.01050000
0.88075000 0.16390000 0.00460000
0.95450000 0.15908333 0.00000000
1.00000000 0.15851693 0.00000000
1.00000000 0.15851693 0.00000000
0.00000000 0.29075000 0.06950000
0.00000000 0.29075000 0.06950000
0.05180000 0.29075000 0.05180000
0.13145000 0.29075000 0.05180000
0.21110000 0.29075000 0.05180000
0.29075000 0.29075000 0.05180000
0.36450000 0.28485000 0.04590000
0.43825000 0.27895000 0.04000000
0.51200000 0.27305000 0.03410000
0.58575000 0.26715000 0.02820000
0.65950000 0.26125000 0.02230000
0.73325000 0.25535000 0.01640000
0.80700000 0.24945000 0.01050000
0.88075000 0.24355000 0.00460000
0.95450000 0.23862500 0.00000000
1.00000000 0.23777539 0.00000000
1.00000000 0.23777539 0.00000000
0.00000000 0.36450000 0.06950000
0.00000000 0.36450000 0.06950000
0.04590000 0.36450000 0.04590000
0.12555000 0.36450000 0.04590000
0.20520000 0.36450000 0.04590000
0.28485000 0.36450000 0.04590000
0.36450000 0.36450000 0.04590000
0.43825000 0.35860000 0.04000000
0.51200000 0.35270000 0.03410000
0.58575000 0.34680000 0.02820000
0.65950000 0.34090000 0.02230000
0.73325000 0.33500000 0.01640000
0.80700000 0.32910000 0.01050000
0.88075000 0.32320000 0.00460000
0.95450000 0.31816667 0.00000000
1.00000000 0.31703385 0.00000000
1.00000000 0.31703385 0.00000000
0.00000000 0.43825000 0.06950000
0.00000000 0.43825000 0.06950000
0.04000000 0.43825000 0.04000000
0.11965000 0.43825000 0.04000000
0.19930000 0.43825000 0.04000000
0.27895000 0.43825000 0.04000000
0.35860000 0.43825000 0.04000000
0.43825000 0.43825000 0.04000000
0.51200000 0.43235000 0.03410000
0.58575000 0.42645000 0.02820000
0.65950000 0.42055000 0.02230000
0.73325000 0.41465000 0.01640000
0.80700000 0.40875000 0.01050000
0.88075000 0.40285000 0.00460000
0.95450000 0.39770833 0.00000000
1.00000000 0.39629232 0.00000000
1.00000000 0.39629232 0.00000000
0.00000000 0.51200000 0.06950000
0.00000000 0.51200000 0.06950000
0.03410000 0.51200000 0.03410000
0.11375000 0.51200000 0.03410000
0.19340000 0.51200000 0.03410000
0.27305000 0.51200000 0.03410000
0.35270000 0.51200000 0.03410000
0.43235000 0.51200000 0.03410000
0.51200000 0.51200000 0.03410000
0.58575000 0.50610000 0.02820000
