recipes/color/anime_cold_v1/anime_cold_v1.cube
TITLE "anime_cold_v1"
LUT_3D_SIZE 9
DOMAIN_MIN 0.0 0.0 0.0
DOMAIN_MAX 1.0 1.0 1.0
0.00000000 0.00000000 0.00000000
0.07080000 0.00000000 0.00000000
0.19920000 0.00000000 0.00000000
0.32760000 0.00000000 0.00000000
0.45600000 0.00000000 0.00000000
0.58440000 0.00000000 0.00000000
0.71280000 0.00000000 0.00000000
0.84120000 0.00000000 0.00000000
0.96960000 0.00000000 0.00000000
0.00000000 0.09973750 0.00000000
0.07080000 0.09973750 0.00000000
0.19920000 0.09973750 0.00000000
0.32760000 0.09973750 0.00000000
0.45600000 0.09973750 0.00000000
0.58440000 0.09973750 0.00000000
0.71280000 0.09973750 0.00000000
0.84120000 0.09973750 0.00000000
0.96960000 0.09973750 0.00000000
0.00000000 0.23482500 0.00000000
0.07080000 0.23482500 0.00000000
0.19920000 0.23482500 0.00000000
0.32760000 0.23482500 0.00000000
0.45600000 0.23482500 0.00000000
0.58440000 0.23482500 0.00000000
0.71280000 0.23482500 0.00000000
0.84120000 0.23482500 0.00000000
0.96960000 0.23482500 0.00000000
0.00000000 0.36991250 0.00000000
0.07080000 0.36991250 0.00000000
0.19920000 0.36991250 0.00000000
0.32760000 0.36991250 0.00000000
0.45600000 0.36991250 0.00000000
0.58440000 0.36991250 0.00000000
0.71280000 0.36991250 0.00000000
0.84120000 0.36991250 0.00000000
0.96960000 0.36991250 0.00000000
0.00000000 0.50500000 0.00000000
0.07080000 0.50500000 0.00000000
0.19920000 0.50500000 0.00000000
0.32760000 0.50500000 0.00000000
0.45600000 0.50500000 0.00000000
0.58440000 0.50500000 0.00000000
0.71280000 0.50500000 0.00000000
0.84120000 0.50500000 0.00000000
0.96960000 0.50500000 0.00000000
0.00000000 0.64008750 0.00000000
0.07080000 0.64008750 0.00000000
0.19920000 0.64008750 0.00000000
0.32760000 0.64008750 0.00000000
0.45600000 0.64008750 0.00000000
0.58440000 0.64008750 0.00000000
0.71280000 0.64008750 0.00000000
0.84120000 0.64008750 0.00000000
0.96960000 0.64008750 0.00000000
0.00000000 0.77517500 0.00000000
0.07080000 0.77517500 0.00000000
0.19920000 0.77517500 0.00000000
0.32760000 0.77517500 0.00000000
0.45600000 0.77517500 0.00000000
0.58440000 0.77517500 0.00000000
0.71280000 0.77517500 0.00000000
0.84120000 0.77517500 0.00000000
0.96960000 0.77517500 0.00000000
0.00000000 0.91026250 0.00000000
0.07080000 0.91026250 0.00000000
0.19920000 0.91026250 0.00000000
0.32760000 0.91026250 0.00000000
0.45600000 0.91026250 0.00000000
0.58440000 0.91026250 0.00000000
0.71280000 0.91026250 0.00000000
0.84120000 0.91026250 0.00000000
0.96960000 0.91026250 0.00000000
0.00000000 1.00000000 0.00000000
0.07080000 1.00000000 0.00000000
0.19920000 1.00000000 0.00000000
0.32760000 1.00000000 0.00000000
0.45600000 1.00000000 0.00000000
0.58440000 1.00000000 0.00000000
0.71280000 1.00000000 0.00000000
0.84120000 1.00000000 0.00000000
0.96960000 1.00000000 0.00000000
0.00000000 0.00000000 0.14445000
0.07080000 0.00000000 0.14445000
0.19920000 0.00000000 0.14445000
0.32760000 0.00000000 0.14445000
0.45600000 0.00000000 0.14445000
0.58440000 0.00000000 0.14445000
0.71280000 0.00000000 0.14445000
0.84120000 0.00000000 0.14445000
0.96960000 0.00000000 0.14445000
0.00000000 0.09973750 0.14445000
0.06785400 0.09794900 0.14445000
0.19920000 0.09575900 0.14226000
0.32760000 0.09062300 0.13712400
0.45600000 0.08548700 0.13198800
0.58440000 0.08035100 0.12685200
0.71280000 0.07521500 0.12171600
0.84120000 0.07007900 0.11658000
0.96960000 0.06494300 0.11144400
0.00000000 0.23482500 0.14445000
0.06423900 0.23482500 0.14083500
0.19777500 0.23482500 0.14083500
0.32760000 0.23111400 0.13712400
0.45600000 0.22597800 0.13198800
0.58440000 0.22084200 0.12685200
0.71280000 0.21570600 0.12171600
0.84120000 0.21057000 0.11658000
0.96960000 0.20543400 0.11144400
0.00000000 0.36991250 0.14445000
0.05883550 0.36991250 0.13543150
0.19237150 0.36991250 0.13543150
0.32590750 0.36991250 0.13543150
0.45600000 0.36646900 0.13198800
0.58440000 0.36133300 0.12685200
0.71280000 0.35619700 0.12171600
0.84120000 0.35106100 0.11658000
0.96960000 0.34592500 0.11144400
0.00000000 0.50500000 0.14445000
0.05343200 0.50500000 0.13002800
0.18696800 0.50500000 0.13002800
0.32050400 0.50500000 0.13002800
0.45404000 0.50500000 0.13002800
0.58440000 0.50182400 0.12685200
0.71280000 0.49668800 0.12171600
0.84120000 0.49155200 0.11658000
0.96960000 0.48641600 0.11144400
0.00000000 0.64008750 0.14445000
0.04802850 0.64008750 0.12462450
0.18156450 0.64008750 0.12462450
0.31510050 0.64008750 0.12462450
0.44863650 0.64008750 0.12462450
0.58217250 0.64008750 0.12462450
0.71280000 0.63717900 0.12171600
0.84120000 0.63204300 0.11658000
0.96960000 0.62690700 0.11144400
0.00000000 0.77517500 0.14445000
0.04262500 0.77517500 0.11922100
0.17616100 0.77517500 0.11922100
0.30969700 0.77517500 0.11922100
0.44323300 0.77517500 0.11922100
0.57676900 0.77517500 0.11922100
0.71030500 0.77517500 0.11922100
0.84120000 0.77253400 0.11658000
0.96960000 0.76739800 0.11144400
0.00000000 0.91026250 0.14445000
0.03722150 0.91026250 0.11381750
0.17075750 0.91026250 0.11381750
0.30429350 0.91026250 0.11381750
0.43782950 0.91026250 0.11381750
0.57136550 0.91026250 0.11381750
0.70490150 0.91026250 0.11381750
0.83843750 0.91026250 0.11381750
0.96960000 0.90788900 0.11144400
0.00000000 1.00000000 0.14445000
0.03363200 1.00000000 0.11022800
0.16716800 1.00000000 0.11022800
0.30070400 1.00000000 0.11022800
0.43424000 1.00000000 0.11022800
0.56777600 1.00000000 0.11022800
0.70131200 1.00000000 0.11022800
0.83484800 1.00000000 0.11022800
0.96838400 1.00000000 0.11022800
0.00000000 0.00000000 0.28890000
0.07080000 0.00000000 0.28890000
0.19920000 0.00000000 0.28890000
0.32760000 0.00000000 0.28890000
0.45600000 0.00000000 0.28890000
0.58440000 0.00000000 0.28890000
0.71280000 0.00000000 0.28890000
0.84120000 0.00000000 0.28890000
0.96960000 0.00000000 0.28890000
0.00000000 0.09973750 0.28890000
0.06207600 0.09217100 0.28890000
0.19561200 0.09217100 0.28890000
0.32760000 0.09062300 0.28735200
0.45600000 0.08548700 0.28221600
0.58440000 0.08035100 0.27708000
0.71280000 0.07521500 0.27194400
0.84120000 0.07007900 0.26680800
0.96960000 0.06494300 0.26167200
0.00000000 0.23482500 0.28890000
0.06207600 0.23266200 0.28890000
0.19561200 0.23266200 0.28890000
0.32760000 0.23111400 0.28735200
0.45600000 0.22597800 0.28221600
0.58440000 0.22084200 0.27708000
0.71280000 0.21570600 0.27194400
0.84120000 0.21057000 0.26680800
0.96960000 0.20543400 0.26167200
0.00000000 0.36991250 0.28890000
0.05883550 0.36991250 0.28565950
0.19237150 0.36991250 0.28565950
0.32590750 0.36991250 0.28565950
0.45600000 0.36646900 0.28221600
0.58440000 0.36133300 0.27708000
0.71280000 0.35619700 0.27194400
0.84120000 0.35106100 0.26680800
0.96960000 0.34592500 0.26167200
0.00000000 0.50500000 0.28890000
0.05343200 0.50500000 0.28025600
0.18696800 0.50500000 0.28025600
0.32050400 0.50500000 0.28025600
0.45404000 0.50500000 0.28025600
0.58440000 0.50182400 0.27708000
0.71280000 0.49668800 0.27194400
0.84120000 0.49155200 0.26680800
0.96960000 0.48641600 0.26167200
0.00000000 0.64008750 0.28890000
0.04802850 0.64008750 0.27485250
0.18156450 0.64008750 0.27485250
0.31510050 0.64008750 0.27485250
0.44863650 0.64008750 0.27485250
0.58217250 0.64008750 0.27485250
0.71280000 0.63717900 0.27194400
0.84120000 0.63204300 0.26680800
0.96960000 0.62690700 0.26167200
0.00000000 0.77517500 0.28890000
0.04262500 0.77517500 0.26944900
0.17616100 0.77517500 0.26944900
0.30969700 0.77517500 0.26944900
0.44323300 0.77517500 0.26944900
0.57676900 0.77517500 0.26944900
0.71030500 0.77517500 0.26944900
0.84120000 0.77253400 0.26680800
0.96960000 0.76739800 0.26167200
0.00000000 0.91026250 0.28890000
0.03722150 0.91026250 0.26404550
0.17075750 0.91026250 0.26404550
0.30429350 0.91026250 0.26404550
0.43782950 0.91026250 0.26404550
0.57136550 0.91026250 0.26404550
0.70490150 0.91026250 0.26404550
0.83843750 0.91026250 0.26404550
0.96960000 0.90788900 0.26167200
0.00000000 1.00000000 0.28890000
0.03363200 1.00000000 0.26045600
0.16716800 1.00000000 0.26045600
0.30070400 1.00000000 0.26045600
0.43424000 1.00000000 0.26045600
0.56777600 1.00000000 0.26045600
0.70131200 1.00000000 0.26045600
0.83484800 1.00000000 0.26045600
0.96838400 1.00000000 0.26045600
0.00000000 0.00000000 0.43335000
0.07080000 0.00000000 0.43335000
0.19920000 0.00000000 0.43335000
0.32760000 0.00000000 0.43335000
0.45600000 0.00000000 0.43335000
0.58440000 0.00000000 0.43335000
0.71280000 0.00000000 0.43335000
0.84120000 0.00000000 0.43335000
0.96960000 0.00000000 0.43335000
0.00000000 0.09973750 0.43335000
0.05629800 0.08639300 0.43335000
0.18983400 0.08639300 0.43335000
0.32337000 0.08639300 0.43335000
0.45600000 0.08548700 0.43244400
0.58440000 0.08035100 0.42730800
0.71280000 0.07521500 0.42217200
0.84120000 0.07007900 0.41703600
0.96960000 0.06494300 0.41190000
0.00000000 0.23482500 0.43335000
0.05629800 0.22688400 0.43335000
0.18983400 0.22688400 0.43335000
0.32337000 0.22688400 0.43335000
0.45600000 0.22597800 0.43244400
0.58440000 0.22084200 0.42730800
0.71280000 0.21570600 0.42217200
0.84120000 0.21057000 0.41703600
0.96960000 0.20543400 0.41190000
0.00000000 0.36991250 0.43335000
0.05629800 0.36737500 0.43335000
0.18983400 0.36737500 0.43335000
0.32337000 0.36737500 0.43335000
0.45600000 0.36646900 0.43244400
0.58440000 0.36133300 0.42730800
0.71280000 0.35619700 0.42217200
0.84120000 0.35106100 0.41703600
0.96960000 0.34592500 0.41190000
0.00000000 0.50500000 0.43335000
0.05343200 0.50500000 0.43048400
0.18696800 0.50500000 0.43048400
0.32050400 0.50500000 0.43048400
0.45404000 0.50500000 0.43048400
0.58440000 0.50182400 0.42730800
0.71280000 0.49668800 0.42217200
0.84120000 0.49155200 0.41703600
0.96960000 0.48641600 0.41190000
0.00000000 0.64008750 0.43335000
0.04802850 0.64008750 0.42508050
0.18156450 0.64008750 0.42508050
0.31510050 0.64008750 0.42508050
0.44863650 0.64008750 0.42508050
0.58217250 0.64008750 0.42508050
0.71280000 0.63717900 0.42217200
0.84120000 0.63204300 0.41703600
0.96960000 0.62690700 0.41190000
0.00000000 0.77517500 0.43335000
0.04262500 0.77517500 0.41967700
0.17616100 0.77517500 0.41967700
0.30969700 0.77517500 0.41967700
0.44323300 0.77517500 0.41967700
0.57676900 0.77517500 0.41967700
0.71030500 0.77517500 0.41967700
0.84120000 0.77253400 0.41703600
0.96960000 0.76739800 0.41190000
0.00000000 0.91026250 0.43335000
0.03722150 0.91026250 0.41427350
0.17075750 0.91026250 0.41427350
0.30429350 0.91026250 0.41427350
0.43782950 0.91026250 0.41427350
0.57136550 0.91026250 0.41427350
0.70490150 0.91026250 0.41427350
0.83843750 0.91026250 0.41427350
0.96960000 0.90788900 0.41190000
0.00000000 1.00000000 0.43335000
0.03363200 1.00000000 0.41068400
0.16716800 1.00000000 0.41068400
0.30070400 1.00000000 0.41068400
0.43424000 1.00000000 0.41068400
0.56777600 1.00000000 0.41068400
0.70131200 1.00000000 0.41068400
0.83484800 1.00000000 0.41068400
0.96838400 1.00000000 0.41068400
0.00000000 0.00000000 0.57780000
0.07080000 0.00000000 0.57780000
0.19920000 0.00000000 0.57780000
0.32760000 0.00000000 0.57780000
0.45600000 0.00000000 0.57780000
0.58440000 0.00000000 0.57780000
0.71280000 0.00000000 0.57780000
0.84120000 0.00000000 0.57780000
0.96960000 0.00000000 0.57780000
0.00000000 0.09973750 0.57780000
0.05052000 0.08061500 0.57780000
0.18405600 0.08061500 0.57780000
0.31759200 0.08061500 0.57780000
0.45112800 0.08061500 0.57780000
0.58440000 0.08035100 0.57753600
0.71280000 0.07521500 0.57240000
0.84120000 0.07007900 0.56726400
0.96960000 0.06494300 0.56212800
0.00000000 0.23482500 0.57780000
0.05052000 0.22110600 0.57780000
0.18405600 0.22110600 0.57780000
0.31759200 0.22110600 0.57780000
0.45112800 0.22110600 0.57780000
0.58440000 0.22084200 0.57753600
0.71280000 0.21570600 0.57240000
0.84120000 0.21057000 0.56726400
0.96960000 0.20543400 0.56212800
0.00000000 0.36991250 0.57780000
0.05052000 0.36159700 0.57780000
0.18405600 0.36159700 0.57780000
0.31759200 0.36159700 0.57780000
0.45112800 0.36159700 0.57780000
0.58440000 0.36133300 0.57753600
0.71280000 0.35619700 0.57240000
0.84120000 0.35106100 0.56726400
0.96960000 0.34592500 0.56212800
0.00000000 0.50500000 0.57780000
0.05052000 0.50208800 0.57780000
0.18405600 0.50208800 0.57780000
0.31759200 0.50208800 0.57780000
0.45112800 0.50208800 0.57780000
0.58440000 0.50182400 0.57753600
0.71280000 0.49668800 0.57240000
0.84120000 0.49155200 0.56726400
0.96960000 0.48641600 0.56212800
0.00000000 0.64008750 0.57780000
0.04802850 0.64008750 0.57530850
0.18156450 0.64008750 0.57530850
0.31510050 0.64008750 0.57530850
0.44863650 0.64008750 0.57530850
0.58217250 0.64008750 0.57530850
0.71280000 0.63717900 0.57240000
0.84120000 0.63204300 0.56726400
0.96960000 0.62690700 0.56212800
0.00000000 0.77517500 0.57780000
0.04262500 0.77517500 0.56990500
0.17616100 0.77517500 0.56990500
0.30969700 0.77517500 0.56990500
0.44323300 0.77517500 0.56990500
0.57676900 0.77517500 0.56990500
0.71030500 0.77517500 0.56990500
0.84120000 0.77253400 0.56726400
0.96960000 0.76739800 0.56212800
0.00000000 0.91026250 0.57780000
0.03722150 0.91026250 0.56450150
0.17075750 0.91026250 0.56450150
0.30429350 0.91026250 0.56450150
0.43782950 0.91026250 0.56450150
0.57136550 0.91026250 0.56450150
0.70490150 0.91026250 0.56450150
0.83843750 0.91026250 0.56450150
0.96960000 0.90788900 0.56212800
0.00000000 1.00000000 0.57780000
0.03363200 1.00000000 0.56091200
0.16716800 1.00000000 0.56091200
0.30070400 1.00000000 0.56091200
0.43424000 1.00000000 0.56091200
0.56777600 1.00000000 0.56091200
0.70131200 1.00000000 0.56091200
0.83484800 1.00000000 0.56091200
0.96838400 1.00000000 0.56091200
0.00000000 0.00000000 0.72225000
0.07080000 0.00000000 0.72225000
0.19920000 0.00000000 0.72225000
0.32760000 0.00000000 0.72225000
0.45600000 0.00000000 0.72225000
0.58440000 0.00000000 0.72225000
0.71280000 0.00000000 0.72225000
0.84120000 0.00000000 0.72225000
0.96960000 0.00000000 0.72225000
0.00000000 0.09973750 0.72225000
0.04474200 0.07483700 0.72225000
0.17827800 0.07483700 0.72225000
0.31181400 0.07483700 0.72225000
0.44535000 0.07483700 0.72225000
0.57888600 0.07483700 0.72225000
0.71242200 0.07483700 0.72225000
0.84120000 0.07007900 0.71749200
0.96960000 0.06494300 0.71235600
0.00000000 0.23482500 0.72225000
0.04474200 0.21532800 0.72225000
0.17827800 0.21532800 0.72225000
0.31181400 0.21532800 0.72225000
0.44535000 0.21532800 0.72225000
0.57888600 0.21532800 0.72225000
0.71242200 0.21532800 0.72225000
0.84120000 0.21057000 0.71749200
0.96960000 0.20543400 0.71235600
0.00000000 0.36991250 0.72225000
0.04474200 0.35581900 0.72225000
0.17827800 0.35581900 0.72225000
0.31181400 0.35581900 0.72225000
0.44535000 0.35581900 0.72225000
0.57888600 0.35581900 0.72225000
0.71242200 0.35581900 0.72225000
0.84120000 0.35106100 0.71749200
0.96960000 0.34592500 0.71235600
0.00000000 0.50500000 0.72225000
0.04474200 0.49631000 0.72225000
0.17827800 0.49631000 0.72225000
0.31181400 0.49631000 0.72225000
0.44535000 0.49631000 0.72225000
0.57888600 0.49631000 0.72225000
0.71242200 0.49631000 0.72225000
0.84120000 0.49155200 0.71749200
0.96960000 0.48641600 0.71235600
0.00000000 0.64008750 0.72225000
0.04474200 0.63680100 0.72225000
0.17827800 0.63680100 0.72225000
0.31181400 0.63680100 0.72225000
0.44535000 0.63680100 0.72225000
0.57888600 0.63680100 0.72225000
0.71242200 0.63680100 0.72225000
0.84120000 0.63204300 0.71749200
0.96960000 0.62690700 0.71235600
0.00000000 0.77517500 0.72225000
0.04262500 0.77517500 0.72013300
0.17616100 0.77517500 0.72013300
0.30969700 0.77517500 0.72013300
0.44323300 0.77517500 0.72013300
0.57676900 0.77517500 0.72013300
0.71030500 0.77517500 0.72013300
0.84120000 0.77253400 0.71749200
0.96960000 0.76739800 0.71235600
0.00000000 0.91026250 0.72225000
0.03722150 0.91026250 0.71472950
0.17075750 0.91026250 0.71472950
0.30429350 0.91026250 0.71472950
0.43782950 0.91026250 0.71472950
0.57136550 0.91026250 0.71472950
0.70490150 0.91026250 0.71472950
0.83843750 0.91026250 0.71472950
0.96960000 0.90788900 0.71235600
0.00000000 1.00000000 0.72225000
0.03363200 1.00000000 0.71114000
0.16716800 1.00000000 0.71114000
0.30070400 1.00000000 0.71114000
0.43424000 1.00000000 0.71114000
0.56777600 1.00000000 0.71114000
0.70131200 1.00000000 0.71114000
0.83484800 1.00000000 0.71114000
0.96838400 1.00000000 0.71114000
0.00000000 0.00000000 0.86670000
0.07080000 0.00000000 0.86670000
0.19920000 0.00000000 0.86670000
0.32760000 0.00000000 0.86670000
0.45600000 0.00000000 0.86670000
0.58440000 0.00000000 0.86670000
0.71280000 0.00000000 0.86670000
0.84120000 0.00000000 0.86670000
0.96960000 0.00000000 0.86670000
0.00000000 0.09973750 0.86670000
0.03896400 0.06905900 0.86670000
0.17250000 0.06905900 0.86670000
0.30603600 0.06905900 0.86670000
0.43957200 0.06905900 0.86670000
0.57310800 0.06905900 0.86670000
0.70664400 0.06905900 0.86670000
0.84018000 0.06905900 0.86670000
0.96960000 0.06494300 0.86258400
0.00000000 0.23482500 0.86670000
0.03896400 0.20955000 0.86670000
0.17250000 0.20955000 0.86670000
0.30603600 0.20955000 0.86670000
0.43957200 0.20955000 0.86670000
0.57310800 0.20955000 0.86670000
0.70664400 0.20955000 0.86670000
0.84018000 0.20955000 0.86670000
0.96960000 0.20543400 0.86258400
0.00000000 0.36991250 0.86670000
0.03896400 0.35004100 0.86670000
0.17250000 0.35004100 0.86670000
0.30603600 0.35004100 0.86670000
0.43957200 0.35004100 0.86670000
0.57310800 0.35004100 0.86670000
0.70664400 0.35004100 0.86670000
0.84018000 0.35004100 0.86670000
0.96960000 0.34592500 0.86258400
0.00000000 0.50500000 0.86670000
0.03896400 0.49053200 0.86670000
0.17250000 0.49053200 0.86670000
0.30603600 0.49053200 0.86670000
0.43957200 0.49053200 0.86670000
0.57310800 0.49053200 0.86670000
0.70664400 0.49053200 0.86670000
0.84018000 0.49053200 0.86670000
0.96960000 0.48641600 0.86258400
0.00000000 0.64008750 0.86670000
0.03896400 0.63102300 0.86670000
0.17250000 0.63102300 0.86670000
0.30603600 0.63102300 0.86670000
0.43957200 0.63102300 0.86670000
0.57310800 0.63102300 0.86670000
0.70664400 0.63102300 0.86670000
0.84018000 0.63102300 0.86670000
0.96960000 0.62690700 0.86258400
0.00000000 0.77517500 0.86670000
0.03896400 0.77151400 0.86670000
0.17250000 0.77151400 0.86670000
0.30603600 0.77151400 0.86670000
0.43957200 0.77151400 0.86670000
0.57310800 0.77151400 0.86670000
0.70664400 0.77151400 0.86670000
0.84018000 0.77151400 0.86670000
0.96960000 0.76739800 0.86258400
0.00000000 0.91026250 0.86670000
0.03722150 0.91026250 0.86495750
0.17075750 0.91026250 0.86495750
0.30429350 0.91026250 0.86495750
0.43782950 0.91026250 0.86495750
0.57136550 0.91026250 0.86495750
0.70490150 0.91026250 0.86495750
0.83843750 0.91026250 0.86495750
0.96960000 0.90788900 0.86258400
0.00000000 1.00000000 0.86670000
0.03363200 1.00000000 0.86136800
0.16716800 1.00000000 0.86136800
0.30070400 1.00000000 0.86136800
0.43424000 1.00000000 0.86136800
0.56777600 1.00000000 0.86136800
0.70131200 1.00000000 0.86136800
0.83484800 1.00000000 0.86136800
0.96838400 1.00000000 0.86136800
0.00000000 0.00000000 1.00000000
0.07080000 0.00000000 1.00000000
0.19920000 0.00000000 1.00000000
0.32760000 0.00000000 1.00000000
0.45600000 0.00000000 1.00000000
0.58440000 0.00000000 1.00000000
0.71280000 0.00000000 1.00000000
0.84120000 0.00000000 1.00000000
0.96960000 0.00000000 1.00000000
0.00000000 0.09973750 1.00000000
0.03363200 0.06372700 1.00000000
0.16716800 0.06372700 1.00000000
0.30070400 0.06372700 1.00000000
0.43424000 0.06372700 1.00000000
0.56777600 0.06372700 1.00000000
0.70131200 0.06372700 1.00000000
0.83484800 0.06372700 1.00000000
0.96838400 0.06372700 1.00000000
0.00000000 0.23482500 1.00000000
0.03363200 0.20421800 1.00000000
0.16716800 0.20421800 1.00000000
0.30070400 0.20421800 1.00000000
0.43424000 0.20421800 1.00000000
0.56777600 0.20421800 1.00000000
0.70131200 0.20421800 1.00000000
0.83484800 0.20421800 1.00000000
0.96838400 0.20421800 1.00000000
0.00000000 0.36991250 1.00000000
0.03363200 0.34470900 1.00000000
0.16716800 0.34470900 1.00000000
0.30070400 0.34470900 1.00000000
0.43424000 0.34470900 1.00000000
0.56777600 0.34470900 1.00000000
0.70131200 0.34470900 1.00000000
0.83484800 0.34470900 1.00000000
0.96838400 0.34470900 1.00000000
0.00000000 0.50500000 1.00000000
0.03363200 0.48520000 1.00000000
0.16716800 0.48520000 1.00000000
0.30070400 0.48520000 1.00000000
0.43424000 0.48520000 1.00000000
0.56777600 0.48520000 1.00000000
0.70131200 0.48520000 1.00000000
0.83484800 0.48520000 1.00000000
0.96838400 0.48520000 1.00000000
0.00000000 0.64008750 1.00000000
0.03363200 0.62569100 1.00000000
0.16716800 0.62569100 1.00000000
0.30070400 0.62569100 1.00000000
0.43424000 0.62569100 1.00000000
0.56777600 0.62569100 1.00000000
0.70131200 0.62569100 1.00000000
0.83484800 0.62569100 1.00000000
0.96838400 0.62569100 1.00000000
0.00000000 0.77517500 1.00000000
0.03363200 0.76618200 1.00000000
0.16716800 0.76618200 1.00000000
0.30070400 0.76618200 1.00000000
0.43424000 0.76618200 1.00000000
0.56777600 0.76618200 1.00000000
0.70131200 0.76618200 1.00000000
0.83484800 0.76618200 1.00000000
0.96838400 0.76618200 1.00000000
0.00000000 0.91026250 1.00000000
0.03363200 0.90667300 1.00000000
0.16716800 0.90667300 1.00000000
0.30070400 0.90667300 1.00000000
0.43424000 0.90667300 1.00000000
0.56777600 0.90667300 1.00000000
0.70131200 0.90667300 1.00000000
0.83484800 0.90667300 1.00000000
0.96838400 0.90667300 1.00000000
0.00000000 1.00000000 1.00000000
0.03363200 1.00000000 1.00000000
0.16716800 1.00000000 1.00000000
0.30070400 1.00000000 1.00000000
0.43424000 1.00000000 1.00000000
0.56777600 1.00000000 1.00000000
0.70131200 1.00000000 1.00000000
0.83484800 1.00000000 1.00000000
0.96838400 1.00000000 1.00000000
0.00000000 0.00000000 1.00000000
0.07080000 0.00000000 1.00000000
0.19920000 0.00000000 1.00000000
0.32760000 0.00000000 1.00000000
0.45600000 0.00000000 1.00000000
0.58440000 0.00000000 1.00000000
0.71280000 0.00000000 1.00000000
0.84120000 0.00000000 1.00000000
0.96960000 0.00000000 1.00000000
0.00000000 0.09973750 1.00000000
0.03363200 0.06372700 1.00000000
0.16716800 0.06372700 1.00000000
0.30070400 0.06372700 1.00000000
0.43424000 0.06372700 1.00000000
0.56777600 0.06372700 1.00000000
0.70131200 0.06372700 1.00000000
0.83484800 0.06372700 1.00000000
0.96838400 0.06372700 1.00000000
0.00000000 0.23482500 1.00000000
0.03363200 0.20421800 1.00000000
0.16716800 0.20421800 1.00000000
0.30070400 0.20421800 1.00000000
0.43424000 0.20421800 1.00000000
0.56777600 0.20421800 1.00000000
0.70131200 0.20421800 1.00000000
0.83484800 0.20421800 1.00000000
0.96838400 0.20421800 1.00000000
0.00000000 0.36991250 1.00000000
0.03363200 0.34470900 1.00000000
0.16716800 0.34470900 1.00000000
0.30070400 0.34470900 1.00000000
0.43424000 0.34470900 1.00000000
0.56777600 0.34470900 1.00000000
0.70131200 0.34470900 1.00000000
0.83484800 0.34470900 1.00000000
0.96838400 0.34470900 1.00000000
0.00000000 0.50500000 1.00000000
0.03363200 0.48520000 1.00000000
0.16716800 0.48520000 1.00000000
0.30070400 0.48520000 1.00000000
0.43424000 0.48520000 1.00000000
0.56777600 0.48520000 1.00000000
0.70131200 0.48520000 1.00000000
0.83484800 0.48520000 1.00000000
0.96838400 0.48520000 1.00000000
0.00000000 0.64008750 1.00000000
0.03363200 0.62569100 1.00000000
0.16716800 0.62569100 1.00000000
0.30070400 0.62569100 1.00000000
0.43424000 0.62569100 1.00000000
0.56777600 0.62569100 1.00000000
0.70131200 0.62569100 1.00000000
0.83484800 0.62569100 1.00000000
0.96838400 0.62569100 1.00000000
0.00000000 0.77517500 1.00000000
0.03363200 0.76618200 1.00000000
0.16716800 0.76618200 1.00000000
0.30070400 0.76618200 1.00000000
0.43424000 0.76618200 1.00000000
0.56777600 0.76618200 1.00000000
0.70131200 0.76618200 1.00000000
0.83484800 0.76618200 1.00000000
0.96838400 0.76618200 1.00000000
0.00000000 0.91026250 1.00000000
0.03363200 0.90667300 1.00000000
0.16716800 0.90667300 1.00000000
0.30070400 0.90667300 1.00000000
0.43424000 0.90667300 1.00000000
0.56777600 0.90667300 1.00000000
0.70131200 0.90667300 1.00000000
0.83484800 0.90667300 1.00000000
0.96838400 0.90667300 1.00000000
0.00000000 1.00000000 1.00000000
0.03363200 1.00000000 1.00000000
0.16716800 1.00000000 1.00000000
0.30070400 1.00000000 1.00000000
0.43424000 1.00000000 1.00000000
0.56777600 1.00000000 1.00000000
0.70131200 1.00000000 1.00000000
0.83484800 1.00000000 1.00000000
0.96838400 1.00000000 1.00000000
