recipes/color/anime_cold_v1/anime_cold_v1.cube
TITLE "anime_cold_v1"
LUT_3D_SIZE 17
DOMAIN_MIN 0.0 0.0 0.0
DOMAIN_MAX 1.0 1.0 1.0
0.00000000 0.00000000 0.00000000
0.00660000 0.00000000 0.00000000
0.07080000 0.00000000 0.00000000
0.13500000 0.00000000 0.00000000
0.19920000 0.00000000 0.00000000
0.26340000 0.00000000 0.00000000
0.32760000 0.00000000 0.00000000
0.39180000 0.00000000 0.00000000
0.45600000 0.00000000 0.00000000
0.52020000 0.00000000 0.00000000
0.58440000 0.00000000 0.00000000
0.64860000 0.00000000 0.00000000
0.71280000 0.00000000 0.00000000
0.77700000 0.00000000 0.00000000
0.84120000 0.00000000 0.00000000
0.90540000 0.00000000 0.00000000
0.96960000 0.00000000 0.00000000
0.00000000 0.03219375 0.00000000
0.00660000 0.03219375 0.00000000
0.07080000 0.03219375 0.00000000
0.13500000 0.03219375 0.00000000
0.19920000 0.03219375 0.00000000
0.26340000 0.03219375 0.00000000
0.32760000 0.03219375 0.00000000
0.39180000 0.03219375 0.00000000
0.45600000 0.03219375 0.00000000
0.52020000 0.03219375 0.00000000
0.58440000 0.03219375 0.00000000
0.64860000 0.03219375 0.00000000
0.71280000 0.03219375 0.00000000
0.77700000 0.03219375 0.00000000
0.84120000 0.03219375 0.00000000
0.90540000 0.03219375 0.00000000
0.96960000 0.03219375 0.00000000
0.00000000 0.09973750 0.00000000
0.00660000 0.09973750 0.00000000
0.07080000 0.09973750 0.00000000
0.13500000 0.09973750 0.00000000
0.19920000 0.09973750 0.00000000
0.26340000 0.09973750 0.00000000
0.32760000 0.09973750 0.00000000
0.39180000 0.09973750 0.00000000
0.45600000 0.09973750 0.00000000
0.52020000 0.09973750 0.00000000
0.58440000 0.09973750 0.00000000
0.64860000 0.09973750 0.00000000
0.71280000 0.09973750 0.00000000
0.77700000 0.09973750 0.00000000
0.84120000 0.09973750 0.00000000
0.90540000 0.09973750 0.00000000
0.96960000 0.09973750 0.00000000
0.00000000 0.16728125 0.00000000
0.00660000 0.16728125 0.00000000
0.07080000 0.16728125 0.00000000
0.13500000 0.16728125 0.00000000
0.19920000 0.16728125 0.00000000
0.26340000 0.16728125 0.00000000
0.32760000 0.16728125 0.00000000
0.39180000 0.16728125 0.00000000
0.45600000 0.16728125 0.00000000
0.52020000 0.16728125 0.00000000
0.58440000 0.16728125 0.00000000
0.64860000 0.16728125 0.00000000
0.71280000 0.16728125 0.00000000
0.77700000 0.16728125 0.00000000
0.84120000 0.16728125 0.00000000
0.90540000 0.16728125 0.00000000
0.96960000 0.16728125 0.00000000
0.00000000 0.23482500 0.00000000
0.00660000 0.23482500 0.00000000
0.07080000 0.23482500 0.00000000
0.13500000 0.23482500 0.00000000
0.19920000 0.23482500 0.00000000
0.26340000 0.23482500 0.00000000
0.32760000 0.23482500 0.00000000
0.39180000 0.23482500 0.00000000
0.45600000 0.23482500 0.00000000
0.52020000 0.23482500 0.00000000
0.58440000 0.23482500 0.00000000
0.64860000 0.23482500 0.00000000
0.71280000 0.23482500 0.00000000
0.77700000 0.23482500 0.00000000
0.84120000 0.23482500 0.00000000
0.90540000 0.23482500 0.00000000
0.96960000 0.23482500 0.00000000
0.00000000 0.30236875 0.00000000
0.00660000 0.30236875 0.00000000
0.07080000 0.30236875 0.00000000
0.13500000 0.30236875 0.00000000
0.19920000 0.30236875 0.00000000
0.26340000 0.30236875 0.00000000
0.32760000 0.30236875 0.00000000
0.39180000 0.30236875 0.00000000
0.45600000 0.30236875 0.00000000
0.52020000 0.30236875 0.00000000
0.58440000 0.30236875 0.00000000
0.64860000 0.30236875 0.00000000
0.71280000 0.30236875 0.00000000
0.77700000 0.30236875 0.00000000
0.84120000 0.30236875 0.00000000
0.90540000 0.30236875 0.00000000
0.96960000 0.30236875 0.00000000
0.00000000 0.36991250 0.00000000
0.00660000 0.36991250 0.00000000
0.07080000 0.36991250 0.00000000
0.13500000 0.36991250 0.00000000
0.19920000 0.36991250 0.00000000
0.26340000 0.36991250 0.00000000
0.32760000 0.36991250 0.00000000
0.39180000 0.36991250 0.00000000
0.45600000 0.36991250 0.00000000
0.52020000 0.36991250 0.00000000
0.58440000 0.36991250 0.00000000
0.64860000 0.36991250 0.00000000
0.71280000 0.36991250 0.00000000
0.77700000 0.36991250 0.00000000
0.84120000 0.36991250 0.00000000
0.90540000 0.36991250 0.00000000
0.96960000 0.36991250 0.00000000
0.00000000 0.43745625 0.00000000
0.00660000 0.43745625 0.00000000
0.07080000 0.43745625 0.00000000
0.13500000 0.43745625 0.00000000
0.19920000 0.43745625 0.00000000
0.26340000 0.43745625 0.00000000
0.32760000 0.43745625 0.00000000
0.39180000 0.43745625 0.00000000
0.45600000 0.43745625 0.00000000
0.52020000 0.43745625 0.00000000
0.58440000 0.43745625 0.00000000
0.64860000 0.43745625 0.00000000
0.71280000 0.43745625 0.00000000
0.77700000 0.43745625 0.00000000
0.84120000 0.43745625 0.00000000
0.90540000 0.43745625 0.00000000
0.96960000 0.43745625 0.00000000
0.00000000 0.50500000 0.00000000
0.00660000 0.50500000 0.00000000
0.07080000 0.50500000 0.00000000
0.13500000 0.50500000 0.00000000
0.19920000 0.50500000 0.00000000
0.26340000 0.50500000 0.00000000
0.32760000 0.50500000 0.00000000
0.39180000 0.50500000 0.00000000
0.45600000 0.50500000 0.00000000
0.52020000 0.50500000 0.00000000
0.58440000 0.50500000 0.00000000
0.64860000 0.50500000 0.00000000
0.71280000 0.50500000 0.00000000
0.77700000 0.50500000 0.00000000
0.84120000 0.50500000 0.00000000
0.90540000 0.50500000 0.00000000
0.96960000 0.50500000 0.00000000
0.00000000 0.57254375 0.00000000
0.00660000 0.57254375 0.00000000
0.07080000 0.57254375 0.00000000
0.13500000 0.57254375 0.00000000
0.19920000 0.57254375 0.00000000
0.26340000 0.57254375 0.00000000
0.32760000 0.57254375 0.00000000
0.39180000 0.57254375 0.00000000
0.45600000 0.57254375 0.00000000
0.52020000 0.57254375 0.00000000
0.58440000 0.57254375 0.00000000
0.64860000 0.57254375 0.00000000
0.71280000 0.57254375 0.00000000
0.77700000 0.57254375 0.00000000
0.84120000 0.57254375 0.00000000
0.90540000 0.57254375 0.00000000
0.96960000 0.57254375 0.00000000
0.00000000 0.64008750 0.00000000
0.00660000 0.64008750 0.00000000
0.07080000 0.64008750 0.00000000
0.13500000 0.64008750 0.00000000
0.19920000 0.64008750 0.00000000
0.26340000 0.64008750 0.00000000
0.32760000 0.64008750 0.00000000
0.39180000 0.64008750 0.00000000
0.45600000 0.64008750 0.00000000
0.52020000 0.64008750 0.00000000
0.58440000 0.64008750 0.00000000
0.64860000 0.64008750 0.00000000
0.71280000 0.64008750 0.00000000
0.77700000 0.64008750 0.00000000
0.84120000 0.64008750 0.00000000
0.90540000 0.64008750 0.00000000
0.96960000 0.64008750 0.00000000
0.00000000 0.70763125 0.00000000
0.00660000 0.70763125 0.00000000
0.07080000 0.70763125 0.00000000
0.13500000 0.70763125 0.00000000
0.19920000 0.70763125 0.00000000
0.26340000 0.70763125 0.00000000
0.32760000 0.70763125 0.00000000
0.39180000 0.70763125 0.00000000
0.45600000 0.70763125 0.00000000
0.52020000 0.70763125 0.00000000
0.58440000 0.70763125 0.00000000
0.64860000 0.70763125 0.00000000
0.71280000 0.70763125 0.00000000
0.77700000 0.70763125 0.00000000
0.84120000 0.70763125 0.00000000
0.90540000 0.70763125 0.00000000
0.96960000 0.70763125 0.00000000
0.00000000 0.77517500 0.00000000
0.00660000 0.77517500 0.00000000
0.07080000 0.77517500 0.00000000
0.13500000 0.77517500 0.00000000
0.19920000 0.77517500 0.00000000
0.26340000 0.77517500 0.00000000
0.32760000 0.77517500 0.00000000
0.39180000 0.77517500 0.00000000
0.45600000 0.77517500 0.00000000
0.52020000 0.77517500 0.00000000
0.58440000 0.77517500 0.00000000
0.64860000 0.77517500 0.00000000
0.71280000 0.77517500 0.00000000
0.77700000 0.77517500 0.00000000
0.84120000 0.77517500 0.00000000
0.90540000 0.77517500 0.00000000
0.96960000 0.77517500 0.00000000
0.00000000 0.84271875 0.00000000
0.00660000 0.84271875 0.00000000
0.07080000 0.84271875 0.00000000
0.13500000 0.84271875 0.00000000
0.19920000 0.84271875 0.00000000
0.26340000 0.84271875 0.00000000
0.32760000 0.84271875 0.00000000
0.39180000 0.84271875 0.00000000
0.45600000 0.84271875 0.00000000
0.52020000 0.84271875 0.00000000
0.58440000 0.84271875 0.00000000
0.64860000 0.84271875 0.00000000
0.71280000 0.84271875 0.00000000
0.77700000 0.84271875 0.00000000
0.84120000 0.84271875 0.00000000
0.90540000 0.84271875 0.00000000
0.96960000 0.84271875 0.00000000
0.00000000 0.91026250 0.00000000
0.00660000 0.91026250 0.00000000
0.07080000 0.91026250 0.00000000
0.13500000 0.91026250 0.00000000
0.19920000 0.91026250 0.00000000
0.26340000 0.91026250 0.00000000
0.32760000 0.91026250 0.00000000
0.39180000 0.91026250 0.00000000
0.45600000 0.91026250 0.00000000
0.52020000 0.91026250 0.00000000
0.58440000 0.91026250 0.00000000
0.64860000 0.91026250 0.00000000
0.71280000 0.91026250 0.00000000
0.77700000 0.91026250 0.00000000
0.84120000 0.91026250 0.00000000
0.90540000 0.91026250 0.00000000
0.96960000 0.91026250 0.00000000
0.00000000 0.97780625 0.00000000
0.00660000 0.97780625 0.00000000
0.07080000 0.97780625 0.00000000
0.13500000 0.97780625 0.00000000
0.19920000 0.97780625 0.00000000
0.26340000 0.97780625 0.00000000
0.32760000 0.97780625 0.00000000
0.39180000 0.97780625 0.00000000
0.45600000 0.97780625 0.00000000
0.52020000 0.97780625 0.00000000
0.58440000 0.97780625 0.00000000
0.64860000 0.97780625 0.00000000
0.71280000 0.97780625 0.00000000
0.77700000 0.97780625 0.00000000
0.84120000 0.97780625 0.00000000
0.90540000 0.97780625 0.00000000
0.96960000 0.97780625 0.00000000
0.00000000 1.00000000 0.00000000
0.00660000 1.00000000 0.00000000
0.07080000 1.00000000 0.00000000
0.13500000 1.00000000 0.00000000
0.19920000 1.00000000 0.00000000
0.26340000 1.00000000 0.00000000
0.32760000 1.00000000 0.00000000
0.39180000 1.00000000 0.00000000
0.45600000 1.00000000 0.00000000
0.52020000 1.00000000 0.00000000
0.58440000 1.00000000 0.00000000
0.64860000 1.00000000 0.00000000
0.71280000 1.00000000 0.00000000
0.77700000 1.00000000 0.00000000
0.84120000 1.00000000 0.00000000
0.90540000 1.00000000 0.00000000
0.96960000 1.00000000 0.00000000
0.00000000 0.00000000 0.07222500
0.00660000 0.00000000 0.07222500
0.07080000 0.00000000 0.07222500
0.13500000 0.00000000 0.07222500
0.19920000 0.00000000 0.07222500
0.26340000 0.00000000 0.07222500
0.32760000 0.00000000 0.07222500
0.39180000 0.00000000 0.07222500
0.45600000 0.00000000 0.07222500
0.52020000 0.00000000 0.07222500
0.58440000 0.00000000 0.07222500
0.64860000 0.00000000 0.07222500
0.71280000 0.00000000 0.07222500
0.77700000 0.00000000 0.07222500
0.84120000 0.00000000 0.07222500
0.90540000 0.00000000 0.07222500
0.96960000 0.00000000 0.07222500
0.00000000 0.03219375 0.07222500
0.00397500 0.03059250 0.07222500
0.07074300 0.03059250 0.07222500
0.13500000 0.02808150 0.06971400
0.19920000 0.02551350 0.06714600
0.26340000 0.02294550 0.06457800
0.32760000 0.02037750 0.06201000
0.39180000 0.01780950 0.05944200
0.45600000 0.01524150 0.05687400
0.52020000 0.01267350 0.05430600
0.58440000 0.01010550 0.05173800
0.64860000 0.00753750 0.04917000
0.71280000 0.00496950 0.04660200
0.77700000 0.00240150 0.04403400
0.84120000 0.00000000 0.04162426
0.90540000 0.00000000 0.04150714
0.96960000 0.00000000 0.04140606
0.00000000 0.09973750 0.07222500
0.00287450 0.09973750 0.07112450
0.06964250 0.09973750 0.07112450
0.13500000 0.09832700 0.06971400
0.19920000 0.09575900 0.06714600
0.26340000 0.09319100 0.06457800
0.32760000 0.09062300 0.06201000
0.39180000 0.08805500 0.05944200
0.45600000 0.08548700 0.05687400
0.52020000 0.08291900 0.05430600
0.58440000 0.08035100 0.05173800
0.64860000 0.07778300 0.04917000
0.71280000 0.07521500 0.04660200
0.77700000 0.07264700 0.04403400
0.84120000 0.07007900 0.04146600
0.90540000 0.06751100 0.03889800
0.96960000 0.06494300 0.03633000
0.00000000 0.16728125 0.07222500
0.00017275 0.16728125 0.06842275
0.06694075 0.16728125 0.06842275
0.13370875 0.16728125 0.06842275
0.19920000 0.16600450 0.06714600
0.26340000 0.16343650 0.06457800
0.32760000 0.16086850 0.06201000
0.39180000 0.15830050 0.05944200
0.45600000 0.15573250 0.05687400
0.52020000 0.15316450 0.05430600
0.58440000 0.15059650 0.05173800
0.64860000 0.14802850 0.04917000
0.71280000 0.14546050 0.04660200
0.77700000 0.14289250 0.04403400
0.84120000 0.14032450 0.04146600
0.90540000 0.13775650 0.03889800
0.96960000 0.13518850 0.03633000
0.00000000 0.23482500 0.07222500
0.00000000 0.23482500 0.06752280
0.06423900 0.23482500 0.06572100
0.13100700 0.23482500 0.06572100
0.19777500 0.23482500 0.06572100
0.26340000 0.23368200 0.06457800
0.32760000 0.23111400 0.06201000
0.39180000 0.22854600 0.05944200
0.45600000 0.22597800 0.05687400
0.52020000 0.22341000 0.05430600
0.58440000 0.22084200 0.05173800
0.64860000 0.21827400 0.04917000
0.71280000 0.21570600 0.04660200
0.77700000 0.21313800 0.04403400
0.84120000 0.21057000 0.04146600
0.90540000 0.20800200 0.03889800
0.96960000 0.20543400 0.03633000
0.00000000 0.30236875 0.07222500
0.00000000 0.30236875 0.06708940
0.06153725 0.30236875 0.06301925
0.12830525 0.30236875 0.06301925
0.19507325 0.30236875 0.06301925
0.26184125 0.30236875 0.06301925
0.32760000 0.30135950 0.06201000
0.39180000 0.29879150 0.05944200
0.45600000 0.29622350 0.05687400
0.52020000 0.29365550 0.05430600
0.58440000 0.29108750 0.05173800
0.64860000 0.28851950 0.04917000
0.71280000 0.28595150 0.04660200
0.77700000 0.28338350 0.04403400
0.84120000 0.28081550 0.04146600
0.90540000 0.27824750 0.03889800
0.96960000 0.27567950 0.03633000
0.00000000 0.36991250 0.07222500
0.00000000 0.36991250 0.06681716
0.05883550 0.36991250 0.06031750
0.12560350 0.36991250 0.06031750
0.19237150 0.36991250 0.06031750
0.25913950 0.36991250 0.06031750
0.32590750 0.36991250 0.06031750
0.39180000 0.36903700 0.05944200
0.45600000 0.36646900 0.05687400
0.52020000 0.36390100 0.05430600
0.58440000 0.36133300 0.05173800
0.64860000 0.35876500 0.04917000
0.71280000 0.35619700 0.04660200
0.77700000 0.35362900 0.04403400
0.84120000 0.35106100 0.04146600
0.90540000 0.34849300 0.03889800
0.96960000 0.34592500 0.03633000
0.00000000 0.43745625 0.07222500
0.00000000 0.43745625 0.06663027
0.05613375 0.43745625 0.05761575
0.12290175 0.43745625 0.05761575
0.18966975 0.43745625 0.05761575
0.25643775 0.43745625 0.05761575
0.32320575 0.43745625 0.05761575
0.38997375 0.43745625 0.05761575
0.45600000 0.43671450 0.05687400
0.52020000 0.43414650 0.05430600
0.58440000 0.43157850 0.05173800
0.64860000 0.42901050 0.04917000
0.71280000 0.42644250 0.04660200
0.77700000 0.42387450 0.04403400
0.84120000 0.42130650 0.04146600
0.90540000 0.41873850 0.03889800
0.96960000 0.41617050 0.03633000
0.00000000 0.50500000 0.07222500
0.00000000 0.50500000 0.06649403
0.05343200 0.50500000 0.05491400
0.12020000 0.50500000 0.05491400
0.18696800 0.50500000 0.05491400
0.25373600 0.50500000 0.05491400
0.32050400 0.50500000 0.05491400
0.38727200 0.50500000 0.05491400
0.45404000 0.50500000 0.05491400
0.52020000 0.50439200 0.05430600
0.58440000 0.50182400 0.05173800
0.64860000 0.49925600 0.04917000
0.71280000 0.49668800 0.04660200
0.77700000 0.49412000 0.04403400
0.84120000 0.49155200 0.04146600
0.90540000 0.48898400 0.03889800
0.96960000 0.48641600 0.03633000
0.00000000 0.57254375 0.07222500
0.00000000 0.57254375 0.06639031
0.05073025 0.57254375 0.05221225
0.11749825 0.57254375 0.05221225
0.18426625 0.57254375 0.05221225
0.25103425 0.57254375 0.05221225
0.31780225 0.57254375 0.05221225
0.38457025 0.57254375 0.05221225
0.45133825 0.57254375 0.05221225
0.51810625 0.57254375 0.05221225
0.58440000 0.57206950 0.05173800
0.64860000 0.56950150 0.04917000
0.71280000 0.56693350 0.04660200
0.77700000 0.56436550 0.04403400
0.84120000 0.56179750 0.04146600
0.90540000 0.55922950 0.03889800
0.96960000 0.55666150 0.03633000
0.00000000 0.64008750 0.07222500
0.00000000 0.64008750 0.06630872
0.04802850 0.64008750 0.04951050
0.11479650 0.64008750 0.04951050
0.18156450 0.64008750 0.04951050
0.24833250 0.64008750 0.04951050
0.31510050 0.64008750 0.04951050
0.38186850 0.64008750 0.04951050
0.44863650 0.64008750 0.04951050
0.51540450 0.64008750 0.04951050
0.58217250 0.64008750 0.04951050
0.64860000 0.63974700 0.04917000
0.71280000 0.63717900 0.04660200
0.77700000 0.63461100 0.04403400
0.84120000 0.63204300 0.04146600
0.90540000 0.62947500 0.03889800
0.96960000 0.62690700 0.03633000
0.00000000 0.70763125 0.07222500
0.00000000 0.70763125 0.06624284
0.04532675 0.70763125 0.04680875
0.11209475 0.70763125 0.04680875
0.17886275 0.70763125 0.04680875
0.24563075 0.70763125 0.04680875
0.31239875 0.70763125 0.04680875
0.37916675 0.70763125 0.04680875
0.44593475 0.70763125 0.04680875
0.51270275 0.70763125 0.04680875
0.57947075 0.70763125 0.04680875
0.64623875 0.70763125 0.04680875
0.71280000 0.70742450 0.04660200
0.77700000 0.70485650 0.04403400
0.84120000 0.70228850 0.04146600
0.90540000 0.69972050 0.03889800
0.96960000 0.69715250 0.03633000
0.00000000 0.77517500 0.07222500
0.00000000 0.77517500 0.06618854
0.04262500 0.77517500 0.04410700
0.10939300 0.77517500 0.04410700
0.17616100 0.77517500 0.04410700
0.24292900 0.77517500 0.04410700
0.30969700 0.77517500 0.04410700
0.37646500 0.77517500 0.04410700
0.44323300 0.77517500 0.04410700
0.51000100 0.77517500 0.04410700
0.57676900 0.77517500 0.04410700
0.64353700 0.77517500 0.04410700
0.71030500 0.77517500 0.04410700
0.77700000 0.77510200 0.04403400
0.84120000 0.77253400 0.04146600
0.90540000 0.76996600 0.03889800
0.96960000 0.76739800 0.03633000
0.00000000 0.84271875 0.07222500
0.00000000 0.84271875 0.06614302
0.03992325 0.84271875 0.04140525
0.10669125 0.84271875 0.04140525
0.17345925 0.84271875 0.04140525
0.24022725 0.84271875 0.04140525
0.30699525 0.84271875 0.04140525
0.37376325 0.84271875 0.04140525
0.44053125 0.84271875 0.04140525
0.50729925 0.84271875 0.04140525
0.57406725 0.84271875 0.04140525
0.64083525 0.84271875 0.04140525
0.70760325 0.84271875 0.04140525
0.77437125 0.84271875 0.04140525
0.84113925 0.84271875 0.04140525
0.90540000 0.84021150 0.03889800
0.96960000 0.83764350 0.03633000
0.00000000 0.91026250 0.07222500
0.00000000 0.91026250 0.06610430
0.03722150 0.91026250 0.03870350
0.10398950 0.91026250 0.03870350
0.17075750 0.91026250 0.03870350
0.23752550 0.91026250 0.03870350
0.30429350 0.91026250 0.03870350
0.37106150 0.91026250 0.03870350
0.43782950 0.91026250 0.03870350
0.50459750 0.91026250 0.03870350
0.57136550 0.91026250 0.03870350
0.63813350 0.91026250 0.03870350
0.70490150 0.91026250 0.03870350
0.77166950 0.91026250 0.03870350
0.83843750 0.91026250 0.03870350
0.90520550 0.91026250 0.03870350
0.96960000 0.90788900 0.03633000
0.00000000 0.97780625 0.07222500
0.00000000 0.97780625 0.06607097
0.03451975 0.97780625 0.03600175
0.10128775 0.97780625 0.03600175
0.16805575 0.97780625 0.03600175
0.23482375 0.97780625 0.03600175
0.30159175 0.97780625 0.03600175
0.36835975 0.97780625 0.03600175
0.43512775 0.97780625 0.03600175
0.50189575 0.97780625 0.03600175
0.56866375 0.97780625 0.03600175
0.63543175 0.97780625 0.03600175
0.70219975 0.97780625 0.03600175
0.76896775 0.97780625 0.03600175
0.83573575 0.97780625 0.03600175
0.90250375 0.97780625 0.03600175
0.96927175 0.97780625 0.03600175
0.00000000 1.00000000 0.07222500
0.00000000 1.00000000 0.06606100
0.03363200 1.00000000 0.03511400
0.10040000 1.00000000 0.03511400
0.16716800 1.00000000 0.03511400
0.23393600 1.00000000 0.03511400
0.30070400 1.00000000 0.03511400
0.36747200 1.00000000 0.03511400
0.43424000 1.00000000 0.03511400
0.50100800 1.00000000 0.03511400
0.56777600 1.00000000 0.03511400
0.63454400 1.00000000 0.03511400
0.70131200 1.00000000 0.03511400
0.76808000 1.00000000 0.03511400
0.83484800 1.00000000 0.03511400
0.90161600 1.00000000 0.03511400
0.96838400 1.00000000 0.03511400
0.00000000 0.00000000 0.14445000
0.00660000 0.00000000 0.14445000
0.07080000 0.00000000 0.14445000
0.13500000 0.00000000 0.14445000
0.19920000 0.00000000 0.14445000
0.26340000 0.00000000 0.14445000
0.32760000 0.00000000 0.14445000
0.39180000 0.00000000 0.14445000
0.45600000 0.00000000 0.14445000
0.52020000 0.00000000 0.14445000
0.58440000 0.00000000 0.14445000
0.64860000 0.00000000 0.14445000
0.71280000 0.00000000 0.14445000
0.77700000 0.00000000 0.14445000
0.84120000 0.00000000 0.14445000
0.90540000 0.00000000 0.14445000
0.96960000 0.00000000 0.14445000
0.00000000 0.03219375 0.14445000
0.00108600 0.02770350 0.14445000
0.06785400 0.02770350 0.14445000
0.13462200 0.02770350 0.14445000
0.19920000 0.02551350 0.14226000
0.26340000 0.02294550 0.13969200
0.32760000 0.02037750 0.13712400
0.39180000 0.01780950 0.13455600
0.45600000 0.01524150 0.13198800
0.52020000 0.01267350 0.12942000
0.58440000 0.01010550 0.12685200
0.64860000 0.00753750 0.12428400
0.71280000 0.00496950 0.12171600
0.77700000 0.00240150 0.11914800
0.84120000 0.00000000 0.11672340
0.90540000 0.00000000 0.11639496
0.96960000 0.00000000 0.11611152
0.00000000 0.09973750 0.14445000
0.00108600 0.09794900 0.14445000
0.06785400 0.09794900 0.14445000
0.13462200 0.09794900 0.14445000
0.19920000 0.09575900 0.14226000
0.26340000 0.09319100 0.13969200
0.32760000 0.09062300 0.13712400
0.39180000 0.08805500 0.13455600
0.45600000 0.08548700 0.13198800
0.52020000 0.08291900 0.12942000
0.58440000 0.08035100 0.12685200
0.64860000 0.07778300 0.12428400
0.71280000 0.07521500 0.12171600
0.77700000 0.07264700 0.11914800
0.84120000 0.07007900 0.11658000
0.90540000 0.06751100 0.11401200
0.96960000 0.06494300 0.11144400
0.00000000 0.16728125 0.14445000
0.00017275 0.16728125 0.14353675
0.06694075 0.16728125 0.14353675
0.13370875 0.16728125 0.14353675
0.19920000 0.16600450 0.14226000
0.26340000 0.16343650 0.13969200
0.32760000 0.16086850 0.13712400
0.39180000 0.15830050 0.13455600
0.45600000 0.15573250 0.13198800
0.52020000 0.15316450 0.12942000
0.58440000 0.15059650 0.12685200
0.64860000 0.14802850 0.12428400
0.71280000 0.14546050 0.12171600
0.77700000 0.14289250 0.11914800
0.84120000 0.14032450 0.11658000
0.90540000 0.13775650 0.11401200
0.96960000 0.13518850 0.11144400
0.00000000 0.23482500 0.14445000
0.00000000 0.23482500 0.14183646
0.06423900 0.23482500 0.14083500
0.13100700 0.23482500 0.14083500
0.19777500 0.23482500 0.14083500
0.26340000 0.23368200 0.13969200
0.32760000 0.23111400 0.13712400
0.39180000 0.22854600 0.13455600
0.45600000 0.22597800 0.13198800
0.52020000 0.22341000 0.12942000
0.58440000 0.22084200 0.12685200
0.64860000 0.21827400 0.12428400
0.71280000 0.21570600 0.12171600
0.77700000 0.21313800 0.11914800
0.84120000 0.21057000 0.11658000
0.90540000 0.20800200 0.11401200
0.96960000 0.20543400 0.11144400
0.00000000 0.30236875 0.14445000
0.00000000 0.30236875 0.14092609
0.06153725 0.30236875 0.13813325
0.12830525 0.30236875 0.13813325
0.19507325 0.30236875 0.13813325
0.26184125 0.30236875 0.13813325
0.32760000 0.30135950 0.13712400
0.39180000 0.29879150 0.13455600
0.45600000 0.29622350 0.13198800
0.52020000 0.29365550 0.12942000
0.58440000 0.29108750 0.12685200
0.64860000 0.28851950 0.12428400
0.71280000 0.28595150 0.12171600
0.77700000 0.28338350 0.11914800
0.84120000 0.28081550 0.11658000
0.90540000 0.27824750 0.11401200
0.96960000 0.27567950 0.11144400
0.00000000 0.36991250 0.14445000
0.00000000 0.36991250 0.14035421
0.05883550 0.36991250 0.13543150
0.12560350 0.36991250 0.13543150
0.19237150 0.36991250 0.13543150
0.25913950 0.36991250 0.13543150
0.32590750 0.36991250 0.13543150
0.39180000 0.36903700 0.13455600
0.45600000 0.36646900 0.13198800
0.52020000 0.36390100 0.12942000
0.58440000 0.36133300 0.12685200
0.64860000 0.35876500 0.12428400
0.71280000 0.35619700 0.12171600
0.77700000 0.35362900 0.11914800
0.84120000 0.35106100 0.11658000
0.90540000 0.34849300 0.11401200
0.96960000 0.34592500 0.11144400
0.00000000 0.43745625 0.14445000
0.00000000 0.43745625 0.13996163
0.05613375 0.43745625 0.13272975
0.12290175 0.43745625 0.13272975
0.18966975 0.43745625 0.13272975
0.25643775 0.43745625 0.13272975
0.32320575 0.43745625 0.13272975
0.38997375 0.43745625 0.13272975
0.45600000 0.43671450 0.13198800
0.52020000 0.43414650 0.12942000
0.58440000 0.43157850 0.12685200
0.64860000 0.42901050 0.12428400
0.71280000 0.42644250 0.12171600
0.77700000 0.42387450 0.11914800
0.84120000 0.42130650 0.11658000
0.90540000 0.41873850 0.11401200
0.96960000 0.41617050 0.11144400
0.00000000 0.50500000 0.14445000
0.00000000 0.50500000 0.13967546
0.05343200 0.50500000 0.13002800
0.12020000 0.50500000 0.13002800
0.18696800 0.50500000 0.13002800
0.25373600 0.50500000 0.13002800
0.32050400 0.50500000 0.13002800
0.38727200 0.50500000 0.13002800
0.45404000 0.50500000 0.13002800
0.52020000 0.50439200 0.12942000
