recipes/color/anime_cold_v1/anime_cold_v1.cube
TITLE "anime_cold_v1"
LUT_3D_SIZE 5
DOMAIN_MIN 0.0 0.0 0.0
DOMAIN_MAX 1.0 1.0 1.0
0.00000000 0.00000000 0.00000000
0.19920000 0.00000000 0.00000000
0.45600000 0.00000000 0.00000000
0.71280000 0.00000000 0.00000000
0.96960000 0.00000000 0.00000000
0.00000000 0.23482500 0.00000000
0.19920000 0.23482500 0.00000000
0.45600000 0.23482500 0.00000000
0.71280000 0.23482500 0.00000000
0.96960000 0.23482500 0.00000000
0.00000000 0.50500000 0.00000000
0.19920000 0.50500000 0.00000000
0.45600000 0.50500000 0.00000000
0.71280000 0.50500000 0.00000000
0.96960000 0.50500000 0.00000000
0.00000000 0.77517500 0.00000000
0.19920000 0.77517500 0.00000000
0.45600000 0.77517500 0.00000000
0.71280000 0.77517500 0.00000000
0.96960000 0.77517500 0.00000000
0.00000000 1.00000000 0.00000000
0.19920000 1.00000000 0.00000000
0.45600000 1.00000000 0.00000000
0.71280000 1.00000000 0.00000000
0.96960000 1.00000000 0.00000000
0.00000000 0.00000000 0.28890000
0.19920000 0.00000000 0.28890000
0.45600000 0.00000000 0.28890000
0.71280000 0.00000000 0.28890000
0.96960000 0.00000000 0.28890000
0.00000000 0.23482500 0.28890000
0.19561200 0.23266200 0.28890000
0.45600000 0.22597800 0.28221600
0.71280000 0.21570600 0.27194400
0.96960000 0.20543400 0.26167200
0.00000000 0.50500000 0.28890000
0.18696800 0.50500000 0.28025600
0.45404000 0.50500000 0.28025600
0.71280000 0.49668800 0.27194400
0.96960000 0.48641600 0.26167200
0.00000000 0.77517500 0.28890000
0.17616100 0.77517500 0.26944900
0.44323300 0.77517500 0.26944900
0.71030500 0.77517500 0.26944900
0.96960000 0.76739800 0.26167200
0.00000000 1.00000000 0.28890000
0.16716800 1.00000000 0.26045600
0.43424000 1.00000000 0.26045600
0.70131200 1.00000000 0.26045600
0.96838400 1.00000000 0.26045600
0.00000000 0.00000000 0.57780000
0.19920000 0.00000000 0.57780000
0.45600000 0.00000000 0.57780000
0.71280000 0.00000000 0.57780000
0.96960000 0.00000000 0.57780000
0.00000000 0.23482500 0.57780000
0.18405600 0.22110600 0.57780000
0.45112800 0.22110600 0.57780000
0.71280000 0.21570600 0.57240000
0.96960000 0.20543400 0.56212800
0.00000000 0.50500000 0.57780000
0.18405600 0.50208800 0.57780000
0.45112800 0.50208800 0.57780000
0.71280000 0.49668800 0.57240000
0.96960000 0.48641600 0.56212800
0.00000000 0.77517500 0.57780000
0.17616100 0.77517500 0.56990500
0.44323300 0.77517500 0.56990500
0.71030500 0.77517500 0.56990500
0.96960000 0.76739800 0.56212800
0.00000000 1.00000000 0.57780000
0.16716800 1.00000000 0.56091200
0.43424000 1.00000000 0.56091200
0.70131200 1.00000000 0.56091200
0.96838400 1.00000000 0.56091200
0.00000000 0.00000000 0.86670000
0.19920000 0.00000000 0.86670000
0.45600000 0.00000000 0.86670000
0.71280000 0.00000000 0.86670000
0.96960000 0.00000000 0.86670000
0.00000000 0.23482500 0.86670000
0.17250000 0.20955000 0.86670000
0.43957200 0.20955000 0.86670000
0.70664400 0.20955000 0.86670000
0.96960000 0.20543400 0.86258400
0.00000000 0.50500000 0.86670000
0.17250000 0.49053200 0.86670000
0.43957200 0.49053200 0.86670000
0.70664400 0.49053200 0.86670000
0.96960000 0.48641600 0.86258400
0.00000000 0.77517500 0.86670000
0.17250000 0.77151400 0.86670000
0.43957200 0.77151400 0.86670000
0.70664400 0.77151400 0.86670000
0.96960000 0.76739800 0.86258400
0.00000000 1.00000000 0.86670000
0.16716800 1.00000000 0.86136800
0.43424000 1.00000000 0.86136800
0.70131200 1.00000000 0.86136800
0.96838400 1.00000000 0.86136800
0.00000000 0.00000000 1.00000000
0.19920000 0.00000000 1.00000000
0.45600000 0.00000000 1.00000000
0.71280000 0.00000000 1.00000000
0.96960000 0.00000000 1.00000000
0.00000000 0.23482500 1.00000000
0.16716800 0.20421800 1.00000000
0.43424000 0.20421800 1.00000000
0.70131200 0.20421800 1.00000000
0.96838400 0.20421800 1.00000000
0.00000000 0.50500000 1.00000000
0.16716800 0.48520000 1.00000000
0.43424000 0.48520000 1.00000000
0.70131200 0.48520000 1.00000000
0.96838400 0.48520000 1.00000000
0.00000000 0.77517500 1.00000000
0.16716800 0.76618200 1.00000000
0.43424000 0.76618200 1.00000000
0.70131200 0.76618200 1.00000000
0.96838400 0.76618200 1.00000000
0.00000000 1.00000000 1.00000000
0.16716800 1.00000000 1.00000000
0.43424000 1.00000000 1.00000000
0.70131200 1.00000000 1.00000000
0.96838400 1.00000000 1.00000000
