recipes/color/red_impact_v1/red_impact_v1.cube
TITLE "red_impact_v1"
LUT_3D_SIZE 17
DOMAIN_MIN 0.0 0.0 0.0
DOMAIN_MAX 1.0 1.0 1.0
0.00000000 0.00000000 0.00000000
0.03360000 0.00000000 0.00000000
0.11760000 0.00000000 0.00000000
0.20160000 0.00000000 0.00000000
0.28560000 0.00000000 0.00000000
0.36960000 0.00000000 0.00000000
0.45360000 0.00000000 0.00000000
0.53760000 0.00000000 0.00000000
0.62160000 0.00000000 0.00000000
0.70560000 0.00000000 0.00000000
0.78960000 0.00000000 0.00000000
0.87360000 0.00000000 0.00000000
0.95760000 0.00000000 0.00000000
1.00000000 0.00000000 0.00000000
1.00000000 0.00000000 0.00000000
1.00000000 0.00000000 0.00000000
1.00000000 0.00000000 0.00000000
0.00000000 0.00000000 0.00000000
0.03360000 0.00000000 0.00000000
0.11760000 0.00000000 0.00000000
0.20160000 0.00000000 0.00000000
0.28560000 0.00000000 0.00000000
0.36960000 0.00000000 0.00000000
0.45360000 0.00000000 0.00000000
0.53760000 0.00000000 0.00000000
0.62160000 0.00000000 0.00000000
0.70560000 0.00000000 0.00000000
0.78960000 0.00000000 0.00000000
0.87360000 0.00000000 0.00000000
0.95760000 0.00000000 0.00000000
1.00000000 0.00000000 0.00000000
1.00000000 0.00000000 0.00000000
1.00000000 0.00000000 0.00000000
1.00000000 0.00000000 0.00000000
0.00000000 0.00820000 0.00000000
0.03360000 0.00820000 0.00000000
0.11760000 0.00820000 0.00000000
0.20160000 0.00820000 0.00000000
0.28560000 0.00820000 0.00000000
0.36960000 0.00820000 0.00000000
0.45360000 0.00820000 0.00000000
0.53760000 0.00820000 0.00000000
0.62160000 0.00820000 0.00000000
0.70560000 0.00820000 0.00000000
0.78960000 0.00820000 0.00000000
0.87360000 0.00820000 0.00000000
0.95760000 0.00820000 0.00000000
1.00000000 0.00820000 0.00000000
1.00000000 0.00820000 0.00000000
1.00000000 0.00820000 0.00000000
1.00000000 0.00820000 0.00000000
0.00000000 0.06970000 0.00000000
0.03360000 0.06970000 0.00000000
0.11760000 0.06970000 0.00000000
0.20160000 0.06970000 0.00000000
0.28560000 0.06970000 0.00000000
0.36960000 0.06970000 0.00000000
0.45360000 0.06970000 0.00000000
0.53760000 0.06970000 0.00000000
0.62160000 0.06970000 0.00000000
0.70560000 0.06970000 0.00000000
0.78960000 0.06970000 0.00000000
0.87360000 0.06970000 0.00000000
0.95760000 0.06970000 0.00000000
1.00000000 0.06970000 0.00000000
1.00000000 0.06970000 0.00000000
1.00000000 0.06970000 0.00000000
1.00000000 0.06970000 0.00000000
0.00000000 0.13120000 0.00000000
0.03360000 0.13120000 0.00000000
0.11760000 0.13120000 0.00000000
0.20160000 0.13120000 0.00000000
0.28560000 0.13120000 0.00000000
0.36960000 0.13120000 0.00000000
0.45360000 0.13120000 0.00000000
0.53760000 0.13120000 0.00000000
0.62160000 0.13120000 0.00000000
0.70560000 0.13120000 0.00000000
0.78960000 0.13120000 0.00000000
0.87360000 0.13120000 0.00000000
0.95760000 0.13120000 0.00000000
1.00000000 0.13120000 0.00000000
1.00000000 0.13120000 0.00000000
1.00000000 0.13120000 0.00000000
1.00000000 0.13120000 0.00000000
0.00000000 0.19270000 0.00000000
0.03360000 0.19270000 0.00000000
0.11760000 0.19270000 0.00000000
0.20160000 0.19270000 0.00000000
0.28560000 0.19270000 0.00000000
0.36960000 0.19270000 0.00000000
0.45360000 0.19270000 0.00000000
0.53760000 0.19270000 0.00000000
0.62160000 0.19270000 0.00000000
0.70560000 0.19270000 0.00000000
0.78960000 0.19270000 0.00000000
0.87360000 0.19270000 0.00000000
0.95760000 0.19270000 0.00000000
1.00000000 0.19270000 0.00000000
1.00000000 0.19270000 0.00000000
1.00000000 0.19270000 0.00000000
1.00000000 0.19270000 0.00000000
0.00000000 0.25420000 0.00000000
0.03360000 0.25420000 0.00000000
0.11760000 0.25420000 0.00000000
0.20160000 0.25420000 0.00000000
0.28560000 0.25420000 0.00000000
0.36960000 0.25420000 0.00000000
0.45360000 0.25420000 0.00000000
0.53760000 0.25420000 0.00000000
0.62160000 0.25420000 0.00000000
0.70560000 0.25420000 0.00000000
0.78960000 0.25420000 0.00000000
0.87360000 0.25420000 0.00000000
0.95760000 0.25420000 0.00000000
1.00000000 0.25420000 0.00000000
1.00000000 0.25420000 0.00000000
1.00000000 0.25420000 0.00000000
1.00000000 0.25420000 0.00000000
0.00000000 0.31570000 0.00000000
0.03360000 0.31570000 0.00000000
0.11760000 0.31570000 0.00000000
0.20160000 0.31570000 0.00000000
0.28560000 0.31570000 0.00000000
0.36960000 0.31570000 0.00000000
0.45360000 0.31570000 0.00000000
0.53760000 0.31570000 0.00000000
0.62160000 0.31570000 0.00000000
0.70560000 0.31570000 0.00000000
0.78960000 0.31570000 0.00000000
0.87360000 0.31570000 0.00000000
0.95760000 0.31570000 0.00000000
1.00000000 0.31570000 0.00000000
1.00000000 0.31570000 0.00000000
1.00000000 0.31570000 0.00000000
1.00000000 0.31570000 0.00000000
0.00000000 0.37720000 0.00000000
0.03360000 0.37720000 0.00000000
0.11760000 0.37720000 0.00000000
0.20160000 0.37720000 0.00000000
0.28560000 0.37720000 0.00000000
0.36960000 0.37720000 0.00000000
0.45360000 0.37720000 0.00000000
0.53760000 0.37720000 0.00000000
0.62160000 0.37720000 0.00000000
0.70560000 0.37720000 0.00000000
0.78960000 0.37720000 0.00000000
0.87360000 0.37720000 0.00000000
0.95760000 0.37720000 0.00000000
1.00000000 0.37720000 0.00000000
1.00000000 0.37720000 0.00000000
1.00000000 0.37720000 0.00000000
1.00000000 0.37720000 0.00000000
0.00000000 0.43870000 0.00000000
0.03360000 0.43870000 0.00000000
0.11760000 0.43870000 0.00000000
0.20160000 0.43870000 0.00000000
0.28560000 0.43870000 0.00000000
0.36960000 0.43870000 0.00000000
0.45360000 0.43870000 0.00000000
0.53760000 0.43870000 0.00000000
0.62160000 0.43870000 0.00000000
0.70560000 0.43870000 0.00000000
0.78960000 0.43870000 0.00000000
0.87360000 0.43870000 0.00000000
0.95760000 0.43870000 0.00000000
1.00000000 0.43870000 0.00000000
1.00000000 0.43870000 0.00000000
1.00000000 0.43870000 0.00000000
1.00000000 0.43870000 0.00000000
0.00000000 0.50020000 0.00000000
0.03360000 0.50020000 0.00000000
0.11760000 0.50020000 0.00000000
0.20160000 0.50020000 0.00000000
0.28560000 0.50020000 0.00000000
0.36960000 0.50020000 0.00000000
0.45360000 0.50020000 0.00000000
0.53760000 0.50020000 0.00000000
0.62160000 0.50020000 0.00000000
0.70560000 0.50020000 0.00000000
0.78960000 0.50020000 0.00000000
0.87360000 0.50020000 0.00000000
0.95760000 0.50020000 0.00000000
1.00000000 0.50020000 0.00000000
1.00000000 0.50020000 0.00000000
1.00000000 0.50020000 0.00000000
1.00000000 0.50020000 0.00000000
0.00000000 0.56170000 0.00000000
0.03360000 0.56170000 0.00000000
0.11760000 0.56170000 0.00000000
0.20160000 0.56170000 0.00000000
0.28560000 0.56170000 0.00000000
0.36960000 0.56170000 0.00000000
0.45360000 0.56170000 0.00000000
0.53760000 0.56170000 0.00000000
0.62160000 0.56170000 0.00000000
0.70560000 0.56170000 0.00000000
0.78960000 0.56170000 0.00000000
0.87360000 0.56170000 0.00000000
0.95760000 0.56170000 0.00000000
1.00000000 0.56170000 0.00000000
1.00000000 0.56170000 0.00000000
1.00000000 0.56170000 0.00000000
1.00000000 0.56170000 0.00000000
0.00000000 0.62320000 0.00000000
0.03360000 0.62320000 0.00000000
0.11760000 0.62320000 0.00000000
0.20160000 0.62320000 0.00000000
0.28560000 0.62320000 0.00000000
0.36960000 0.62320000 0.00000000
0.45360000 0.62320000 0.00000000
0.53760000 0.62320000 0.00000000
0.62160000 0.62320000 0.00000000
0.70560000 0.62320000 0.00000000
0.78960000 0.62320000 0.00000000
0.87360000 0.62320000 0.00000000
0.95760000 0.62320000 0.00000000
1.00000000 0.62320000 0.00000000
1.00000000 0.62320000 0.00000000
1.00000000 0.62320000 0.00000000
1.00000000 0.62320000 0.00000000
0.00000000 0.68470000 0.00000000
0.03360000 0.68470000 0.00000000
0.11760000 0.68470000 0.00000000
0.20160000 0.68470000 0.00000000
0.28560000 0.68470000 0.00000000
0.36960000 0.68470000 0.00000000
0.45360000 0.68470000 0.00000000
0.53760000 0.68470000 0.00000000
0.62160000 0.68470000 0.00000000
0.70560000 0.68470000 0.00000000
0.78960000 0.68470000 0.00000000
0.87360000 0.68470000 0.00000000
0.95760000 0.68470000 0.00000000
1.00000000 0.68470000 0.00000000
1.00000000 0.68470000 0.00000000
1.00000000 0.68470000 0.00000000
1.00000000 0.68470000 0.00000000
0.00000000 0.74620000 0.00000000
0.03360000 0.74620000 0.00000000
0.11760000 0.74620000 0.00000000
0.20160000 0.74620000 0.00000000
0.28560000 0.74620000 0.00000000
0.36960000 0.74620000 0.00000000
0.45360000 0.74620000 0.00000000
0.53760000 0.74620000 0.00000000
0.62160000 0.74620000 0.00000000
0.70560000 0.74620000 0.00000000
0.78960000 0.74620000 0.00000000
0.87360000 0.74620000 0.00000000
0.95760000 0.74620000 0.00000000
1.00000000 0.74620000 0.00000000
1.00000000 0.74620000 0.00000000
1.00000000 0.74620000 0.00000000
1.00000000 0.74620000 0.00000000
0.00000000 0.80770000 0.00000000
0.03360000 0.80770000 0.00000000
0.11760000 0.80770000 0.00000000
0.20160000 0.80770000 0.00000000
0.28560000 0.80770000 0.00000000
0.36960000 0.80770000 0.00000000
0.45360000 0.80770000 0.00000000
0.53760000 0.80770000 0.00000000
0.62160000 0.80770000 0.00000000
0.70560000 0.80770000 0.00000000
0.78960000 0.80770000 0.00000000
0.87360000 0.80770000 0.00000000
0.95760000 0.80770000 0.00000000
1.00000000 0.80770000 0.00000000
1.00000000 0.80770000 0.00000000
1.00000000 0.80770000 0.00000000
1.00000000 0.80770000 0.00000000
0.00000000 0.86920000 0.00000000
0.03360000 0.86920000 0.00000000
0.11760000 0.86920000 0.00000000
0.20160000 0.86920000 0.00000000
0.28560000 0.86920000 0.00000000
0.36960000 0.86920000 0.00000000
0.45360000 0.86920000 0.00000000
0.53760000 0.86920000 0.00000000
0.62160000 0.86920000 0.00000000
0.70560000 0.86920000 0.00000000
0.78960000 0.86920000 0.00000000
0.87360000 0.86920000 0.00000000
0.95760000 0.86920000 0.00000000
1.00000000 0.86920000 0.00000000
1.00000000 0.86920000 0.00000000
1.00000000 0.86920000 0.00000000
1.00000000 0.86920000 0.00000000
0.00000000 0.00000000 0.00000000
0.03360000 0.00000000 0.00000000
0.11760000 0.00000000 0.00000000
0.20160000 0.00000000 0.00000000
0.28560000 0.00000000 0.00000000
0.36960000 0.00000000 0.00000000
0.45360000 0.00000000 0.00000000
0.53760000 0.00000000 0.00000000
0.62160000 0.00000000 0.00000000
0.70560000 0.00000000 0.00000000
0.78960000 0.00000000 0.00000000
0.87360000 0.00000000 0.00000000
0.95760000 0.00000000 0.00000000
1.00000000 0.00000000 0.00000000
1.00000000 0.00000000 0.00000000
1.00000000 0.00000000 0.00000000
1.00000000 0.00000000 0.00000000
0.00000000 0.00000000 0.00000000
0.03360000 0.00000000 0.00000000
0.11760000 0.00000000 0.00000000
0.20160000 0.00000000 0.00000000
0.28560000 0.00000000 0.00000000
0.36960000 0.00000000 0.00000000
0.45360000 0.00000000 0.00000000
0.53760000 0.00000000 0.00000000
0.62160000 0.00000000 0.00000000
0.70560000 0.00000000 0.00000000
0.78960000 0.00000000 0.00000000
0.87360000 0.00000000 0.00000000
0.95760000 0.00000000 0.00000000
1.00000000 0.00000000 0.00000000
1.00000000 0.00000000 0.00000000
1.00000000 0.00000000 0.00000000
1.00000000 0.00000000 0.00000000
0.00000000 0.00820000 0.00000000
0.03360000 0.00820000 0.00000000
0.11760000 0.00820000 0.00000000
0.20160000 0.00820000 0.00000000
0.28560000 0.00820000 0.00000000
0.36960000 0.00820000 0.00000000
0.45360000 0.00820000 0.00000000
0.53760000 0.00820000 0.00000000
0.62160000 0.00820000 0.00000000
0.70560000 0.00820000 0.00000000
0.78960000 0.00820000 0.00000000
0.87360000 0.00820000 0.00000000
0.95760000 0.00820000 0.00000000
1.00000000 0.00820000 0.00000000
1.00000000 0.00820000 0.00000000
1.00000000 0.00820000 0.00000000
1.00000000 0.00820000 0.00000000
0.00000000 0.06970000 0.00000000
0.03360000 0.06970000 0.00000000
0.11760000 0.06970000 0.00000000
0.20160000 0.06970000 0.00000000
0.28560000 0.06970000 0.00000000
0.36960000 0.06970000 0.00000000
0.45360000 0.06970000 0.00000000
0.53760000 0.06970000 0.00000000
0.62160000 0.06970000 0.00000000
0.70560000 0.06970000 0.00000000
0.78960000 0.06970000 0.00000000
0.87360000 0.06970000 0.00000000
0.95760000 0.06970000 0.00000000
1.00000000 0.06970000 0.00000000
1.00000000 0.06970000 0.00000000
1.00000000 0.06970000 0.00000000
1.00000000 0.06970000 0.00000000
0.00000000 0.13120000 0.00000000
0.03360000 0.13120000 0.00000000
0.11760000 0.13120000 0.00000000
0.20160000 0.13120000 0.00000000
0.28560000 0.13120000 0.00000000
0.36960000 0.13120000 0.00000000
0.45360000 0.13120000 0.00000000
0.53760000 0.13120000 0.00000000
0.62160000 0.13120000 0.00000000
0.70560000 0.13120000 0.00000000
0.78960000 0.13120000 0.00000000
0.87360000 0.13120000 0.00000000
0.95760000 0.13120000 0.00000000
1.00000000 0.13120000 0.00000000
1.00000000 0.13120000 0.00000000
1.00000000 0.13120000 0.00000000
1.00000000 0.13120000 0.00000000
0.00000000 0.19270000 0.00000000
0.03360000 0.19270000 0.00000000
0.11760000 0.19270000 0.00000000
0.20160000 0.19270000 0.00000000
0.28560000 0.19270000 0.00000000
0.36960000 0.19270000 0.00000000
0.45360000 0.19270000 0.00000000
0.53760000 0.19270000 0.00000000
0.62160000 0.19270000 0.00000000
0.70560000 0.19270000 0.00000000
0.78960000 0.19270000 0.00000000
0.87360000 0.19270000 0.00000000
0.95760000 0.19270000 0.00000000
1.00000000 0.19270000 0.00000000
1.00000000 0.19270000 0.00000000
1.00000000 0.19270000 0.00000000
1.00000000 0.19270000 0.00000000
0.00000000 0.25420000 0.00000000
0.03360000 0.25420000 0.00000000
0.11760000 0.25420000 0.00000000
0.20160000 0.25420000 0.00000000
0.28560000 0.25420000 0.00000000
0.36960000 0.25420000 0.00000000
0.45360000 0.25420000 0.00000000
0.53760000 0.25420000 0.00000000
0.62160000 0.25420000 0.00000000
0.70560000 0.25420000 0.00000000
0.78960000 0.25420000 0.00000000
0.87360000 0.25420000 0.00000000
0.95760000 0.25420000 0.00000000
1.00000000 0.25420000 0.00000000
1.00000000 0.25420000 0.00000000
1.00000000 0.25420000 0.00000000
1.00000000 0.25420000 0.00000000
0.00000000 0.31570000 0.00000000
0.03360000 0.31570000 0.00000000
0.11760000 0.31570000 0.00000000
0.20160000 0.31570000 0.00000000
0.28560000 0.31570000 0.00000000
0.36960000 0.31570000 0.00000000
0.45360000 0.31570000 0.00000000
0.53760000 0.31570000 0.00000000
0.62160000 0.31570000 0.00000000
0.70560000 0.31570000 0.00000000
0.78960000 0.31570000 0.00000000
0.87360000 0.31570000 0.00000000
0.95760000 0.31570000 0.00000000
1.00000000 0.31570000 0.00000000
1.00000000 0.31570000 0.00000000
1.00000000 0.31570000 0.00000000
1.00000000 0.31570000 0.00000000
0.00000000 0.37720000 0.00000000
0.03360000 0.37720000 0.00000000
0.11760000 0.37720000 0.00000000
0.20160000 0.37720000 0.00000000
0.28560000 0.37720000 0.00000000
0.36960000 0.37720000 0.00000000
0.45360000 0.37720000 0.00000000
0.53760000 0.37720000 0.00000000
0.62160000 0.37720000 0.00000000
0.70560000 0.37720000 0.00000000
0.78960000 0.37720000 0.00000000
0.87360000 0.37720000 0.00000000
0.95760000 0.37720000 0.00000000
1.00000000 0.37720000 0.00000000
1.00000000 0.37720000 0.00000000
1.00000000 0.37720000 0.00000000
1.00000000 0.37720000 0.00000000
0.00000000 0.43870000 0.00000000
0.03360000 0.43870000 0.00000000
0.11760000 0.43870000 0.00000000
0.20160000 0.43870000 0.00000000
0.28560000 0.43870000 0.00000000
0.36960000 0.43870000 0.00000000
0.45360000 0.43870000 0.00000000
0.53760000 0.43870000 0.00000000
0.62160000 0.43870000 0.00000000
0.70560000 0.43870000 0.00000000
0.78960000 0.43870000 0.00000000
0.87360000 0.43870000 0.00000000
0.95760000 0.43870000 0.00000000
1.00000000 0.43870000 0.00000000
1.00000000 0.43870000 0.00000000
1.00000000 0.43870000 0.00000000
1.00000000 0.43870000 0.00000000
0.00000000 0.50020000 0.00000000
0.03360000 0.50020000 0.00000000
0.11760000 0.50020000 0.00000000
0.20160000 0.50020000 0.00000000
0.28560000 0.50020000 0.00000000
0.36960000 0.50020000 0.00000000
0.45360000 0.50020000 0.00000000
0.53760000 0.50020000 0.00000000
0.62160000 0.50020000 0.00000000
0.70560000 0.50020000 0.00000000
0.78960000 0.50020000 0.00000000
0.87360000 0.50020000 0.00000000
0.95760000 0.50020000 0.00000000
1.00000000 0.50020000 0.00000000
1.00000000 0.50020000 0.00000000
1.00000000 0.50020000 0.00000000
1.00000000 0.50020000 0.00000000
0.00000000 0.56170000 0.00000000
0.03360000 0.56170000 0.00000000
0.11760000 0.56170000 0.00000000
0.20160000 0.56170000 0.00000000
0.28560000 0.56170000 0.00000000
0.36960000 0.56170000 0.00000000
0.45360000 0.56170000 0.00000000
0.53760000 0.56170000 0.00000000
0.62160000 0.56170000 0.00000000
0.70560000 0.56170000 0.00000000
0.78960000 0.56170000 0.00000000
0.87360000 0.56170000 0.00000000
0.95760000 0.56170000 0.00000000
1.00000000 0.56170000 0.00000000
1.00000000 0.56170000 0.00000000
1.00000000 0.56170000 0.00000000
1.00000000 0.56170000 0.00000000
0.00000000 0.62320000 0.00000000
0.03360000 0.62320000 0.00000000
0.11760000 0.62320000 0.00000000
0.20160000 0.62320000 0.00000000
0.28560000 0.62320000 0.00000000
0.36960000 0.62320000 0.00000000
0.45360000 0.62320000 0.00000000
0.53760000 0.62320000 0.00000000
0.62160000 0.62320000 0.00000000
0.70560000 0.62320000 0.00000000
0.78960000 0.62320000 0.00000000
0.87360000 0.62320000 0.00000000
0.95760000 0.62320000 0.00000000
1.00000000 0.62320000 0.00000000
1.00000000 0.62320000 0.00000000
1.00000000 0.62320000 0.00000000
1.00000000 0.62320000 0.00000000
0.00000000 0.68470000 0.00000000
0.03360000 0.68470000 0.00000000
0.11760000 0.68470000 0.00000000
0.20160000 0.68470000 0.00000000
0.28560000 0.68470000 0.00000000
0.36960000 0.68470000 0.00000000
0.45360000 0.68470000 0.00000000
0.53760000 0.68470000 0.00000000
0.62160000 0.68470000 0.00000000
0.70560000 0.68470000 0.00000000
0.78960000 0.68470000 0.00000000
0.87360000 0.68470000 0.00000000
0.95760000 0.68470000 0.00000000
1.00000000 0.68470000 0.00000000
1.00000000 0.68470000 0.00000000
1.00000000 0.68470000 0.00000000
1.00000000 0.68470000 0.00000000
0.00000000 0.74620000 0.00000000
0.03360000 0.74620000 0.00000000
0.11760000 0.74620000 0.00000000
0.20160000 0.74620000 0.00000000
0.28560000 0.74620000 0.00000000
0.36960000 0.74620000 0.00000000
0.45360000 0.74620000 0.00000000
0.53760000 0.74620000 0.00000000
0.62160000 0.74620000 0.00000000
0.70560000 0.74620000 0.00000000
0.78960000 0.74620000 0.00000000
0.87360000 0.74620000 0.00000000
0.95760000 0.74620000 0.00000000
1.00000000 0.74620000 0.00000000
1.00000000 0.74620000 0.00000000
1.00000000 0.74620000 0.00000000
1.00000000 0.74620000 0.00000000
0.00000000 0.80770000 0.00000000
0.03360000 0.80770000 0.00000000
0.11760000 0.80770000 0.00000000
0.20160000 0.80770000 0.00000000
0.28560000 0.80770000 0.00000000
0.36960000 0.80770000 0.00000000
0.45360000 0.80770000 0.00000000
0.53760000 0.80770000 0.00000000
0.62160000 0.80770000 0.00000000
0.70560000 0.80770000 0.00000000
0.78960000 0.80770000 0.00000000
0.87360000 0.80770000 0.00000000
0.95760000 0.80770000 0.00000000
1.00000000 0.80770000 0.00000000
1.00000000 0.80770000 0.00000000
1.00000000 0.80770000 0.00000000
1.00000000 0.80770000 0.00000000
0.00000000 0.86920000 0.00000000
0.03360000 0.86920000 0.00000000
0.11760000 0.86920000 0.00000000
0.20160000 0.86920000 0.00000000
0.28560000 0.86920000 0.00000000
0.36960000 0.86920000 0.00000000
0.45360000 0.86920000 0.00000000
0.53760000 0.86920000 0.00000000
0.62160000 0.86920000 0.00000000
0.70560000 0.86920000 0.00000000
0.78960000 0.86920000 0.00000000
0.87360000 0.86920000 0.00000000
0.95760000 0.86920000 0.00000000
1.00000000 0.86920000 0.00000000
1.00000000 0.86920000 0.00000000
1.00000000 0.86920000 0.00000000
1.00000000 0.86920000 0.00000000
0.00000000 0.00000000 0.00820000
0.03360000 0.00000000 0.00820000
0.11760000 0.00000000 0.00820000
0.20160000 0.00000000 0.00820000
0.28560000 0.00000000 0.00820000
0.36960000 0.00000000 0.00820000
0.45360000 0.00000000 0.00820000
0.53760000 0.00000000 0.00820000
0.62160000 0.00000000 0.00820000
0.70560000 0.00000000 0.00820000
0.78960000 0.00000000 0.00820000
0.87360000 0.00000000 0.00820000
0.95760000 0.00000000 0.00820000
1.00000000 0.00000000 0.00820000
1.00000000 0.00000000 0.00820000
1.00000000 0.00000000 0.00820000
1.00000000 0.00000000 0.00820000
0.00000000 0.00000000 0.00820000
0.03360000 0.00000000 0.00820000
0.11760000 0.00000000 0.00820000
0.20160000 0.00000000 0.00820000
0.28560000 0.00000000 0.00820000
0.36960000 0.00000000 0.00820000
0.45360000 0.00000000 0.00820000
0.53760000 0.00000000 0.00820000
0.62160000 0.00000000 0.00820000
0.70560000 0.00000000 0.00820000
0.78960000 0.00000000 0.00820000
0.87360000 0.00000000 0.00820000
0.95760000 0.00000000 0.00820000
1.00000000 0.00000000 0.00820000
1.00000000 0.00000000 0.00820000
1.00000000 0.00000000 0.00820000
1.00000000 0.00000000 0.00820000
0.00000000 0.00820000 0.00820000
0.03360000 0.00312000 0.00312000
0.11760000 0.00000000 0.00000000
0.20160000 0.00000000 0.00000000
0.28560000 0.00000000 0.00000000
0.36960000 0.00000000 0.00000000
0.45360000 0.00000000 0.00000000
0.53760000 0.00000000 0.00000000
0.62160000 0.00000000 0.00000000
0.70560000 0.00000000 0.00000000
0.78960000 0.00000000 0.00000000
0.87360000 0.00000000 0.00000000
0.95760000 0.00000000 0.00000000
1.00000000 0.00000000 0.00000000
1.00000000 0.00000000 0.00000000
1.00000000 0.00000000 0.00000000
1.00000000 0.00000000 0.00000000
0.00000000 0.06970000 0.00820000
0.02878667 0.06970000 0.00000000
0.11760000 0.06610969 0.00000000
0.20160000 0.06410755 0.00000000
0.28560000 0.06331795 0.00000000
0.36960000 0.06289541 0.00000000
0.45360000 0.06263224 0.00000000
0.53760000 0.06245259 0.00000000
0.62160000 0.06232214 0.00000000
0.70560000 0.06222311 0.00000000
0.78960000 0.06214538 0.00000000
0.87360000 0.06208274 0.00000000
0.95760000 0.06203118 0.00000000
1.00000000 0.06200847 0.00000000
1.00000000 0.06200847 0.00000000
1.00000000 0.06200847 0.00000000
1.00000000 0.06200847 0.00000000
0.00000000 0.13120000 0.00820000
0.02709333 0.13120000 0.00000000
0.11669333 0.13120000 0.00000000
0.20160000 0.12821510 0.00000000
0.28560000 0.12663590 0.00000000
0.36960000 0.12579081 0.00000000
0.45360000 0.12526448 0.00000000
0.53760000 0.12490518 0.00000000
0.62160000 0.12464428 0.00000000
0.70560000 0.12444623 0.00000000
0.78960000 0.12429076 0.00000000
0.87360000 0.12416547 0.00000000
0.95760000 0.12406236 0.00000000
1.00000000 0.12401694 0.00000000
1.00000000 0.12401694 0.00000000
1.00000000 0.12401694 0.00000000
1.00000000 0.12401694 0.00000000
0.00000000 0.19270000 0.00820000
0.02652889 0.19270000 0.00000000
0.11426222 0.19270000 0.00000000
0.20160000 0.19232265 0.00000000
0.28560000 0.18995386 0.00000000
0.36960000 0.18868622 0.00000000
0.45360000 0.18789672 0.00000000
0.53760000 0.18735776 0.00000000
0.62160000 0.18696642 0.00000000
0.70560000 0.18666934 0.00000000
0.78960000 0.18643614 0.00000000
0.87360000 0.18624821 0.00000000
0.95760000 0.18609353 0.00000000
1.00000000 0.18602541 0.00000000
1.00000000 0.18602541 0.00000000
1.00000000 0.18602541 0.00000000
1.00000000 0.18602541 0.00000000
0.00000000 0.25420000 0.00820000
0.02624667 0.25420000 0.00000000
0.11304667 0.25420000 0.00000000
0.19984667 0.25420000 0.00000000
0.28560000 0.25327181 0.00000000
0.36960000 0.25158163 0.00000000
0.45360000 0.25052896 0.00000000
0.53760000 0.24981035 0.00000000
0.62160000 0.24928856 0.00000000
0.70560000 0.24889246 0.00000000
0.78960000 0.24858152 0.00000000
0.87360000 0.24833095 0.00000000
0.95760000 0.24812471 0.00000000
1.00000000 0.24803388 0.00000000
1.00000000 0.24803388 0.00000000
1.00000000 0.24803388 0.00000000
1.00000000 0.24803388 0.00000000
0.00000000 0.31570000 0.00820000
0.02607733 0.31570000 0.00000000
0.11231733 0.31570000 0.00000000
0.19855733 0.31570000 0.00000000
0.28479733 0.31570000 0.00000000
0.36960000 0.31447703 0.00000000
0.45360000 0.31316120 0.00000000
0.53760000 0.31226294 0.00000000
0.62160000 0.31161069 0.00000000
0.70560000 0.31111557 0.00000000
0.78960000 0.31072690 0.00000000
0.87360000 0.31041368 0.00000000
0.95760000 0.31015589 0.00000000
1.00000000 0.31004235 0.00000000
1.00000000 0.31004235 0.00000000
1.00000000 0.31004235 0.00000000
1.00000000 0.31004235 0.00000000
0.00000000 0.37720000 0.00820000
0.02596444 0.37720000 0.00000000
0.11183111 0.37720000 0.00000000
0.19769778 0.37720000 0.00000000
0.28356444 0.37720000 0.00000000
0.36943111 0.37720000 0.00000000
0.45360000 0.37579344 0.00000000
0.53760000 0.37471553 0.00000000
0.62160000 0.37393283 0.00000000
0.70560000 0.37333869 0.00000000
