recipes/color/red_impact_v1/red_impact_v1.cube
TITLE "red_impact_v1"
LUT_3D_SIZE 5
DOMAIN_MIN 0.0 0.0 0.0
DOMAIN_MAX 1.0 1.0 1.0
0.00000000 0.00000000 0.00000000
0.28560000 0.00000000 0.00000000
0.62160000 0.00000000 0.00000000
0.95760000 0.00000000 0.00000000
1.00000000 0.00000000 0.00000000
0.00000000 0.13120000 0.00000000
0.28560000 0.13120000 0.00000000
0.62160000 0.13120000 0.00000000
0.95760000 0.13120000 0.00000000
1.00000000 0.13120000 0.00000000
0.00000000 0.37720000 0.00000000
0.28560000 0.37720000 0.00000000
0.62160000 0.37720000 0.00000000
0.95760000 0.37720000 0.00000000
1.00000000 0.37720000 0.00000000
0.00000000 0.62320000 0.00000000
0.28560000 0.62320000 0.00000000
0.62160000 0.62320000 0.00000000
0.95760000 0.62320000 0.00000000
1.00000000 0.62320000 0.00000000
0.00000000 0.86920000 0.00000000
0.28560000 0.86920000 0.00000000
0.62160000 0.86920000 0.00000000
0.95760000 0.86920000 0.00000000
1.00000000 0.86920000 0.00000000
0.00000000 0.00000000 0.13120000
0.28560000 0.00000000 0.13120000
0.62160000 0.00000000 0.13120000
0.95760000 0.00000000 0.13120000
1.00000000 0.00000000 0.13120000
0.00000000 0.13120000 0.13120000
0.28560000 0.10032000 0.10032000
0.62160000 0.03312000 0.03312000
0.95760000 0.00000000 0.00000000
1.00000000 0.00000000 0.00000000
0.00000000 0.37720000 0.13120000
0.26728000 0.37720000 0.08200000
0.62160000 0.32832000 0.03312000
0.95760000 0.28505518 0.00000000
1.00000000 0.28314917 0.00000000
0.00000000 0.62320000 0.13120000
0.21808000 0.62320000 0.03280000
0.62128000 0.62320000 0.03280000
0.95760000 0.57011036 0.00000000
1.00000000 0.56629834 0.00000000
0.00000000 0.86920000 0.13120000
0.18184889 0.86920000 0.00000000
0.57758222 0.86920000 0.00000000
0.95760000 0.85516554 0.00000000
1.00000000 0.84944751 0.00000000
0.00000000 0.00000000 0.37720000
0.28560000 0.00000000 0.37720000
0.62160000 0.00000000 0.37720000
0.95760000 0.00000000 0.37720000
1.00000000 0.00000000 0.37720000
0.00000000 0.13120000 0.37720000
0.26728000 0.08200000 0.37720000
0.62160000 0.03312000 0.32832000
0.95760000 0.00000000 0.28505518
1.00000000 0.00000000 0.28314917
0.00000000 0.37720000 0.37720000
0.26728000 0.37720000 0.37720000
0.62160000 0.32832000 0.32832000
0.95760000 0.26112000 0.26112000
1.00000000 0.25264000 0.25264000
0.00000000 0.62320000 0.37720000
0.21808000 0.62320000 0.32800000
0.62128000 0.62320000 0.32800000
0.95760000 0.55632000 0.26112000
1.00000000 0.54784000 0.25264000
0.00000000 0.86920000 0.37720000
0.16888000 0.86920000 0.27880000
0.57208000 0.86920000 0.27880000
0.95760000 0.85152000 0.26112000
1.00000000 0.84304000 0.25264000
0.00000000 0.00000000 0.62320000
0.28560000 0.00000000 0.62320000
0.62160000 0.00000000 0.62320000
0.95760000 0.00000000 0.62320000
1.00000000 0.00000000 0.62320000
0.00000000 0.13120000 0.62320000
0.21808000 0.03280000 0.62320000
0.62128000 0.03280000 0.62320000
0.95760000 0.00000000 0.57011036
1.00000000 0.00000000 0.56629834
0.00000000 0.37720000 0.62320000
0.21808000 0.32800000 0.62320000
0.62128000 0.32800000 0.62320000
0.95760000 0.26112000 0.55632000
1.00000000 0.25264000 0.54784000
0.00000000 0.62320000 0.62320000
0.21808000 0.62320000 0.62320000
0.62128000 0.62320000 0.62320000
0.95760000 0.55632000 0.55632000
1.00000000 0.54784000 0.54784000
0.00000000 0.86920000 0.62320000
0.16888000 0.86920000 0.57400000
0.57208000 0.86920000 0.57400000
0.95760000 0.85152000 0.55632000
1.00000000 0.84304000 0.54784000
0.00000000 0.00000000 0.86920000
0.28560000 0.00000000 0.86920000
0.62160000 0.00000000 0.86920000
0.95760000 0.00000000 0.86920000
1.00000000 0.00000000 0.86920000
0.00000000 0.13120000 0.86920000
0.18184889 0.00000000 0.86920000
0.57758222 0.00000000 0.86920000
0.95760000 0.00000000 0.85516554
1.00000000 0.00000000 0.84944751
0.00000000 0.37720000 0.86920000
0.16888000 0.27880000 0.86920000
0.57208000 0.27880000 0.86920000
0.95760000 0.26112000 0.85152000
1.00000000 0.25264000 0.84304000
0.00000000 0.62320000 0.86920000
0.16888000 0.57400000 0.86920000
0.57208000 0.57400000 0.86920000
0.95760000 0.55632000 0.85152000
1.00000000 0.54784000 0.84304000
0.00000000 0.86920000 0.86920000
0.16888000 0.86920000 0.86920000
0.57208000 0.86920000 0.86920000
0.95760000 0.85152000 0.85152000
1.00000000 0.84304000 0.84304000
