recipes/color/red_impact_v1/red_impact_v1.cube
TITLE "red_impact_v1"
LUT_3D_SIZE 9
DOMAIN_MIN 0.0 0.0 0.0
DOMAIN_MAX 1.0 1.0 1.0
0.00000000 0.00000000 0.00000000
0.11760000 0.00000000 0.00000000
0.28560000 0.00000000 0.00000000
0.45360000 0.00000000 0.00000000
0.62160000 0.00000000 0.00000000
0.78960000 0.00000000 0.00000000
0.95760000 0.00000000 0.00000000
1.00000000 0.00000000 0.00000000
1.00000000 0.00000000 0.00000000
0.00000000 0.00820000 0.00000000
0.11760000 0.00820000 0.00000000
0.28560000 0.00820000 0.00000000
0.45360000 0.00820000 0.00000000
0.62160000 0.00820000 0.00000000
0.78960000 0.00820000 0.00000000
0.95760000 0.00820000 0.00000000
1.00000000 0.00820000 0.00000000
1.00000000 0.00820000 0.00000000
0.00000000 0.13120000 0.00000000
0.11760000 0.13120000 0.00000000
0.28560000 0.13120000 0.00000000
0.45360000 0.13120000 0.00000000
0.62160000 0.13120000 0.00000000
0.78960000 0.13120000 0.00000000
0.95760000 0.13120000 0.00000000
1.00000000 0.13120000 0.00000000
1.00000000 0.13120000 0.00000000
0.00000000 0.25420000 0.00000000
0.11760000 0.25420000 0.00000000
0.28560000 0.25420000 0.00000000
0.45360000 0.25420000 0.00000000
0.62160000 0.25420000 0.00000000
0.78960000 0.25420000 0.00000000
0.95760000 0.25420000 0.00000000
1.00000000 0.25420000 0.00000000
1.00000000 0.25420000 0.00000000
0.00000000 0.37720000 0.00000000
0.11760000 0.37720000 0.00000000
0.28560000 0.37720000 0.00000000
0.45360000 0.37720000 0.00000000
0.62160000 0.37720000 0.00000000
0.78960000 0.37720000 0.00000000
0.95760000 0.37720000 0.00000000
1.00000000 0.37720000 0.00000000
1.00000000 0.37720000 0.00000000
0.00000000 0.50020000 0.00000000
0.11760000 0.50020000 0.00000000
0.28560000 0.50020000 0.00000000
0.45360000 0.50020000 0.00000000
0.62160000 0.50020000 0.00000000
0.78960000 0.50020000 0.00000000
0.95760000 0.50020000 0.00000000
1.00000000 0.50020000 0.00000000
1.00000000 0.50020000 0.00000000
0.00000000 0.62320000 0.00000000
0.11760000 0.62320000 0.00000000
0.28560000 0.62320000 0.00000000
0.45360000 0.62320000 0.00000000
0.62160000 0.62320000 0.00000000
0.78960000 0.62320000 0.00000000
0.95760000 0.62320000 0.00000000
1.00000000 0.62320000 0.00000000
1.00000000 0.62320000 0.00000000
0.00000000 0.74620000 0.00000000
0.11760000 0.74620000 0.00000000
0.28560000 0.74620000 0.00000000
0.45360000 0.74620000 0.00000000
0.62160000 0.74620000 0.00000000
0.78960000 0.74620000 0.00000000
0.95760000 0.74620000 0.00000000
1.00000000 0.74620000 0.00000000
1.00000000 0.74620000 0.00000000
0.00000000 0.86920000 0.00000000
0.11760000 0.86920000 0.00000000
0.28560000 0.86920000 0.00000000
0.45360000 0.86920000 0.00000000
0.62160000 0.86920000 0.00000000
0.78960000 0.86920000 0.00000000
0.95760000 0.86920000 0.00000000
1.00000000 0.86920000 0.00000000
1.00000000 0.86920000 0.00000000
0.00000000 0.00000000 0.00820000
0.11760000 0.00000000 0.00820000
0.28560000 0.00000000 0.00820000
0.45360000 0.00000000 0.00820000
0.62160000 0.00000000 0.00820000
0.78960000 0.00000000 0.00820000
0.95760000 0.00000000 0.00820000
1.00000000 0.00000000 0.00820000
1.00000000 0.00000000 0.00820000
0.00000000 0.00820000 0.00820000
0.11760000 0.00000000 0.00000000
0.28560000 0.00000000 0.00000000
0.45360000 0.00000000 0.00000000
0.62160000 0.00000000 0.00000000
0.78960000 0.00000000 0.00000000
0.95760000 0.00000000 0.00000000
1.00000000 0.00000000 0.00000000
1.00000000 0.00000000 0.00000000
0.00000000 0.13120000 0.00820000
0.11669333 0.13120000 0.00000000
0.28560000 0.12663590 0.00000000
0.45360000 0.12526448 0.00000000
0.62160000 0.12464428 0.00000000
0.78960000 0.12429076 0.00000000
0.95760000 0.12406236 0.00000000
1.00000000 0.12401694 0.00000000
1.00000000 0.12401694 0.00000000
0.00000000 0.25420000 0.00820000
0.11304667 0.25420000 0.00000000
0.28560000 0.25327181 0.00000000
0.45360000 0.25052896 0.00000000
0.62160000 0.24928856 0.00000000
0.78960000 0.24858152 0.00000000
0.95760000 0.24812471 0.00000000
1.00000000 0.24803388 0.00000000
1.00000000 0.24803388 0.00000000
0.00000000 0.37720000 0.00820000
0.11183111 0.37720000 0.00000000
0.28356444 0.37720000 0.00000000
0.45360000 0.37579344 0.00000000
0.62160000 0.37393283 0.00000000
0.78960000 0.37287228 0.00000000
0.95760000 0.37218707 0.00000000
1.00000000 0.37205082 0.00000000
1.00000000 0.37205082 0.00000000
0.00000000 0.50020000 0.00820000
0.11122333 0.50020000 0.00000000
0.28202333 0.50020000 0.00000000
0.45282333 0.50020000 0.00000000
0.62160000 0.49857711 0.00000000
0.78960000 0.49716304 0.00000000
0.95760000 0.49624942 0.00000000
1.00000000 0.49606776 0.00000000
1.00000000 0.49606776 0.00000000
0.00000000 0.62320000 0.00820000
0.11085867 0.62320000 0.00000000
0.28109867 0.62320000 0.00000000
0.45133867 0.62320000 0.00000000
0.62157867 0.62320000 0.00000000
0.78960000 0.62145380 0.00000000
0.95760000 0.62031178 0.00000000
1.00000000 0.62008469 0.00000000
1.00000000 0.62008469 0.00000000
0.00000000 0.74620000 0.00820000
0.11061556 0.74620000 0.00000000
0.28048222 0.74620000 0.00000000
0.45034889 0.74620000 0.00000000
0.62021556 0.74620000 0.00000000
0.78960000 0.74574456 0.00000000
0.95760000 0.74437413 0.00000000
1.00000000 0.74410163 0.00000000
1.00000000 0.74410163 0.00000000
0.00000000 0.86920000 0.00820000
0.11044190 0.86920000 0.00000000
0.28004190 0.86920000 0.00000000
0.44964190 0.86920000 0.00000000
0.61924190 0.86920000 0.00000000
0.78884190 0.86920000 0.00000000
0.95760000 0.86843649 0.00000000
1.00000000 0.86811857 0.00000000
1.00000000 0.86811857 0.00000000
0.00000000 0.00000000 0.13120000
0.11760000 0.00000000 0.13120000
0.28560000 0.00000000 0.13120000
0.45360000 0.00000000 0.13120000
0.62160000 0.00000000 0.13120000
0.78960000 0.00000000 0.13120000
0.95760000 0.00000000 0.13120000
1.00000000 0.00000000 0.13120000
1.00000000 0.00000000 0.13120000
0.00000000 0.00820000 0.13120000
0.11669333 0.00000000 0.13120000
0.28560000 0.00000000 0.12663590
0.45360000 0.00000000 0.12526448
0.62160000 0.00000000 0.12464428
0.78960000 0.00000000 0.12429076
0.95760000 0.00000000 0.12406236
1.00000000 0.00000000 0.12401694
1.00000000 0.00000000 0.12401694
0.00000000 0.13120000 0.13120000
0.11488000 0.13120000 0.13120000
0.28560000 0.10032000 0.10032000
0.45360000 0.06672000 0.06672000
0.62160000 0.03312000 0.03312000
0.78960000 0.00000000 0.00000000
0.95760000 0.00000000 0.00000000
1.00000000 0.00000000 0.00000000
1.00000000 0.00000000 0.00000000
0.00000000 0.25420000 0.13120000
0.09028000 0.25420000 0.10660000
0.28560000 0.24792000 0.10032000
0.45360000 0.21432000 0.06672000
0.62160000 0.18072000 0.03312000
0.78960000 0.14751033 0.00000000
0.95760000 0.14252759 0.00000000
1.00000000 0.14157459 0.00000000
1.00000000 0.14157459 0.00000000
0.00000000 0.37720000 0.13120000
0.06568000 0.37720000 0.08200000
0.26728000 0.37720000 0.08200000
0.45360000 0.36192000 0.06672000
0.62160000 0.32832000 0.03312000
0.78960000 0.29502066 0.00000000
0.95760000 0.28505518 0.00000000
1.00000000 0.28314917 0.00000000
1.00000000 0.28314917 0.00000000
0.00000000 0.50020000 0.13120000
0.04108000 0.50020000 0.05740000
0.24268000 0.50020000 0.05740000
0.44428000 0.50020000 0.05740000
0.62160000 0.47592000 0.03312000
0.78960000 0.44253098 0.00000000
0.95760000 0.42758277 0.00000000
1.00000000 0.42472376 0.00000000
1.00000000 0.42472376 0.00000000
0.00000000 0.62320000 0.13120000
0.01648000 0.62320000 0.03280000
0.21808000 0.62320000 0.03280000
0.41968000 0.62320000 0.03280000
0.62128000 0.62320000 0.03280000
0.78960000 0.59004131 0.00000000
0.95760000 0.57011036 0.00000000
1.00000000 0.56629834 0.00000000
1.00000000 0.56629834 0.00000000
0.00000000 0.74620000 0.13120000
0.00000000 0.74620000 0.01614432
0.19348000 0.74620000 0.00820000
0.39508000 0.74620000 0.00820000
0.59668000 0.74620000 0.00820000
0.78960000 0.73755164 0.00000000
0.95760000 0.71263795 0.00000000
1.00000000 0.70787293 0.00000000
1.00000000 0.70787293 0.00000000
0.00000000 0.86920000 0.13120000
0.00000000 0.86920000 0.01572794
0.18184889 0.86920000 0.00000000
0.37971556 0.86920000 0.00000000
0.57758222 0.86920000 0.00000000
0.77544889 0.86920000 0.00000000
0.95760000 0.85516554 0.00000000
1.00000000 0.84944751 0.00000000
1.00000000 0.84944751 0.00000000
0.00000000 0.00000000 0.25420000
0.11760000 0.00000000 0.25420000
0.28560000 0.00000000 0.25420000
0.45360000 0.00000000 0.25420000
0.62160000 0.00000000 0.25420000
0.78960000 0.00000000 0.25420000
0.95760000 0.00000000 0.25420000
1.00000000 0.00000000 0.25420000
1.00000000 0.00000000 0.25420000
0.00000000 0.00820000 0.25420000
0.11304667 0.00000000 0.25420000
0.28560000 0.00000000 0.25327181
0.45360000 0.00000000 0.25052896
0.62160000 0.00000000 0.24928856
0.78960000 0.00000000 0.24858152
0.95760000 0.00000000 0.24812471
1.00000000 0.00000000 0.24803388
1.00000000 0.00000000 0.24803388
0.00000000 0.13120000 0.25420000
0.09028000 0.10660000 0.25420000
0.28560000 0.10032000 0.24792000
0.45360000 0.06672000 0.21432000
0.62160000 0.03312000 0.18072000
0.78960000 0.00000000 0.14751033
0.95760000 0.00000000 0.14252759
1.00000000 0.00000000 0.14157459
1.00000000 0.00000000 0.14157459
0.00000000 0.25420000 0.25420000
0.09028000 0.25420000 0.25420000
0.28560000 0.24792000 0.24792000
0.45360000 0.21432000 0.21432000
0.62160000 0.18072000 0.18072000
0.78960000 0.14712000 0.14712000
0.95760000 0.11352000 0.11352000
1.00000000 0.10504000 0.10504000
1.00000000 0.10504000 0.10504000
0.00000000 0.37720000 0.25420000
0.06568000 0.37720000 0.22960000
0.26728000 0.37720000 0.22960000
0.45360000 0.36192000 0.21432000
0.62160000 0.32832000 0.18072000
0.78960000 0.29472000 0.14712000
0.95760000 0.26112000 0.11352000
1.00000000 0.25264000 0.10504000
1.00000000 0.25264000 0.10504000
0.00000000 0.50020000 0.25420000
0.04108000 0.50020000 0.20500000
0.24268000 0.50020000 0.20500000
0.44428000 0.50020000 0.20500000
0.62160000 0.47592000 0.18072000
0.78960000 0.44232000 0.14712000
0.95760000 0.40872000 0.11352000
1.00000000 0.40024000 0.10504000
1.00000000 0.40024000 0.10504000
0.00000000 0.62320000 0.25420000
0.01648000 0.62320000 0.18040000
0.21808000 0.62320000 0.18040000
0.41968000 0.62320000 0.18040000
0.62128000 0.62320000 0.18040000
0.78960000 0.58992000 0.14712000
0.95760000 0.55632000 0.11352000
1.00000000 0.54784000 0.10504000
1.00000000 0.54784000 0.10504000
0.00000000 0.74620000 0.25420000
0.00000000 0.74620000 0.16215546
0.19348000 0.74620000 0.15580000
0.39508000 0.74620000 0.15580000
0.59668000 0.74620000 0.15580000
0.78960000 0.73752000 0.14712000
0.95760000 0.70392000 0.11352000
1.00000000 0.69544000 0.10504000
1.00000000 0.69544000 0.10504000
0.00000000 0.86920000 0.25420000
0.00000000 0.86920000 0.15797328
0.16888000 0.86920000 0.13120000
0.37048000 0.86920000 0.13120000
0.57208000 0.86920000 0.13120000
0.77368000 0.86920000 0.13120000
0.95760000 0.85152000 0.11352000
1.00000000 0.84304000 0.10504000
1.00000000 0.84304000 0.10504000
0.00000000 0.00000000 0.37720000
0.11760000 0.00000000 0.37720000
0.28560000 0.00000000 0.37720000
0.45360000 0.00000000 0.37720000
0.62160000 0.00000000 0.37720000
0.78960000 0.00000000 0.37720000
0.95760000 0.00000000 0.37720000
1.00000000 0.00000000 0.37720000
1.00000000 0.00000000 0.37720000
0.00000000 0.00820000 0.37720000
0.11183111 0.00000000 0.37720000
0.28356444 0.00000000 0.37720000
0.45360000 0.00000000 0.37579344
0.62160000 0.00000000 0.37393283
0.78960000 0.00000000 0.37287228
0.95760000 0.00000000 0.37218707
1.00000000 0.00000000 0.37205082
1.00000000 0.00000000 0.37205082
0.00000000 0.13120000 0.37720000
0.06568000 0.08200000 0.37720000
0.26728000 0.08200000 0.37720000
0.45360000 0.06672000 0.36192000
0.62160000 0.03312000 0.32832000
0.78960000 0.00000000 0.29502066
0.95760000 0.00000000 0.28505518
1.00000000 0.00000000 0.28314917
1.00000000 0.00000000 0.28314917
0.00000000 0.25420000 0.37720000
0.06568000 0.22960000 0.37720000
0.26728000 0.22960000 0.37720000
0.45360000 0.21432000 0.36192000
0.62160000 0.18072000 0.32832000
0.78960000 0.14712000 0.29472000
0.95760000 0.11352000 0.26112000
1.00000000 0.10504000 0.25264000
1.00000000 0.10504000 0.25264000
0.00000000 0.37720000 0.37720000
0.06568000 0.37720000 0.37720000
0.26728000 0.37720000 0.37720000
0.45360000 0.36192000 0.36192000
0.62160000 0.32832000 0.32832000
0.78960000 0.29472000 0.29472000
0.95760000 0.26112000 0.26112000
1.00000000 0.25264000 0.25264000
1.00000000 0.25264000 0.25264000
0.00000000 0.50020000 0.37720000
0.04108000 0.50020000 0.35260000
0.24268000 0.50020000 0.35260000
0.44428000 0.50020000 0.35260000
0.62160000 0.47592000 0.32832000
0.78960000 0.44232000 0.29472000
0.95760000 0.40872000 0.26112000
1.00000000 0.40024000 0.25264000
1.00000000 0.40024000 0.25264000
0.00000000 0.62320000 0.37720000
0.01648000 0.62320000 0.32800000
0.21808000 0.62320000 0.32800000
0.41968000 0.62320000 0.32800000
0.62128000 0.62320000 0.32800000
0.78960000 0.58992000 0.29472000
0.95760000 0.55632000 0.26112000
1.00000000 0.54784000 0.25264000
1.00000000 0.54784000 0.25264000
0.00000000 0.74620000 0.37720000
0.00000000 0.74620000 0.30816659
0.19348000 0.74620000 0.30340000
0.39508000 0.74620000 0.30340000
0.59668000 0.74620000 0.30340000
0.78960000 0.73752000 0.29472000
0.95760000 0.70392000 0.26112000
1.00000000 0.69544000 0.25264000
1.00000000 0.69544000 0.25264000
0.00000000 0.86920000 0.37720000
0.00000000 0.86920000 0.30021863
0.16888000 0.86920000 0.27880000
0.37048000 0.86920000 0.27880000
0.57208000 0.86920000 0.27880000
0.77368000 0.86920000 0.27880000
0.95760000 0.85152000 0.26112000
1.00000000 0.84304000 0.25264000
1.00000000 0.84304000 0.25264000
0.00000000 0.00000000 0.50020000
0.11760000 0.00000000 0.50020000
0.28560000 0.00000000 0.50020000
0.45360000 0.00000000 0.50020000
0.62160000 0.00000000 0.50020000
0.78960000 0.00000000 0.50020000
0.95760000 0.00000000 0.50020000
1.00000000 0.00000000 0.50020000
1.00000000 0.00000000 0.50020000
0.00000000 0.00820000 0.50020000
0.11122333 0.00000000 0.50020000
0.28202333 0.00000000 0.50020000
0.45282333 0.00000000 0.50020000
0.62160000 0.00000000 0.49857711
0.78960000 0.00000000 0.49716304
0.95760000 0.00000000 0.49624942
1.00000000 0.00000000 0.49606776
1.00000000 0.00000000 0.49606776
0.00000000 0.13120000 0.50020000
0.04108000 0.05740000 0.50020000
0.24268000 0.05740000 0.50020000
0.44428000 0.05740000 0.50020000
0.62160000 0.03312000 0.47592000
0.78960000 0.00000000 0.44253098
0.95760000 0.00000000 0.42758277
1.00000000 0.00000000 0.42472376
1.00000000 0.00000000 0.42472376
0.00000000 0.25420000 0.50020000
0.04108000 0.20500000 0.50020000
0.24268000 0.20500000 0.50020000
0.44428000 0.20500000 0.50020000
0.62160000 0.18072000 0.47592000
0.78960000 0.14712000 0.44232000
0.95760000 0.11352000 0.40872000
1.00000000 0.10504000 0.40024000
1.00000000 0.10504000 0.40024000
0.00000000 0.37720000 0.50020000
0.04108000 0.35260000 0.50020000
0.24268000 0.35260000 0.50020000
0.44428000 0.35260000 0.50020000
0.62160000 0.32832000 0.47592000
0.78960000 0.29472000 0.44232000
0.95760000 0.26112000 0.40872000
1.00000000 0.25264000 0.40024000
1.00000000 0.25264000 0.40024000
0.00000000 0.50020000 0.50020000
0.04108000 0.50020000 0.50020000
0.24268000 0.50020000 0.50020000
0.44428000 0.50020000 0.50020000
0.62160000 0.47592000 0.47592000
0.78960000 0.44232000 0.44232000
0.95760000 0.40872000 0.40872000
1.00000000 0.40024000 0.40024000
1.00000000 0.40024000 0.40024000
0.00000000 0.62320000 0.50020000
0.01648000 0.62320000 0.47560000
0.21808000 0.62320000 0.47560000
0.41968000 0.62320000 0.47560000
0.62128000 0.62320000 0.47560000
0.78960000 0.58992000 0.44232000
0.95760000 0.55632000 0.40872000
1.00000000 0.54784000 0.40024000
1.00000000 0.54784000 0.40024000
0.00000000 0.74620000 0.50020000
0.00000000 0.74620000 0.45417773
0.19348000 0.74620000 0.45100000
0.39508000 0.74620000 0.45100000
0.59668000 0.74620000 0.45100000
0.78960000 0.73752000 0.44232000
0.95760000 0.70392000 0.40872000
1.00000000 0.69544000 0.40024000
1.00000000 0.69544000 0.40024000
0.00000000 0.86920000 0.50020000
0.00000000 0.86920000 0.44246397
0.16888000 0.86920000 0.42640000
0.37048000 0.86920000 0.42640000
0.57208000 0.86920000 0.42640000
0.77368000 0.86920000 0.42640000
0.95760000 0.85152000 0.40872000
1.00000000 0.84304000 0.40024000
1.00000000 0.84304000 0.40024000
0.00000000 0.00000000 0.62320000
0.11760000 0.00000000 0.62320000
0.28560000 0.00000000 0.62320000
0.45360000 0.00000000 0.62320000
0.62160000 0.00000000 0.62320000
0.78960000 0.00000000 0.62320000
0.95760000 0.00000000 0.62320000
1.00000000 0.00000000 0.62320000
1.00000000 0.00000000 0.62320000
0.00000000 0.00820000 0.62320000
0.11085867 0.00000000 0.62320000
0.28109867 0.00000000 0.62320000
0.45133867 0.00000000 0.62320000
0.62157867 0.00000000 0.62320000
0.78960000 0.00000000 0.62145380
0.95760000 0.00000000 0.62031178
1.00000000 0.00000000 0.62008469
1.00000000 0.00000000 0.62008469
0.00000000 0.13120000 0.62320000
0.01648000 0.03280000 0.62320000
0.21808000 0.03280000 0.62320000
0.41968000 0.03280000 0.62320000
0.62128000 0.03280000 0.62320000
0.78960000 0.00000000 0.59004131
0.95760000 0.00000000 0.57011036
1.00000000 0.00000000 0.56629834
1.00000000 0.00000000 0.56629834
0.00000000 0.25420000 0.62320000
0.01648000 0.18040000 0.62320000
0.21808000 0.18040000 0.62320000
0.41968000 0.18040000 0.62320000
0.62128000 0.18040000 0.62320000
0.78960000 0.14712000 0.58992000
0.95760000 0.11352000 0.55632000
1.00000000 0.10504000 0.54784000
1.00000000 0.10504000 0.54784000
0.00000000 0.37720000 0.62320000
0.01648000 0.32800000 0.62320000
0.21808000 0.32800000 0.62320000
0.41968000 0.32800000 0.62320000
0.62128000 0.32800000 0.62320000
0.78960000 0.29472000 0.58992000
0.95760000 0.26112000 0.55632000
1.00000000 0.25264000 0.54784000
1.00000000 0.25264000 0.54784000
0.00000000 0.50020000 0.62320000
0.01648000 0.47560000 0.62320000
0.21808000 0.47560000 0.62320000
0.41968000 0.47560000 0.62320000
0.62128000 0.47560000 0.62320000
0.78960000 0.44232000 0.58992000
0.95760000 0.40872000 0.55632000
1.00000000 0.40024000 0.54784000
1.00000000 0.40024000 0.54784000
0.00000000 0.62320000 0.62320000
0.01648000 0.62320000 0.62320000
0.21808000 0.62320000 0.62320000
0.41968000 0.62320000 0.62320000
0.62128000 0.62320000 0.62320000
0.78960000 0.58992000 0.58992000
0.95760000 0.55632000 0.55632000
1.00000000 0.54784000 0.54784000
1.00000000 0.54784000 0.54784000
0.00000000 0.74620000 0.62320000
0.00000000 0.74620000 0.60018886
0.19348000 0.74620000 0.59860000
0.39508000 0.74620000 0.59860000
0.59668000 0.74620000 0.59860000
0.78960000 0.73752000 0.58992000
0.95760000 0.70392000 0.55632000
1.00000000 0.69544000 0.54784000
1.00000000 0.69544000 0.54784000
0.00000000 0.86920000 0.62320000
0.00000000 0.86920000 0.58470931
0.16888000 0.86920000 0.57400000
0.37048000 0.86920000 0.57400000
0.57208000 0.86920000 0.57400000
0.77368000 0.86920000 0.57400000
0.95760000 0.85152000 0.55632000
1.00000000 0.84304000 0.54784000
1.00000000 0.84304000 0.54784000
0.00000000 0.00000000 0.74620000
0.11760000 0.00000000 0.74620000
0.28560000 0.00000000 0.74620000
0.45360000 0.00000000 0.74620000
0.62160000 0.00000000 0.74620000
0.78960000 0.00000000 0.74620000
0.95760000 0.00000000 0.74620000
1.00000000 0.00000000 0.74620000
1.00000000 0.00000000 0.74620000
0.00000000 0.00820000 0.74620000
0.11061556 0.00000000 0.74620000
0.28048222 0.00000000 0.74620000
0.45034889 0.00000000 0.74620000
0.62021556 0.00000000 0.74620000
0.78960000 0.00000000 0.74574456
0.95760000 0.00000000 0.74437413
1.00000000 0.00000000 0.74410163
1.00000000 0.00000000 0.74410163
0.00000000 0.13120000 0.74620000
0.00000000 0.01614432 0.74620000
0.19348000 0.00820000 0.74620000
0.39508000 0.00820000 0.74620000
0.59668000 0.00820000 0.74620000
0.78960000 0.00000000 0.73755164
0.95760000 0.00000000 0.71263795
1.00000000 0.00000000 0.70787293
1.00000000 0.00000000 0.70787293
0.00000000 0.25420000 0.74620000
0.00000000 0.16215546 0.74620000
0.19348000 0.15580000 0.74620000
0.39508000 0.15580000 0.74620000
0.59668000 0.15580000 0.74620000
0.78960000 0.14712000 0.73752000
0.95760000 0.11352000 0.70392000
1.00000000 0.10504000 0.69544000
1.00000000 0.10504000 0.69544000
0.00000000 0.37720000 0.74620000
0.00000000 0.30816659 0.74620000
0.19348000 0.30340000 0.74620000
0.39508000 0.30340000 0.74620000
0.59668000 0.30340000 0.74620000
0.78960000 0.29472000 0.73752000
0.95760000 0.26112000 0.70392000
1.00000000 0.25264000 0.69544000
1.00000000 0.25264000 0.69544000
0.00000000 0.50020000 0.74620000
0.00000000 0.45417773 0.74620000
0.19348000 0.45100000 0.74620000
0.39508000 0.45100000 0.74620000
0.59668000 0.45100000 0.74620000
0.78960000 0.44232000 0.73752000
0.95760000 0.40872000 0.70392000
1.00000000 0.40024000 0.69544000
1.00000000 0.40024000 0.69544000
0.00000000 0.62320000 0.74620000
0.00000000 0.60018886 0.74620000
0.19348000 0.59860000 0.74620000
0.39508000 0.59860000 0.74620000
0.59668000 0.59860000 0.74620000
0.78960000 0.58992000 0.73752000
0.95760000 0.55632000 0.70392000
1.00000000 0.54784000 0.69544000
1.00000000 0.54784000 0.69544000
0.00000000 0.74620000 0.74620000
0.00000000 0.74620000 0.74620000
0.19348000 0.74620000 0.74620000
0.39508000 0.74620000 0.74620000
0.59668000 0.74620000 0.74620000
0.78960000 0.73752000 0.73752000
0.95760000 0.70392000 0.70392000
1.00000000 0.69544000 0.69544000
1.00000000 0.69544000 0.69544000
0.00000000 0.86920000 0.74620000
0.00000000 0.86920000 0.72695466
0.16888000 0.86920000 0.72160000
0.37048000 0.86920000 0.72160000
0.57208000 0.86920000 0.72160000
0.77368000 0.86920000 0.72160000
0.95760000 0.85152000 0.70392000
1.00000000 0.84304000 0.69544000
1.00000000 0.84304000 0.69544000
0.00000000 0.00000000 0.86920000
0.11760000 0.00000000 0.86920000
0.28560000 0.00000000 0.86920000
0.45360000 0.00000000 0.86920000
0.62160000 0.00000000 0.86920000
0.78960000 0.00000000 0.86920000
0.95760000 0.00000000 0.86920000
1.00000000 0.00000000 0.86920000
1.00000000 0.00000000 0.86920000
0.00000000 0.00820000 0.86920000
0.11044190 0.00000000 0.86920000
0.28004190 0.00000000 0.86920000
0.44964190 0.00000000 0.86920000
0.61924190 0.00000000 0.86920000
0.78884190 0.00000000 0.86920000
0.95760000 0.00000000 0.86843649
1.00000000 0.00000000 0.86811857
1.00000000 0.00000000 0.86811857
0.00000000 0.13120000 0.86920000
0.00000000 0.01572794 0.86920000
0.18184889 0.00000000 0.86920000
0.37971556 0.00000000 0.86920000
0.57758222 0.00000000 0.86920000
0.77544889 0.00000000 0.86920000
0.95760000 0.00000000 0.85516554
1.00000000 0.00000000 0.84944751
1.00000000 0.00000000 0.84944751
0.00000000 0.25420000 0.86920000
0.00000000 0.15797328 0.86920000
0.16888000 0.13120000 0.86920000
0.37048000 0.13120000 0.86920000
0.57208000 0.13120000 0.86920000
0.77368000 0.13120000 0.86920000
0.95760000 0.11352000 0.85152000
1.00000000 0.10504000 0.84304000
1.00000000 0.10504000 0.84304000
0.00000000 0.37720000 0.86920000
0.00000000 0.30021863 0.86920000
0.16888000 0.27880000 0.86920000
0.37048000 0.27880000 0.86920000
0.57208000 0.27880000 0.86920000
0.77368000 0.27880000 0.86920000
0.95760000 0.26112000 0.85152000
1.00000000 0.25264000 0.84304000
1.00000000 0.25264000 0.84304000
0.00000000 0.50020000 0.86920000
0.00000000 0.44246397 0.86920000
0.16888000 0.42640000 0.86920000
0.37048000 0.42640000 0.86920000
0.57208000 0.42640000 0.86920000
0.77368000 0.42640000 0.86920000
0.95760000 0.40872000 0.85152000
1.00000000 0.40024000 0.84304000
1.00000000 0.40024000 0.84304000
0.00000000 0.62320000 0.86920000
0.00000000 0.58470931 0.86920000
0.16888000 0.57400000 0.86920000
0.37048000 0.57400000 0.86920000
0.57208000 0.57400000 0.86920000
0.77368000 0.57400000 0.86920000
0.95760000 0.55632000 0.85152000
1.00000000 0.54784000 0.84304000
1.00000000 0.54784000 0.84304000
0.00000000 0.74620000 0.86920000
0.00000000 0.72695466 0.86920000
0.16888000 0.72160000 0.86920000
0.37048000 0.72160000 0.86920000
0.57208000 0.72160000 0.86920000
0.77368000 0.72160000 0.86920000
0.95760000 0.70392000 0.85152000
1.00000000 0.69544000 0.84304000
1.00000000 0.69544000 0.84304000
0.00000000 0.86920000 0.86920000
0.00000000 0.86920000 0.86920000
0.16888000 0.86920000 0.86920000
0.37048000 0.86920000 0.86920000
0.57208000 0.86920000 0.86920000
0.77368000 0.86920000 0.86920000
0.95760000 0.85152000 0.85152000
1.00000000 0.84304000 0.84304000
1.00000000 0.84304000 0.84304000
